(G-CODE GENERATED BY FLATCAM v8.98 - www.flatcam.org - Version Date: 2019/10/16)

(Name: BottomLayer)
(Type: G-code from Geometry)
(Units: IN)

(Created on Monday, 21 October 2019 at 22:26)

(TOOL DIAMETER: 0.0003 in)

(Feedrate: 3.1496 in/min)
(Feedrate_Z: 3.1496 in/min)
(Feedrate rapids 3.1496 in/min)

(Z_Cut: -0.0945 in)
(Z_Move: 0.0787 in)
(Z Toolchange: 0.5 in)
(X,Y Toolchange: 0.0000, 0.0000 in)
(Z Start: None in)
(Z End: 0.5 in)
(Steps per circle: 128)
(Postprocessor Geometry: grbl_11)

(X range:    0.1239 ...    5.0942  in)
(Y range:    0.0238 ...    0.9841  in)

(Spindle Speed: None RPM)


G20
G90
G94
G17

G01 F3.15
G00 Z0.0787

M03
G00 X0.1842 Y0.0589
G01 F3.15
G01 Z-0.0945
G01 F3.15
G01 X0.1841 Y0.0604 F3.15
G01 X0.1840 Y0.0619 F3.15
G01 X0.1838 Y0.0634 F3.15
G01 X0.1836 Y0.0648 F3.15
G01 X0.1833 Y0.0663 F3.15
G01 X0.1829 Y0.0677 F3.15
G01 X0.1824 Y0.0691 F3.15
G01 X0.1819 Y0.0705 F3.15
G01 X0.1813 Y0.0718 F3.15
G01 X0.1806 Y0.0731 F3.15
G01 X0.1799 Y0.0744 F3.15
G01 X0.1791 Y0.0757 F3.15
G01 X0.1782 Y0.0769 F3.15
G01 X0.1773 Y0.0781 F3.15
G01 X0.1764 Y0.0792 F3.15
G01 X0.1753 Y0.0803 F3.15
G01 X0.1743 Y0.0813 F3.15
G01 X0.1731 Y0.0822 F3.15
G01 X0.1720 Y0.0832 F3.15
G01 X0.1708 Y0.0840 F3.15
G01 X0.1695 Y0.0848 F3.15
G01 X0.1682 Y0.0855 F3.15
G01 X0.1669 Y0.0862 F3.15
G01 X0.1656 Y0.0868 F3.15
G01 X0.1642 Y0.0873 F3.15
G01 X0.1628 Y0.0878 F3.15
G01 X0.1613 Y0.0882 F3.15
G01 X0.1599 Y0.0885 F3.15
G01 X0.1584 Y0.0888 F3.15
G01 X0.1570 Y0.0889 F3.15
G01 X0.1555 Y0.0891 F3.15
G01 X0.1540 Y0.0891 F3.15
G01 X0.1525 Y0.0891 F3.15
G01 X0.1511 Y0.0889 F3.15
G01 X0.1496 Y0.0888 F3.15
G01 X0.1481 Y0.0885 F3.15
G01 X0.1467 Y0.0882 F3.15
G01 X0.1453 Y0.0878 F3.15
G01 X0.1439 Y0.0873 F3.15
G01 X0.1425 Y0.0868 F3.15
G01 X0.1411 Y0.0862 F3.15
G01 X0.1398 Y0.0855 F3.15
G01 X0.1385 Y0.0848 F3.15
G01 X0.1373 Y0.0840 F3.15
G01 X0.1361 Y0.0832 F3.15
G01 X0.1349 Y0.0822 F3.15
G01 X0.1338 Y0.0813 F3.15
G01 X0.1327 Y0.0803 F3.15
G01 X0.1317 Y0.0792 F3.15
G01 X0.1307 Y0.0781 F3.15
G01 X0.1298 Y0.0769 F3.15
G01 X0.1289 Y0.0757 F3.15
G01 X0.1282 Y0.0744 F3.15
G01 X0.1274 Y0.0731 F3.15
G01 X0.1268 Y0.0718 F3.15
G01 X0.1262 Y0.0705 F3.15
G01 X0.1256 Y0.0691 F3.15
G01 X0.1252 Y0.0677 F3.15
G01 X0.1248 Y0.0663 F3.15
G01 X0.1244 Y0.0648 F3.15
G01 X0.1242 Y0.0634 F3.15
G01 X0.1240 Y0.0619 F3.15
G01 X0.1239 Y0.0604 F3.15
G01 X0.1239 Y0.0589 F3.15
G01 X0.1239 Y0.0575 F3.15
G01 X0.1240 Y0.0560 F3.15
G01 X0.1242 Y0.0545 F3.15
G01 X0.1244 Y0.0531 F3.15
G01 X0.1248 Y0.0516 F3.15
G01 X0.1252 Y0.0502 F3.15
G01 X0.1256 Y0.0488 F3.15
G01 X0.1262 Y0.0474 F3.15
G01 X0.1268 Y0.0460 F3.15
G01 X0.1274 Y0.0447 F3.15
G01 X0.1282 Y0.0434 F3.15
G01 X0.1289 Y0.0422 F3.15
G01 X0.1298 Y0.0410 F3.15
G01 X0.1307 Y0.0398 F3.15
G01 X0.1317 Y0.0387 F3.15
G01 X0.1327 Y0.0376 F3.15
G01 X0.1338 Y0.0366 F3.15
G01 X0.1349 Y0.0356 F3.15
G01 X0.1361 Y0.0347 F3.15
G01 X0.1373 Y0.0339 F3.15
G01 X0.1385 Y0.0331 F3.15
G01 X0.1398 Y0.0323 F3.15
G01 X0.1411 Y0.0317 F3.15
G01 X0.1425 Y0.0311 F3.15
G01 X0.1439 Y0.0305 F3.15
G01 X0.1453 Y0.0301 F3.15
G01 X0.1467 Y0.0297 F3.15
G01 X0.1481 Y0.0294 F3.15
G01 X0.1496 Y0.0291 F3.15
G01 X0.1511 Y0.0289 F3.15
G01 X0.1525 Y0.0288 F3.15
G01 X0.1540 Y0.0288 F3.15
G01 X0.1555 Y0.0288 F3.15
G01 X0.1570 Y0.0289 F3.15
G01 X0.1584 Y0.0291 F3.15
G01 X0.1599 Y0.0294 F3.15
G01 X0.1613 Y0.0297 F3.15
G01 X0.1628 Y0.0301 F3.15
G01 X0.1642 Y0.0305 F3.15
G01 X0.1656 Y0.0311 F3.15
G01 X0.1669 Y0.0317 F3.15
G01 X0.1682 Y0.0323 F3.15
G01 X0.1695 Y0.0331 F3.15
G01 X0.1708 Y0.0339 F3.15
G01 X0.1720 Y0.0347 F3.15
G01 X0.1731 Y0.0356 F3.15
G01 X0.1743 Y0.0366 F3.15
G01 X0.1753 Y0.0376 F3.15
G01 X0.1764 Y0.0387 F3.15
G01 X0.1773 Y0.0398 F3.15
G01 X0.1782 Y0.0410 F3.15
G01 X0.1791 Y0.0422 F3.15
G01 X0.1799 Y0.0434 F3.15
G01 X0.1806 Y0.0447 F3.15
G01 X0.1813 Y0.0460 F3.15
G01 X0.1819 Y0.0474 F3.15
G01 X0.1824 Y0.0488 F3.15
G01 X0.1829 Y0.0502 F3.15
G01 X0.1833 Y0.0516 F3.15
G01 X0.1836 Y0.0531 F3.15
G01 X0.1838 Y0.0545 F3.15
G01 X0.1840 Y0.0560 F3.15
G01 X0.1841 Y0.0575 F3.15
G01 X0.1842 Y0.0589 F3.15
G00 Z0.0787
G00 X0.2842 Y0.0589
G01 F3.15
G01 Z-0.0945
G01 F3.15
G01 X0.2841 Y0.0604 F3.15
G01 X0.2840 Y0.0619 F3.15
G01 X0.2838 Y0.0634 F3.15
G01 X0.2836 Y0.0648 F3.15
G01 X0.2833 Y0.0663 F3.15
G01 X0.2829 Y0.0677 F3.15
G01 X0.2824 Y0.0691 F3.15
G01 X0.2819 Y0.0705 F3.15
G01 X0.2813 Y0.0718 F3.15
G01 X0.2806 Y0.0731 F3.15
G01 X0.2799 Y0.0744 F3.15
G01 X0.2791 Y0.0757 F3.15
G01 X0.2782 Y0.0769 F3.15
G01 X0.2773 Y0.0781 F3.15
G01 X0.2764 Y0.0792 F3.15
G01 X0.2753 Y0.0803 F3.15
G01 X0.2743 Y0.0813 F3.15
G01 X0.2731 Y0.0822 F3.15
G01 X0.2720 Y0.0832 F3.15
G01 X0.2708 Y0.0840 F3.15
G01 X0.2695 Y0.0848 F3.15
G01 X0.2682 Y0.0855 F3.15
G01 X0.2669 Y0.0862 F3.15
G01 X0.2656 Y0.0868 F3.15
G01 X0.2642 Y0.0873 F3.15
G01 X0.2628 Y0.0878 F3.15
G01 X0.2613 Y0.0882 F3.15
G01 X0.2599 Y0.0885 F3.15
G01 X0.2584 Y0.0888 F3.15
G01 X0.2570 Y0.0889 F3.15
G01 X0.2555 Y0.0891 F3.15
G01 X0.2540 Y0.0891 F3.15
G01 X0.2525 Y0.0891 F3.15
G01 X0.2511 Y0.0889 F3.15
G01 X0.2496 Y0.0888 F3.15
G01 X0.2481 Y0.0885 F3.15
G01 X0.2467 Y0.0882 F3.15
G01 X0.2453 Y0.0878 F3.15
G01 X0.2439 Y0.0873 F3.15
G01 X0.2425 Y0.0868 F3.15
G01 X0.2411 Y0.0862 F3.15
G01 X0.2398 Y0.0855 F3.15
G01 X0.2385 Y0.0848 F3.15
G01 X0.2373 Y0.0840 F3.15
G01 X0.2361 Y0.0832 F3.15
G01 X0.2349 Y0.0822 F3.15
G01 X0.2338 Y0.0813 F3.15
G01 X0.2327 Y0.0803 F3.15
G01 X0.2317 Y0.0792 F3.15
G01 X0.2307 Y0.0781 F3.15
G01 X0.2298 Y0.0769 F3.15
G01 X0.2289 Y0.0757 F3.15
G01 X0.2282 Y0.0744 F3.15
G01 X0.2274 Y0.0731 F3.15
G01 X0.2268 Y0.0718 F3.15
G01 X0.2262 Y0.0705 F3.15
G01 X0.2256 Y0.0691 F3.15
G01 X0.2252 Y0.0677 F3.15
G01 X0.2248 Y0.0663 F3.15
G01 X0.2244 Y0.0648 F3.15
G01 X0.2242 Y0.0634 F3.15
G01 X0.2240 Y0.0619 F3.15
G01 X0.2239 Y0.0604 F3.15
G01 X0.2239 Y0.0589 F3.15
G01 X0.2239 Y0.0575 F3.15
G01 X0.2240 Y0.0560 F3.15
G01 X0.2242 Y0.0545 F3.15
G01 X0.2244 Y0.0531 F3.15
G01 X0.2248 Y0.0516 F3.15
G01 X0.2252 Y0.0502 F3.15
G01 X0.2256 Y0.0488 F3.15
G01 X0.2262 Y0.0474 F3.15
G01 X0.2268 Y0.0460 F3.15
G01 X0.2274 Y0.0447 F3.15
G01 X0.2282 Y0.0434 F3.15
G01 X0.2289 Y0.0422 F3.15
G01 X0.2298 Y0.0410 F3.15
G01 X0.2307 Y0.0398 F3.15
G01 X0.2317 Y0.0387 F3.15
G01 X0.2327 Y0.0376 F3.15
G01 X0.2338 Y0.0366 F3.15
G01 X0.2349 Y0.0356 F3.15
G01 X0.2361 Y0.0347 F3.15
G01 X0.2373 Y0.0339 F3.15
G01 X0.2385 Y0.0331 F3.15
G01 X0.2398 Y0.0323 F3.15
G01 X0.2411 Y0.0317 F3.15
G01 X0.2425 Y0.0311 F3.15
G01 X0.2439 Y0.0305 F3.15
G01 X0.2453 Y0.0301 F3.15
G01 X0.2467 Y0.0297 F3.15
G01 X0.2481 Y0.0294 F3.15
G01 X0.2496 Y0.0291 F3.15
G01 X0.2511 Y0.0289 F3.15
G01 X0.2525 Y0.0288 F3.15
G01 X0.2540 Y0.0288 F3.15
G01 X0.2555 Y0.0288 F3.15
G01 X0.2570 Y0.0289 F3.15
G01 X0.2584 Y0.0291 F3.15
G01 X0.2599 Y0.0294 F3.15
G01 X0.2613 Y0.0297 F3.15
G01 X0.2628 Y0.0301 F3.15
G01 X0.2642 Y0.0305 F3.15
G01 X0.2656 Y0.0311 F3.15
G01 X0.2669 Y0.0317 F3.15
G01 X0.2682 Y0.0323 F3.15
G01 X0.2695 Y0.0331 F3.15
G01 X0.2708 Y0.0339 F3.15
G01 X0.2720 Y0.0347 F3.15
G01 X0.2731 Y0.0356 F3.15
G01 X0.2743 Y0.0366 F3.15
G01 X0.2753 Y0.0376 F3.15
G01 X0.2764 Y0.0387 F3.15
G01 X0.2773 Y0.0398 F3.15
G01 X0.2782 Y0.0410 F3.15
G01 X0.2791 Y0.0422 F3.15
G01 X0.2799 Y0.0434 F3.15
G01 X0.2806 Y0.0447 F3.15
G01 X0.2813 Y0.0460 F3.15
G01 X0.2819 Y0.0474 F3.15
G01 X0.2824 Y0.0488 F3.15
G01 X0.2829 Y0.0502 F3.15
G01 X0.2833 Y0.0516 F3.15
G01 X0.2836 Y0.0531 F3.15
G01 X0.2838 Y0.0545 F3.15
G01 X0.2840 Y0.0560 F3.15
G01 X0.2841 Y0.0575 F3.15
G01 X0.2842 Y0.0589 F3.15
G00 Z0.0787
G00 X0.3842 Y0.0589
G01 F3.15
G01 Z-0.0945
G01 F3.15
G01 X0.3841 Y0.0604 F3.15
G01 X0.3840 Y0.0619 F3.15
G01 X0.3838 Y0.0634 F3.15
G01 X0.3836 Y0.0648 F3.15
G01 X0.3833 Y0.0663 F3.15
G01 X0.3829 Y0.0677 F3.15
G01 X0.3824 Y0.0691 F3.15
G01 X0.3819 Y0.0705 F3.15
G01 X0.3813 Y0.0718 F3.15
G01 X0.3806 Y0.0731 F3.15
G01 X0.3799 Y0.0744 F3.15
G01 X0.3791 Y0.0757 F3.15
G01 X0.3782 Y0.0769 F3.15
G01 X0.3773 Y0.0781 F3.15
G01 X0.3764 Y0.0792 F3.15
G01 X0.3753 Y0.0803 F3.15
G01 X0.3743 Y0.0813 F3.15
G01 X0.3731 Y0.0822 F3.15
G01 X0.3720 Y0.0832 F3.15
G01 X0.3708 Y0.0840 F3.15
G01 X0.3695 Y0.0848 F3.15
G01 X0.3682 Y0.0855 F3.15
G01 X0.3669 Y0.0862 F3.15
G01 X0.3656 Y0.0868 F3.15
G01 X0.3642 Y0.0873 F3.15
G01 X0.3628 Y0.0878 F3.15
G01 X0.3613 Y0.0882 F3.15
G01 X0.3599 Y0.0885 F3.15
G01 X0.3584 Y0.0888 F3.15
G01 X0.3570 Y0.0889 F3.15
G01 X0.3555 Y0.0891 F3.15
G01 X0.3540 Y0.0891 F3.15
G01 X0.3525 Y0.0891 F3.15
G01 X0.3511 Y0.0889 F3.15
G01 X0.3496 Y0.0888 F3.15
G01 X0.3481 Y0.0885 F3.15
G01 X0.3467 Y0.0882 F3.15
G01 X0.3453 Y0.0878 F3.15
G01 X0.3439 Y0.0873 F3.15
G01 X0.3425 Y0.0868 F3.15
G01 X0.3411 Y0.0862 F3.15
G01 X0.3398 Y0.0855 F3.15
G01 X0.3385 Y0.0848 F3.15
G01 X0.3373 Y0.0840 F3.15
G01 X0.3361 Y0.0832 F3.15
G01 X0.3349 Y0.0822 F3.15
G01 X0.3338 Y0.0813 F3.15
G01 X0.3327 Y0.0803 F3.15
G01 X0.3317 Y0.0792 F3.15
G01 X0.3307 Y0.0781 F3.15
G01 X0.3298 Y0.0769 F3.15
G01 X0.3289 Y0.0757 F3.15
G01 X0.3282 Y0.0744 F3.15
G01 X0.3274 Y0.0731 F3.15
G01 X0.3268 Y0.0718 F3.15
G01 X0.3262 Y0.0705 F3.15
G01 X0.3256 Y0.0691 F3.15
G01 X0.3252 Y0.0677 F3.15
G01 X0.3248 Y0.0663 F3.15
G01 X0.3244 Y0.0648 F3.15
G01 X0.3242 Y0.0634 F3.15
G01 X0.3240 Y0.0619 F3.15
G01 X0.3239 Y0.0604 F3.15
G01 X0.3239 Y0.0589 F3.15
G01 X0.3239 Y0.0575 F3.15
G01 X0.3240 Y0.0560 F3.15
G01 X0.3242 Y0.0545 F3.15
G01 X0.3244 Y0.0531 F3.15
G01 X0.3248 Y0.0516 F3.15
G01 X0.3252 Y0.0502 F3.15
G01 X0.3256 Y0.0488 F3.15
G01 X0.3262 Y0.0474 F3.15
G01 X0.3268 Y0.0460 F3.15
G01 X0.3274 Y0.0447 F3.15
G01 X0.3282 Y0.0434 F3.15
G01 X0.3289 Y0.0422 F3.15
G01 X0.3298 Y0.0410 F3.15
G01 X0.3307 Y0.0398 F3.15
G01 X0.3317 Y0.0387 F3.15
G01 X0.3327 Y0.0376 F3.15
G01 X0.3338 Y0.0366 F3.15
G01 X0.3349 Y0.0356 F3.15
G01 X0.3361 Y0.0347 F3.15
G01 X0.3373 Y0.0339 F3.15
G01 X0.3385 Y0.0331 F3.15
G01 X0.3398 Y0.0323 F3.15
G01 X0.3411 Y0.0317 F3.15
G01 X0.3425 Y0.0311 F3.15
G01 X0.3439 Y0.0305 F3.15
G01 X0.3453 Y0.0301 F3.15
G01 X0.3467 Y0.0297 F3.15
G01 X0.3481 Y0.0294 F3.15
G01 X0.3496 Y0.0291 F3.15
G01 X0.3511 Y0.0289 F3.15
G01 X0.3525 Y0.0288 F3.15
G01 X0.3540 Y0.0288 F3.15
G01 X0.3555 Y0.0288 F3.15
G01 X0.3570 Y0.0289 F3.15
G01 X0.3584 Y0.0291 F3.15
G01 X0.3599 Y0.0294 F3.15
G01 X0.3613 Y0.0297 F3.15
G01 X0.3628 Y0.0301 F3.15
G01 X0.3642 Y0.0305 F3.15
G01 X0.3656 Y0.0311 F3.15
G01 X0.3669 Y0.0317 F3.15
G01 X0.3682 Y0.0323 F3.15
G01 X0.3695 Y0.0331 F3.15
G01 X0.3708 Y0.0339 F3.15
G01 X0.3720 Y0.0347 F3.15
G01 X0.3731 Y0.0356 F3.15
G01 X0.3743 Y0.0366 F3.15
G01 X0.3753 Y0.0376 F3.15
G01 X0.3764 Y0.0387 F3.15
G01 X0.3773 Y0.0398 F3.15
G01 X0.3782 Y0.0410 F3.15
G01 X0.3791 Y0.0422 F3.15
G01 X0.3799 Y0.0434 F3.15
G01 X0.3806 Y0.0447 F3.15
G01 X0.3813 Y0.0460 F3.15
G01 X0.3819 Y0.0474 F3.15
G01 X0.3824 Y0.0488 F3.15
G01 X0.3829 Y0.0502 F3.15
G01 X0.3833 Y0.0516 F3.15
G01 X0.3836 Y0.0531 F3.15
G01 X0.3838 Y0.0545 F3.15
G01 X0.3840 Y0.0560 F3.15
G01 X0.3841 Y0.0575 F3.15
G01 X0.3842 Y0.0589 F3.15
G00 Z0.0787
G00 X0.4842 Y0.0589
G01 F3.15
G01 Z-0.0945
G01 F3.15
G01 X0.4841 Y0.0604 F3.15
G01 X0.4840 Y0.0619 F3.15
G01 X0.4838 Y0.0634 F3.15
G01 X0.4836 Y0.0648 F3.15
G01 X0.4833 Y0.0663 F3.15
G01 X0.4829 Y0.0677 F3.15
G01 X0.4824 Y0.0691 F3.15
G01 X0.4819 Y0.0705 F3.15
G01 X0.4813 Y0.0718 F3.15
G01 X0.4806 Y0.0731 F3.15
G01 X0.4799 Y0.0744 F3.15
G01 X0.4791 Y0.0757 F3.15
G01 X0.4782 Y0.0769 F3.15
G01 X0.4773 Y0.0781 F3.15
G01 X0.4764 Y0.0792 F3.15
G01 X0.4753 Y0.0803 F3.15
G01 X0.4743 Y0.0813 F3.15
G01 X0.4731 Y0.0822 F3.15
G01 X0.4720 Y0.0832 F3.15
G01 X0.4708 Y0.0840 F3.15
G01 X0.4695 Y0.0848 F3.15
G01 X0.4682 Y0.0855 F3.15
G01 X0.4669 Y0.0862 F3.15
G01 X0.4656 Y0.0868 F3.15
G01 X0.4642 Y0.0873 F3.15
G01 X0.4628 Y0.0878 F3.15
G01 X0.4613 Y0.0882 F3.15
G01 X0.4599 Y0.0885 F3.15
G01 X0.4584 Y0.0888 F3.15
G01 X0.4570 Y0.0889 F3.15
G01 X0.4555 Y0.0891 F3.15
G01 X0.4540 Y0.0891 F3.15
G01 X0.4525 Y0.0891 F3.15
G01 X0.4511 Y0.0889 F3.15
G01 X0.4496 Y0.0888 F3.15
G01 X0.4481 Y0.0885 F3.15
G01 X0.4467 Y0.0882 F3.15
G01 X0.4453 Y0.0878 F3.15
G01 X0.4439 Y0.0873 F3.15
G01 X0.4425 Y0.0868 F3.15
G01 X0.4411 Y0.0862 F3.15
G01 X0.4398 Y0.0855 F3.15
G01 X0.4385 Y0.0848 F3.15
G01 X0.4373 Y0.0840 F3.15
G01 X0.4361 Y0.0832 F3.15
G01 X0.4349 Y0.0822 F3.15
G01 X0.4338 Y0.0813 F3.15
G01 X0.4327 Y0.0803 F3.15
G01 X0.4317 Y0.0792 F3.15
G01 X0.4307 Y0.0781 F3.15
G01 X0.4298 Y0.0769 F3.15
G01 X0.4289 Y0.0757 F3.15
G01 X0.4282 Y0.0744 F3.15
G01 X0.4274 Y0.0731 F3.15
G01 X0.4268 Y0.0718 F3.15
G01 X0.4262 Y0.0705 F3.15
G01 X0.4256 Y0.0691 F3.15
G01 X0.4252 Y0.0677 F3.15
G01 X0.4248 Y0.0663 F3.15
G01 X0.4244 Y0.0648 F3.15
G01 X0.4242 Y0.0634 F3.15
G01 X0.4240 Y0.0619 F3.15
G01 X0.4239 Y0.0604 F3.15
G01 X0.4239 Y0.0589 F3.15
G01 X0.4239 Y0.0575 F3.15
G01 X0.4240 Y0.0560 F3.15
G01 X0.4242 Y0.0545 F3.15
G01 X0.4244 Y0.0531 F3.15
G01 X0.4248 Y0.0516 F3.15
G01 X0.4252 Y0.0502 F3.15
G01 X0.4256 Y0.0488 F3.15
G01 X0.4262 Y0.0474 F3.15
G01 X0.4268 Y0.0460 F3.15
G01 X0.4274 Y0.0447 F3.15
G01 X0.4282 Y0.0434 F3.15
G01 X0.4289 Y0.0422 F3.15
G01 X0.4298 Y0.0410 F3.15
G01 X0.4307 Y0.0398 F3.15
G01 X0.4317 Y0.0387 F3.15
G01 X0.4327 Y0.0376 F3.15
G01 X0.4338 Y0.0366 F3.15
G01 X0.4349 Y0.0356 F3.15
G01 X0.4361 Y0.0347 F3.15
G01 X0.4373 Y0.0339 F3.15
G01 X0.4385 Y0.0331 F3.15
G01 X0.4398 Y0.0323 F3.15
G01 X0.4411 Y0.0317 F3.15
G01 X0.4425 Y0.0311 F3.15
G01 X0.4439 Y0.0305 F3.15
G01 X0.4453 Y0.0301 F3.15
G01 X0.4467 Y0.0297 F3.15
G01 X0.4481 Y0.0294 F3.15
G01 X0.4496 Y0.0291 F3.15
G01 X0.4511 Y0.0289 F3.15
G01 X0.4525 Y0.0288 F3.15
G01 X0.4540 Y0.0288 F3.15
G01 X0.4555 Y0.0288 F3.15
G01 X0.4570 Y0.0289 F3.15
G01 X0.4584 Y0.0291 F3.15
G01 X0.4599 Y0.0294 F3.15
G01 X0.4613 Y0.0297 F3.15
G01 X0.4628 Y0.0301 F3.15
G01 X0.4642 Y0.0305 F3.15
G01 X0.4656 Y0.0311 F3.15
G01 X0.4669 Y0.0317 F3.15
G01 X0.4682 Y0.0323 F3.15
G01 X0.4695 Y0.0331 F3.15
G01 X0.4708 Y0.0339 F3.15
G01 X0.4720 Y0.0347 F3.15
G01 X0.4731 Y0.0356 F3.15
G01 X0.4743 Y0.0366 F3.15
G01 X0.4753 Y0.0376 F3.15
G01 X0.4764 Y0.0387 F3.15
G01 X0.4773 Y0.0398 F3.15
G01 X0.4782 Y0.0410 F3.15
G01 X0.4791 Y0.0422 F3.15
G01 X0.4799 Y0.0434 F3.15
G01 X0.4806 Y0.0447 F3.15
G01 X0.4813 Y0.0460 F3.15
G01 X0.4819 Y0.0474 F3.15
G01 X0.4824 Y0.0488 F3.15
G01 X0.4829 Y0.0502 F3.15
G01 X0.4833 Y0.0516 F3.15
G01 X0.4836 Y0.0531 F3.15
G01 X0.4838 Y0.0545 F3.15
G01 X0.4840 Y0.0560 F3.15
G01 X0.4841 Y0.0575 F3.15
G01 X0.4842 Y0.0589 F3.15
G00 Z0.0787
G00 X0.5892 Y0.0589
G01 F3.15
G01 Z-0.0945
G01 F3.15
G01 X0.5891 Y0.0604 F3.15
G01 X0.5890 Y0.0619 F3.15
G01 X0.5888 Y0.0634 F3.15
G01 X0.5886 Y0.0648 F3.15
G01 X0.5883 Y0.0663 F3.15
G01 X0.5879 Y0.0677 F3.15
G01 X0.5874 Y0.0691 F3.15
G01 X0.5869 Y0.0705 F3.15
G01 X0.5863 Y0.0718 F3.15
G01 X0.5856 Y0.0731 F3.15
G01 X0.5849 Y0.0744 F3.15
G01 X0.5841 Y0.0757 F3.15
G01 X0.5832 Y0.0769 F3.15
G01 X0.5823 Y0.0781 F3.15
G01 X0.5814 Y0.0792 F3.15
G01 X0.5803 Y0.0803 F3.15
G01 X0.5793 Y0.0813 F3.15
G01 X0.5781 Y0.0822 F3.15
G01 X0.5770 Y0.0832 F3.15
G01 X0.5758 Y0.0840 F3.15
G01 X0.5745 Y0.0848 F3.15
G01 X0.5732 Y0.0855 F3.15
G01 X0.5719 Y0.0862 F3.15
G01 X0.5706 Y0.0868 F3.15
G01 X0.5692 Y0.0873 F3.15
G01 X0.5678 Y0.0878 F3.15
G01 X0.5663 Y0.0882 F3.15
G01 X0.5649 Y0.0885 F3.15
G01 X0.5634 Y0.0888 F3.15
G01 X0.5620 Y0.0889 F3.15
G01 X0.5605 Y0.0891 F3.15
G01 X0.5590 Y0.0891 F3.15
G01 X0.5575 Y0.0891 F3.15
G01 X0.5561 Y0.0889 F3.15
G01 X0.5546 Y0.0888 F3.15
G01 X0.5531 Y0.0885 F3.15
G01 X0.5517 Y0.0882 F3.15
G01 X0.5503 Y0.0878 F3.15
G01 X0.5489 Y0.0873 F3.15
G01 X0.5475 Y0.0868 F3.15
G01 X0.5461 Y0.0862 F3.15
G01 X0.5448 Y0.0855 F3.15
G01 X0.5435 Y0.0848 F3.15
G01 X0.5423 Y0.0840 F3.15
G01 X0.5411 Y0.0832 F3.15
G01 X0.5399 Y0.0822 F3.15
G01 X0.5388 Y0.0813 F3.15
G01 X0.5377 Y0.0803 F3.15
G01 X0.5367 Y0.0792 F3.15
G01 X0.5357 Y0.0781 F3.15
G01 X0.5348 Y0.0769 F3.15
G01 X0.5339 Y0.0757 F3.15
G01 X0.5332 Y0.0744 F3.15
G01 X0.5324 Y0.0731 F3.15
G01 X0.5318 Y0.0718 F3.15
G01 X0.5312 Y0.0705 F3.15
G01 X0.5306 Y0.0691 F3.15
G01 X0.5302 Y0.0677 F3.15
G01 X0.5298 Y0.0663 F3.15
G01 X0.5294 Y0.0648 F3.15
G01 X0.5292 Y0.0634 F3.15
G01 X0.5290 Y0.0619 F3.15
G01 X0.5289 Y0.0604 F3.15
G01 X0.5289 Y0.0589 F3.15
G01 X0.5289 Y0.0575 F3.15
G01 X0.5290 Y0.0560 F3.15
G01 X0.5292 Y0.0545 F3.15
G01 X0.5294 Y0.0531 F3.15
G01 X0.5298 Y0.0516 F3.15
G01 X0.5302 Y0.0502 F3.15
G01 X0.5306 Y0.0488 F3.15
G01 X0.5312 Y0.0474 F3.15
G01 X0.5318 Y0.0460 F3.15
G01 X0.5324 Y0.0447 F3.15
G01 X0.5332 Y0.0434 F3.15
G01 X0.5339 Y0.0422 F3.15
G01 X0.5348 Y0.0410 F3.15
G01 X0.5357 Y0.0398 F3.15
G01 X0.5367 Y0.0387 F3.15
G01 X0.5377 Y0.0376 F3.15
G01 X0.5388 Y0.0366 F3.15
G01 X0.5399 Y0.0356 F3.15
G01 X0.5411 Y0.0347 F3.15
G01 X0.5423 Y0.0339 F3.15
G01 X0.5435 Y0.0331 F3.15
G01 X0.5448 Y0.0323 F3.15
G01 X0.5461 Y0.0317 F3.15
G01 X0.5475 Y0.0311 F3.15
G01 X0.5489 Y0.0305 F3.15
G01 X0.5503 Y0.0301 F3.15
G01 X0.5517 Y0.0297 F3.15
G01 X0.5531 Y0.0294 F3.15
G01 X0.5546 Y0.0291 F3.15
G01 X0.5561 Y0.0289 F3.15
G01 X0.5575 Y0.0288 F3.15
G01 X0.5590 Y0.0288 F3.15
G01 X0.5605 Y0.0288 F3.15
G01 X0.5620 Y0.0289 F3.15
G01 X0.5634 Y0.0291 F3.15
G01 X0.5649 Y0.0294 F3.15
G01 X0.5663 Y0.0297 F3.15
G01 X0.5678 Y0.0301 F3.15
G01 X0.5692 Y0.0305 F3.15
G01 X0.5706 Y0.0311 F3.15
G01 X0.5719 Y0.0317 F3.15
G01 X0.5732 Y0.0323 F3.15
G01 X0.5745 Y0.0331 F3.15
G01 X0.5758 Y0.0339 F3.15
G01 X0.5770 Y0.0347 F3.15
G01 X0.5781 Y0.0356 F3.15
G01 X0.5793 Y0.0366 F3.15
G01 X0.5803 Y0.0376 F3.15
G01 X0.5814 Y0.0387 F3.15
G01 X0.5823 Y0.0398 F3.15
G01 X0.5832 Y0.0410 F3.15
G01 X0.5841 Y0.0422 F3.15
G01 X0.5849 Y0.0434 F3.15
G01 X0.5856 Y0.0447 F3.15
G01 X0.5863 Y0.0460 F3.15
G01 X0.5869 Y0.0474 F3.15
G01 X0.5874 Y0.0488 F3.15
G01 X0.5879 Y0.0502 F3.15
G01 X0.5883 Y0.0516 F3.15
G01 X0.5886 Y0.0531 F3.15
G01 X0.5888 Y0.0545 F3.15
G01 X0.5890 Y0.0560 F3.15
G01 X0.5891 Y0.0575 F3.15
G01 X0.5892 Y0.0589 F3.15
G00 Z0.0787
G00 X0.6892 Y0.0589
G01 F3.15
G01 Z-0.0945
G01 F3.15
G01 X0.6891 Y0.0604 F3.15
G01 X0.6890 Y0.0619 F3.15
G01 X0.6888 Y0.0634 F3.15
G01 X0.6886 Y0.0648 F3.15
G01 X0.6883 Y0.0663 F3.15
G01 X0.6879 Y0.0677 F3.15
G01 X0.6874 Y0.0691 F3.15
G01 X0.6869 Y0.0705 F3.15
G01 X0.6863 Y0.0718 F3.15
G01 X0.6856 Y0.0731 F3.15
G01 X0.6849 Y0.0744 F3.15
G01 X0.6841 Y0.0757 F3.15
G01 X0.6832 Y0.0769 F3.15
G01 X0.6823 Y0.0781 F3.15
G01 X0.6814 Y0.0792 F3.15
G01 X0.6803 Y0.0803 F3.15
G01 X0.6793 Y0.0813 F3.15
G01 X0.6781 Y0.0822 F3.15
G01 X0.6770 Y0.0832 F3.15
G01 X0.6758 Y0.0840 F3.15
G01 X0.6745 Y0.0848 F3.15
G01 X0.6732 Y0.0855 F3.15
G01 X0.6719 Y0.0862 F3.15
G01 X0.6706 Y0.0868 F3.15
G01 X0.6692 Y0.0873 F3.15
G01 X0.6678 Y0.0878 F3.15
G01 X0.6663 Y0.0882 F3.15
G01 X0.6649 Y0.0885 F3.15
G01 X0.6634 Y0.0888 F3.15
G01 X0.6620 Y0.0889 F3.15
G01 X0.6605 Y0.0891 F3.15
G01 X0.6590 Y0.0891 F3.15
G01 X0.6575 Y0.0891 F3.15
G01 X0.6561 Y0.0889 F3.15
G01 X0.6546 Y0.0888 F3.15
G01 X0.6531 Y0.0885 F3.15
G01 X0.6517 Y0.0882 F3.15
G01 X0.6503 Y0.0878 F3.15
G01 X0.6489 Y0.0873 F3.15
G01 X0.6475 Y0.0868 F3.15
G01 X0.6461 Y0.0862 F3.15
G01 X0.6448 Y0.0855 F3.15
G01 X0.6435 Y0.0848 F3.15
G01 X0.6423 Y0.0840 F3.15
G01 X0.6411 Y0.0832 F3.15
G01 X0.6399 Y0.0822 F3.15
G01 X0.6388 Y0.0813 F3.15
G01 X0.6377 Y0.0803 F3.15
G01 X0.6367 Y0.0792 F3.15
G01 X0.6357 Y0.0781 F3.15
G01 X0.6348 Y0.0769 F3.15
G01 X0.6339 Y0.0757 F3.15
G01 X0.6332 Y0.0744 F3.15
G01 X0.6324 Y0.0731 F3.15
G01 X0.6318 Y0.0718 F3.15
G01 X0.6312 Y0.0705 F3.15
G01 X0.6306 Y0.0691 F3.15
G01 X0.6302 Y0.0677 F3.15
G01 X0.6298 Y0.0663 F3.15
G01 X0.6294 Y0.0648 F3.15
G01 X0.6292 Y0.0634 F3.15
G01 X0.6290 Y0.0619 F3.15
G01 X0.6289 Y0.0604 F3.15
G01 X0.6289 Y0.0589 F3.15
G01 X0.6289 Y0.0575 F3.15
G01 X0.6290 Y0.0560 F3.15
G01 X0.6292 Y0.0545 F3.15
G01 X0.6294 Y0.0531 F3.15
G01 X0.6298 Y0.0516 F3.15
G01 X0.6302 Y0.0502 F3.15
G01 X0.6306 Y0.0488 F3.15
G01 X0.6312 Y0.0474 F3.15
G01 X0.6318 Y0.0460 F3.15
G01 X0.6324 Y0.0447 F3.15
G01 X0.6332 Y0.0434 F3.15
G01 X0.6339 Y0.0422 F3.15
G01 X0.6348 Y0.0410 F3.15
G01 X0.6357 Y0.0398 F3.15
G01 X0.6367 Y0.0387 F3.15
G01 X0.6377 Y0.0376 F3.15
G01 X0.6388 Y0.0366 F3.15
G01 X0.6399 Y0.0356 F3.15
G01 X0.6411 Y0.0347 F3.15
G01 X0.6423 Y0.0339 F3.15
G01 X0.6435 Y0.0331 F3.15
G01 X0.6448 Y0.0323 F3.15
G01 X0.6461 Y0.0317 F3.15
G01 X0.6475 Y0.0311 F3.15
G01 X0.6489 Y0.0305 F3.15
G01 X0.6503 Y0.0301 F3.15
G01 X0.6517 Y0.0297 F3.15
G01 X0.6531 Y0.0294 F3.15
G01 X0.6546 Y0.0291 F3.15
G01 X0.6561 Y0.0289 F3.15
G01 X0.6575 Y0.0288 F3.15
G01 X0.6590 Y0.0288 F3.15
G01 X0.6605 Y0.0288 F3.15
G01 X0.6620 Y0.0289 F3.15
G01 X0.6634 Y0.0291 F3.15
G01 X0.6649 Y0.0294 F3.15
G01 X0.6663 Y0.0297 F3.15
G01 X0.6678 Y0.0301 F3.15
G01 X0.6692 Y0.0305 F3.15
G01 X0.6706 Y0.0311 F3.15
G01 X0.6719 Y0.0317 F3.15
G01 X0.6732 Y0.0323 F3.15
G01 X0.6745 Y0.0331 F3.15
G01 X0.6758 Y0.0339 F3.15
G01 X0.6770 Y0.0347 F3.15
G01 X0.6781 Y0.0356 F3.15
G01 X0.6793 Y0.0366 F3.15
G01 X0.6803 Y0.0376 F3.15
G01 X0.6814 Y0.0387 F3.15
G01 X0.6823 Y0.0398 F3.15
G01 X0.6832 Y0.0410 F3.15
G01 X0.6841 Y0.0422 F3.15
G01 X0.6849 Y0.0434 F3.15
G01 X0.6856 Y0.0447 F3.15
G01 X0.6863 Y0.0460 F3.15
G01 X0.6869 Y0.0474 F3.15
G01 X0.6874 Y0.0488 F3.15
G01 X0.6879 Y0.0502 F3.15
G01 X0.6883 Y0.0516 F3.15
G01 X0.6886 Y0.0531 F3.15
G01 X0.6888 Y0.0545 F3.15
G01 X0.6890 Y0.0560 F3.15
G01 X0.6891 Y0.0575 F3.15
G01 X0.6892 Y0.0589 F3.15
G00 Z0.0787
G00 X0.7892 Y0.0589
G01 F3.15
G01 Z-0.0945
G01 F3.15
G01 X0.7891 Y0.0604 F3.15
G01 X0.7890 Y0.0619 F3.15
G01 X0.7888 Y0.0634 F3.15
G01 X0.7886 Y0.0648 F3.15
G01 X0.7883 Y0.0663 F3.15
G01 X0.7879 Y0.0677 F3.15
G01 X0.7874 Y0.0691 F3.15
G01 X0.7869 Y0.0705 F3.15
G01 X0.7863 Y0.0718 F3.15
G01 X0.7856 Y0.0731 F3.15
G01 X0.7849 Y0.0744 F3.15
G01 X0.7841 Y0.0757 F3.15
G01 X0.7832 Y0.0769 F3.15
G01 X0.7823 Y0.0781 F3.15
G01 X0.7814 Y0.0792 F3.15
G01 X0.7803 Y0.0803 F3.15
G01 X0.7793 Y0.0813 F3.15
G01 X0.7781 Y0.0822 F3.15
G01 X0.7770 Y0.0832 F3.15
G01 X0.7758 Y0.0840 F3.15
G01 X0.7745 Y0.0848 F3.15
G01 X0.7732 Y0.0855 F3.15
G01 X0.7719 Y0.0862 F3.15
G01 X0.7706 Y0.0868 F3.15
G01 X0.7692 Y0.0873 F3.15
G01 X0.7678 Y0.0878 F3.15
G01 X0.7663 Y0.0882 F3.15
G01 X0.7649 Y0.0885 F3.15
G01 X0.7634 Y0.0888 F3.15
G01 X0.7620 Y0.0889 F3.15
G01 X0.7605 Y0.0891 F3.15
G01 X0.7590 Y0.0891 F3.15
G01 X0.7575 Y0.0891 F3.15
G01 X0.7561 Y0.0889 F3.15
G01 X0.7546 Y0.0888 F3.15
G01 X0.7531 Y0.0885 F3.15
G01 X0.7517 Y0.0882 F3.15
G01 X0.7503 Y0.0878 F3.15
G01 X0.7489 Y0.0873 F3.15
G01 X0.7475 Y0.0868 F3.15
G01 X0.7461 Y0.0862 F3.15
G01 X0.7448 Y0.0855 F3.15
G01 X0.7435 Y0.0848 F3.15
G01 X0.7423 Y0.0840 F3.15
G01 X0.7411 Y0.0832 F3.15
G01 X0.7399 Y0.0822 F3.15
G01 X0.7388 Y0.0813 F3.15
G01 X0.7377 Y0.0803 F3.15
G01 X0.7367 Y0.0792 F3.15
G01 X0.7357 Y0.0781 F3.15
G01 X0.7348 Y0.0769 F3.15
G01 X0.7339 Y0.0757 F3.15
G01 X0.7332 Y0.0744 F3.15
G01 X0.7324 Y0.0731 F3.15
G01 X0.7318 Y0.0718 F3.15
G01 X0.7312 Y0.0705 F3.15
G01 X0.7306 Y0.0691 F3.15
G01 X0.7302 Y0.0677 F3.15
G01 X0.7298 Y0.0663 F3.15
G01 X0.7294 Y0.0648 F3.15
G01 X0.7292 Y0.0634 F3.15
G01 X0.7290 Y0.0619 F3.15
G01 X0.7289 Y0.0604 F3.15
G01 X0.7289 Y0.0589 F3.15
G01 X0.7289 Y0.0575 F3.15
G01 X0.7290 Y0.0560 F3.15
G01 X0.7292 Y0.0545 F3.15
G01 X0.7294 Y0.0531 F3.15
G01 X0.7298 Y0.0516 F3.15
G01 X0.7302 Y0.0502 F3.15
G01 X0.7306 Y0.0488 F3.15
G01 X0.7312 Y0.0474 F3.15
G01 X0.7318 Y0.0460 F3.15
G01 X0.7324 Y0.0447 F3.15
G01 X0.7332 Y0.0434 F3.15
G01 X0.7339 Y0.0422 F3.15
G01 X0.7348 Y0.0410 F3.15
G01 X0.7357 Y0.0398 F3.15
G01 X0.7367 Y0.0387 F3.15
G01 X0.7377 Y0.0376 F3.15
G01 X0.7388 Y0.0366 F3.15
G01 X0.7399 Y0.0356 F3.15
G01 X0.7411 Y0.0347 F3.15
G01 X0.7423 Y0.0339 F3.15
G01 X0.7435 Y0.0331 F3.15
G01 X0.7448 Y0.0323 F3.15
G01 X0.7461 Y0.0317 F3.15
G01 X0.7475 Y0.0311 F3.15
G01 X0.7489 Y0.0305 F3.15
G01 X0.7503 Y0.0301 F3.15
G01 X0.7517 Y0.0297 F3.15
G01 X0.7531 Y0.0294 F3.15
G01 X0.7546 Y0.0291 F3.15
G01 X0.7561 Y0.0289 F3.15
G01 X0.7575 Y0.0288 F3.15
G01 X0.7590 Y0.0288 F3.15
G01 X0.7605 Y0.0288 F3.15
G01 X0.7620 Y0.0289 F3.15
G01 X0.7634 Y0.0291 F3.15
G01 X0.7649 Y0.0294 F3.15
G01 X0.7663 Y0.0297 F3.15
G01 X0.7678 Y0.0301 F3.15
G01 X0.7692 Y0.0305 F3.15
G01 X0.7706 Y0.0311 F3.15
G01 X0.7719 Y0.0317 F3.15
G01 X0.7732 Y0.0323 F3.15
G01 X0.7745 Y0.0331 F3.15
G01 X0.7758 Y0.0339 F3.15
G01 X0.7770 Y0.0347 F3.15
G01 X0.7781 Y0.0356 F3.15
G01 X0.7793 Y0.0366 F3.15
G01 X0.7803 Y0.0376 F3.15
G01 X0.7814 Y0.0387 F3.15
G01 X0.7823 Y0.0398 F3.15
G01 X0.7832 Y0.0410 F3.15
G01 X0.7841 Y0.0422 F3.15
G01 X0.7849 Y0.0434 F3.15
G01 X0.7856 Y0.0447 F3.15
G01 X0.7863 Y0.0460 F3.15
G01 X0.7869 Y0.0474 F3.15
G01 X0.7874 Y0.0488 F3.15
G01 X0.7879 Y0.0502 F3.15
G01 X0.7883 Y0.0516 F3.15
G01 X0.7886 Y0.0531 F3.15
G01 X0.7888 Y0.0545 F3.15
G01 X0.7890 Y0.0560 F3.15
G01 X0.7891 Y0.0575 F3.15
G01 X0.7892 Y0.0589 F3.15
G00 Z0.0787
G00 X0.8892 Y0.0589
G01 F3.15
G01 Z-0.0945
G01 F3.15
G01 X0.8891 Y0.0604 F3.15
G01 X0.8890 Y0.0619 F3.15
G01 X0.8888 Y0.0634 F3.15
G01 X0.8886 Y0.0648 F3.15
G01 X0.8883 Y0.0663 F3.15
G01 X0.8879 Y0.0677 F3.15
G01 X0.8874 Y0.0691 F3.15
G01 X0.8869 Y0.0705 F3.15
G01 X0.8863 Y0.0718 F3.15
G01 X0.8856 Y0.0731 F3.15
G01 X0.8849 Y0.0744 F3.15
G01 X0.8841 Y0.0757 F3.15
G01 X0.8832 Y0.0769 F3.15
G01 X0.8823 Y0.0781 F3.15
G01 X0.8814 Y0.0792 F3.15
G01 X0.8803 Y0.0803 F3.15
G01 X0.8793 Y0.0813 F3.15
G01 X0.8781 Y0.0822 F3.15
G01 X0.8770 Y0.0832 F3.15
G01 X0.8758 Y0.0840 F3.15
G01 X0.8745 Y0.0848 F3.15
G01 X0.8732 Y0.0855 F3.15
G01 X0.8719 Y0.0862 F3.15
G01 X0.8706 Y0.0868 F3.15
G01 X0.8692 Y0.0873 F3.15
G01 X0.8678 Y0.0878 F3.15
G01 X0.8663 Y0.0882 F3.15
G01 X0.8649 Y0.0885 F3.15
G01 X0.8634 Y0.0888 F3.15
G01 X0.8620 Y0.0889 F3.15
G01 X0.8605 Y0.0891 F3.15
G01 X0.8590 Y0.0891 F3.15
G01 X0.8575 Y0.0891 F3.15
G01 X0.8561 Y0.0889 F3.15
G01 X0.8546 Y0.0888 F3.15
G01 X0.8531 Y0.0885 F3.15
G01 X0.8517 Y0.0882 F3.15
G01 X0.8503 Y0.0878 F3.15
G01 X0.8489 Y0.0873 F3.15
G01 X0.8475 Y0.0868 F3.15
G01 X0.8461 Y0.0862 F3.15
G01 X0.8448 Y0.0855 F3.15
G01 X0.8435 Y0.0848 F3.15
G01 X0.8423 Y0.0840 F3.15
G01 X0.8411 Y0.0832 F3.15
G01 X0.8399 Y0.0822 F3.15
G01 X0.8388 Y0.0813 F3.15
G01 X0.8377 Y0.0803 F3.15
G01 X0.8367 Y0.0792 F3.15
G01 X0.8357 Y0.0781 F3.15
G01 X0.8348 Y0.0769 F3.15
G01 X0.8339 Y0.0757 F3.15
G01 X0.8332 Y0.0744 F3.15
G01 X0.8324 Y0.0731 F3.15
G01 X0.8318 Y0.0718 F3.15
G01 X0.8312 Y0.0705 F3.15
G01 X0.8306 Y0.0691 F3.15
G01 X0.8302 Y0.0677 F3.15
G01 X0.8298 Y0.0663 F3.15
G01 X0.8294 Y0.0648 F3.15
G01 X0.8292 Y0.0634 F3.15
G01 X0.8290 Y0.0619 F3.15
G01 X0.8289 Y0.0604 F3.15
G01 X0.8289 Y0.0589 F3.15
G01 X0.8289 Y0.0575 F3.15
G01 X0.8290 Y0.0560 F3.15
G01 X0.8292 Y0.0545 F3.15
G01 X0.8294 Y0.0531 F3.15
G01 X0.8298 Y0.0516 F3.15
G01 X0.8302 Y0.0502 F3.15
G01 X0.8306 Y0.0488 F3.15
G01 X0.8312 Y0.0474 F3.15
G01 X0.8318 Y0.0460 F3.15
G01 X0.8324 Y0.0447 F3.15
G01 X0.8332 Y0.0434 F3.15
G01 X0.8339 Y0.0422 F3.15
G01 X0.8348 Y0.0410 F3.15
G01 X0.8357 Y0.0398 F3.15
G01 X0.8367 Y0.0387 F3.15
G01 X0.8377 Y0.0376 F3.15
G01 X0.8388 Y0.0366 F3.15
G01 X0.8399 Y0.0356 F3.15
G01 X0.8411 Y0.0347 F3.15
G01 X0.8423 Y0.0339 F3.15
G01 X0.8435 Y0.0331 F3.15
G01 X0.8448 Y0.0323 F3.15
G01 X0.8461 Y0.0317 F3.15
G01 X0.8475 Y0.0311 F3.15
G01 X0.8489 Y0.0305 F3.15
G01 X0.8503 Y0.0301 F3.15
G01 X0.8517 Y0.0297 F3.15
G01 X0.8531 Y0.0294 F3.15
G01 X0.8546 Y0.0291 F3.15
G01 X0.8561 Y0.0289 F3.15
G01 X0.8575 Y0.0288 F3.15
G01 X0.8590 Y0.0288 F3.15
G01 X0.8605 Y0.0288 F3.15
G01 X0.8620 Y0.0289 F3.15
G01 X0.8634 Y0.0291 F3.15
G01 X0.8649 Y0.0294 F3.15
G01 X0.8663 Y0.0297 F3.15
G01 X0.8678 Y0.0301 F3.15
G01 X0.8692 Y0.0305 F3.15
G01 X0.8706 Y0.0311 F3.15
G01 X0.8719 Y0.0317 F3.15
G01 X0.8732 Y0.0323 F3.15
G01 X0.8745 Y0.0331 F3.15
G01 X0.8758 Y0.0339 F3.15
G01 X0.8770 Y0.0347 F3.15
G01 X0.8781 Y0.0356 F3.15
G01 X0.8793 Y0.0366 F3.15
G01 X0.8803 Y0.0376 F3.15
G01 X0.8814 Y0.0387 F3.15
G01 X0.8823 Y0.0398 F3.15
G01 X0.8832 Y0.0410 F3.15
G01 X0.8841 Y0.0422 F3.15
G01 X0.8849 Y0.0434 F3.15
G01 X0.8856 Y0.0447 F3.15
G01 X0.8863 Y0.0460 F3.15
G01 X0.8869 Y0.0474 F3.15
G01 X0.8874 Y0.0488 F3.15
G01 X0.8879 Y0.0502 F3.15
G01 X0.8883 Y0.0516 F3.15
G01 X0.8886 Y0.0531 F3.15
G01 X0.8888 Y0.0545 F3.15
G01 X0.8890 Y0.0560 F3.15
G01 X0.8891 Y0.0575 F3.15
G01 X0.8892 Y0.0589 F3.15
G00 Z0.0787
G00 X0.9892 Y0.0589
G01 F3.15
G01 Z-0.0945
G01 F3.15
G01 X0.9891 Y0.0604 F3.15
G01 X0.9890 Y0.0619 F3.15
G01 X0.9888 Y0.0634 F3.15
G01 X0.9886 Y0.0648 F3.15
G01 X0.9883 Y0.0663 F3.15
G01 X0.9879 Y0.0677 F3.15
G01 X0.9874 Y0.0691 F3.15
G01 X0.9869 Y0.0705 F3.15
G01 X0.9863 Y0.0718 F3.15
G01 X0.9856 Y0.0731 F3.15
G01 X0.9849 Y0.0744 F3.15
G01 X0.9841 Y0.0757 F3.15
G01 X0.9832 Y0.0769 F3.15
G01 X0.9823 Y0.0781 F3.15
G01 X0.9814 Y0.0792 F3.15
G01 X0.9803 Y0.0803 F3.15
G01 X0.9793 Y0.0813 F3.15
G01 X0.9781 Y0.0822 F3.15
G01 X0.9770 Y0.0832 F3.15
G01 X0.9758 Y0.0840 F3.15
G01 X0.9745 Y0.0848 F3.15
G01 X0.9732 Y0.0855 F3.15
G01 X0.9719 Y0.0862 F3.15
G01 X0.9706 Y0.0868 F3.15
G01 X0.9692 Y0.0873 F3.15
G01 X0.9678 Y0.0878 F3.15
G01 X0.9663 Y0.0882 F3.15
G01 X0.9649 Y0.0885 F3.15
G01 X0.9634 Y0.0888 F3.15
G01 X0.9620 Y0.0889 F3.15
G01 X0.9605 Y0.0891 F3.15
G01 X0.9590 Y0.0891 F3.15
G01 X0.9575 Y0.0891 F3.15
G01 X0.9561 Y0.0889 F3.15
G01 X0.9546 Y0.0888 F3.15
G01 X0.9531 Y0.0885 F3.15
G01 X0.9517 Y0.0882 F3.15
G01 X0.9503 Y0.0878 F3.15
G01 X0.9489 Y0.0873 F3.15
G01 X0.9475 Y0.0868 F3.15
G01 X0.9461 Y0.0862 F3.15
G01 X0.9448 Y0.0855 F3.15
G01 X0.9435 Y0.0848 F3.15
G01 X0.9423 Y0.0840 F3.15
G01 X0.9411 Y0.0832 F3.15
G01 X0.9399 Y0.0822 F3.15
G01 X0.9388 Y0.0813 F3.15
G01 X0.9377 Y0.0803 F3.15
G01 X0.9367 Y0.0792 F3.15
G01 X0.9357 Y0.0781 F3.15
G01 X0.9348 Y0.0769 F3.15
G01 X0.9339 Y0.0757 F3.15
G01 X0.9332 Y0.0744 F3.15
G01 X0.9324 Y0.0731 F3.15
G01 X0.9318 Y0.0718 F3.15
G01 X0.9312 Y0.0705 F3.15
G01 X0.9306 Y0.0691 F3.15
G01 X0.9302 Y0.0677 F3.15
G01 X0.9298 Y0.0663 F3.15
G01 X0.9294 Y0.0648 F3.15
G01 X0.9292 Y0.0634 F3.15
G01 X0.9290 Y0.0619 F3.15
G01 X0.9289 Y0.0604 F3.15
G01 X0.9289 Y0.0589 F3.15
G01 X0.9289 Y0.0575 F3.15
G01 X0.9290 Y0.0560 F3.15
G01 X0.9292 Y0.0545 F3.15
G01 X0.9294 Y0.0531 F3.15
G01 X0.9298 Y0.0516 F3.15
G01 X0.9302 Y0.0502 F3.15
G01 X0.9306 Y0.0488 F3.15
G01 X0.9312 Y0.0474 F3.15
G01 X0.9318 Y0.0460 F3.15
G01 X0.9324 Y0.0447 F3.15
G01 X0.9332 Y0.0434 F3.15
G01 X0.9339 Y0.0422 F3.15
G01 X0.9348 Y0.0410 F3.15
G01 X0.9357 Y0.0398 F3.15
G01 X0.9367 Y0.0387 F3.15
G01 X0.9377 Y0.0376 F3.15
G01 X0.9388 Y0.0366 F3.15
G01 X0.9399 Y0.0356 F3.15
G01 X0.9411 Y0.0347 F3.15
G01 X0.9423 Y0.0339 F3.15
G01 X0.9435 Y0.0331 F3.15
G01 X0.9448 Y0.0323 F3.15
G01 X0.9461 Y0.0317 F3.15
G01 X0.9475 Y0.0311 F3.15
G01 X0.9489 Y0.0305 F3.15
G01 X0.9503 Y0.0301 F3.15
G01 X0.9517 Y0.0297 F3.15
G01 X0.9531 Y0.0294 F3.15
G01 X0.9546 Y0.0291 F3.15
G01 X0.9561 Y0.0289 F3.15
G01 X0.9575 Y0.0288 F3.15
G01 X0.9590 Y0.0288 F3.15
G01 X0.9605 Y0.0288 F3.15
G01 X0.9620 Y0.0289 F3.15
G01 X0.9634 Y0.0291 F3.15
G01 X0.9649 Y0.0294 F3.15
G01 X0.9663 Y0.0297 F3.15
G01 X0.9678 Y0.0301 F3.15
G01 X0.9692 Y0.0305 F3.15
G01 X0.9706 Y0.0311 F3.15
G01 X0.9719 Y0.0317 F3.15
G01 X0.9732 Y0.0323 F3.15
G01 X0.9745 Y0.0331 F3.15
G01 X0.9758 Y0.0339 F3.15
G01 X0.9770 Y0.0347 F3.15
G01 X0.9781 Y0.0356 F3.15
G01 X0.9793 Y0.0366 F3.15
G01 X0.9803 Y0.0376 F3.15
G01 X0.9814 Y0.0387 F3.15
G01 X0.9823 Y0.0398 F3.15
G01 X0.9832 Y0.0410 F3.15
G01 X0.9841 Y0.0422 F3.15
G01 X0.9849 Y0.0434 F3.15
G01 X0.9856 Y0.0447 F3.15
G01 X0.9863 Y0.0460 F3.15
G01 X0.9869 Y0.0474 F3.15
G01 X0.9874 Y0.0488 F3.15
G01 X0.9879 Y0.0502 F3.15
G01 X0.9883 Y0.0516 F3.15
G01 X0.9886 Y0.0531 F3.15
G01 X0.9888 Y0.0545 F3.15
G01 X0.9890 Y0.0560 F3.15
G01 X0.9891 Y0.0575 F3.15
G01 X0.9892 Y0.0589 F3.15
G00 Z0.0787
G00 X1.0942 Y0.0589
G01 F3.15
G01 Z-0.0945
G01 F3.15
G01 X1.0941 Y0.0604 F3.15
G01 X1.0940 Y0.0619 F3.15
G01 X1.0938 Y0.0634 F3.15
G01 X1.0936 Y0.0648 F3.15
G01 X1.0933 Y0.0663 F3.15
G01 X1.0929 Y0.0677 F3.15
G01 X1.0924 Y0.0691 F3.15
G01 X1.0919 Y0.0705 F3.15
G01 X1.0913 Y0.0718 F3.15
G01 X1.0906 Y0.0731 F3.15
G01 X1.0899 Y0.0744 F3.15
G01 X1.0891 Y0.0757 F3.15
G01 X1.0882 Y0.0769 F3.15
G01 X1.0873 Y0.0781 F3.15
G01 X1.0864 Y0.0792 F3.15
G01 X1.0853 Y0.0803 F3.15
G01 X1.0843 Y0.0813 F3.15
G01 X1.0831 Y0.0822 F3.15
G01 X1.0820 Y0.0832 F3.15
G01 X1.0808 Y0.0840 F3.15
G01 X1.0795 Y0.0848 F3.15
G01 X1.0782 Y0.0855 F3.15
G01 X1.0769 Y0.0862 F3.15
G01 X1.0756 Y0.0868 F3.15
G01 X1.0742 Y0.0873 F3.15
G01 X1.0728 Y0.0878 F3.15
G01 X1.0713 Y0.0882 F3.15
G01 X1.0699 Y0.0885 F3.15
G01 X1.0684 Y0.0888 F3.15
G01 X1.0670 Y0.0889 F3.15
G01 X1.0655 Y0.0891 F3.15
G01 X1.0640 Y0.0891 F3.15
G01 X1.0625 Y0.0891 F3.15
G01 X1.0611 Y0.0889 F3.15
G01 X1.0596 Y0.0888 F3.15
G01 X1.0581 Y0.0885 F3.15
G01 X1.0567 Y0.0882 F3.15
G01 X1.0553 Y0.0878 F3.15
G01 X1.0539 Y0.0873 F3.15
G01 X1.0525 Y0.0868 F3.15
G01 X1.0511 Y0.0862 F3.15
G01 X1.0498 Y0.0855 F3.15
G01 X1.0485 Y0.0848 F3.15
G01 X1.0473 Y0.0840 F3.15
G01 X1.0461 Y0.0832 F3.15
G01 X1.0449 Y0.0822 F3.15
G01 X1.0438 Y0.0813 F3.15
G01 X1.0427 Y0.0803 F3.15
G01 X1.0417 Y0.0792 F3.15
G01 X1.0407 Y0.0781 F3.15
G01 X1.0398 Y0.0769 F3.15
G01 X1.0389 Y0.0757 F3.15
G01 X1.0382 Y0.0744 F3.15
G01 X1.0374 Y0.0731 F3.15
G01 X1.0368 Y0.0718 F3.15
G01 X1.0362 Y0.0705 F3.15
G01 X1.0356 Y0.0691 F3.15
G01 X1.0352 Y0.0677 F3.15
G01 X1.0348 Y0.0663 F3.15
G01 X1.0344 Y0.0648 F3.15
G01 X1.0342 Y0.0634 F3.15
G01 X1.0340 Y0.0619 F3.15
G01 X1.0339 Y0.0604 F3.15
G01 X1.0339 Y0.0589 F3.15
G01 X1.0339 Y0.0575 F3.15
G01 X1.0340 Y0.0560 F3.15
G01 X1.0342 Y0.0545 F3.15
G01 X1.0344 Y0.0531 F3.15
G01 X1.0348 Y0.0516 F3.15
G01 X1.0352 Y0.0502 F3.15
G01 X1.0356 Y0.0488 F3.15
G01 X1.0362 Y0.0474 F3.15
G01 X1.0368 Y0.0460 F3.15
G01 X1.0374 Y0.0447 F3.15
G01 X1.0382 Y0.0434 F3.15
G01 X1.0389 Y0.0422 F3.15
G01 X1.0398 Y0.0410 F3.15
G01 X1.0407 Y0.0398 F3.15
G01 X1.0417 Y0.0387 F3.15
G01 X1.0427 Y0.0376 F3.15
G01 X1.0438 Y0.0366 F3.15
G01 X1.0449 Y0.0356 F3.15
G01 X1.0461 Y0.0347 F3.15
G01 X1.0473 Y0.0339 F3.15
G01 X1.0485 Y0.0331 F3.15
G01 X1.0498 Y0.0323 F3.15
G01 X1.0511 Y0.0317 F3.15
G01 X1.0525 Y0.0311 F3.15
G01 X1.0539 Y0.0305 F3.15
G01 X1.0553 Y0.0301 F3.15
G01 X1.0567 Y0.0297 F3.15
G01 X1.0581 Y0.0294 F3.15
G01 X1.0596 Y0.0291 F3.15
G01 X1.0611 Y0.0289 F3.15
G01 X1.0625 Y0.0288 F3.15
G01 X1.0640 Y0.0288 F3.15
G01 X1.0655 Y0.0288 F3.15
G01 X1.0670 Y0.0289 F3.15
G01 X1.0684 Y0.0291 F3.15
G01 X1.0699 Y0.0294 F3.15
G01 X1.0713 Y0.0297 F3.15
G01 X1.0728 Y0.0301 F3.15
G01 X1.0742 Y0.0305 F3.15
G01 X1.0756 Y0.0311 F3.15
G01 X1.0769 Y0.0317 F3.15
G01 X1.0782 Y0.0323 F3.15
G01 X1.0795 Y0.0331 F3.15
G01 X1.0808 Y0.0339 F3.15
G01 X1.0820 Y0.0347 F3.15
G01 X1.0831 Y0.0356 F3.15
G01 X1.0843 Y0.0366 F3.15
G01 X1.0853 Y0.0376 F3.15
G01 X1.0864 Y0.0387 F3.15
G01 X1.0873 Y0.0398 F3.15
G01 X1.0882 Y0.0410 F3.15
G01 X1.0891 Y0.0422 F3.15
G01 X1.0899 Y0.0434 F3.15
G01 X1.0906 Y0.0447 F3.15
G01 X1.0913 Y0.0460 F3.15
G01 X1.0919 Y0.0474 F3.15
G01 X1.0924 Y0.0488 F3.15
G01 X1.0929 Y0.0502 F3.15
G01 X1.0933 Y0.0516 F3.15
G01 X1.0936 Y0.0531 F3.15
G01 X1.0938 Y0.0545 F3.15
G01 X1.0940 Y0.0560 F3.15
G01 X1.0941 Y0.0575 F3.15
G01 X1.0942 Y0.0589 F3.15
G00 Z0.0787
G00 X1.1892 Y0.0589
G01 F3.15
G01 Z-0.0945
G01 F3.15
G01 X1.1891 Y0.0604 F3.15
G01 X1.1890 Y0.0619 F3.15
G01 X1.1888 Y0.0634 F3.15
G01 X1.1886 Y0.0648 F3.15
G01 X1.1883 Y0.0663 F3.15
G01 X1.1879 Y0.0677 F3.15
G01 X1.1874 Y0.0691 F3.15
G01 X1.1869 Y0.0705 F3.15
G01 X1.1863 Y0.0718 F3.15
G01 X1.1856 Y0.0731 F3.15
G01 X1.1849 Y0.0744 F3.15
G01 X1.1841 Y0.0757 F3.15
G01 X1.1832 Y0.0769 F3.15
G01 X1.1823 Y0.0781 F3.15
G01 X1.1814 Y0.0792 F3.15
G01 X1.1803 Y0.0803 F3.15
G01 X1.1793 Y0.0813 F3.15
G01 X1.1781 Y0.0822 F3.15
G01 X1.1770 Y0.0832 F3.15
G01 X1.1758 Y0.0840 F3.15
G01 X1.1745 Y0.0848 F3.15
G01 X1.1732 Y0.0855 F3.15
G01 X1.1719 Y0.0862 F3.15
G01 X1.1706 Y0.0868 F3.15
G01 X1.1692 Y0.0873 F3.15
G01 X1.1678 Y0.0878 F3.15
G01 X1.1663 Y0.0882 F3.15
G01 X1.1649 Y0.0885 F3.15
G01 X1.1634 Y0.0888 F3.15
G01 X1.1620 Y0.0889 F3.15
G01 X1.1605 Y0.0891 F3.15
G01 X1.1590 Y0.0891 F3.15
G01 X1.1575 Y0.0891 F3.15
G01 X1.1561 Y0.0889 F3.15
G01 X1.1546 Y0.0888 F3.15
G01 X1.1531 Y0.0885 F3.15
G01 X1.1517 Y0.0882 F3.15
G01 X1.1503 Y0.0878 F3.15
G01 X1.1489 Y0.0873 F3.15
G01 X1.1475 Y0.0868 F3.15
G01 X1.1461 Y0.0862 F3.15
G01 X1.1448 Y0.0855 F3.15
G01 X1.1435 Y0.0848 F3.15
G01 X1.1423 Y0.0840 F3.15
G01 X1.1411 Y0.0832 F3.15
G01 X1.1399 Y0.0822 F3.15
G01 X1.1388 Y0.0813 F3.15
G01 X1.1377 Y0.0803 F3.15
G01 X1.1367 Y0.0792 F3.15
G01 X1.1357 Y0.0781 F3.15
G01 X1.1348 Y0.0769 F3.15
G01 X1.1339 Y0.0757 F3.15
G01 X1.1332 Y0.0744 F3.15
G01 X1.1324 Y0.0731 F3.15
G01 X1.1318 Y0.0718 F3.15
G01 X1.1312 Y0.0705 F3.15
G01 X1.1306 Y0.0691 F3.15
G01 X1.1302 Y0.0677 F3.15
G01 X1.1298 Y0.0663 F3.15
G01 X1.1294 Y0.0648 F3.15
G01 X1.1292 Y0.0634 F3.15
G01 X1.1290 Y0.0619 F3.15
G01 X1.1289 Y0.0604 F3.15
G01 X1.1289 Y0.0589 F3.15
G01 X1.1289 Y0.0575 F3.15
G01 X1.1290 Y0.0560 F3.15
G01 X1.1292 Y0.0545 F3.15
G01 X1.1294 Y0.0531 F3.15
G01 X1.1298 Y0.0516 F3.15
G01 X1.1302 Y0.0502 F3.15
G01 X1.1306 Y0.0488 F3.15
G01 X1.1312 Y0.0474 F3.15
G01 X1.1318 Y0.0460 F3.15
G01 X1.1324 Y0.0447 F3.15
G01 X1.1332 Y0.0434 F3.15
G01 X1.1339 Y0.0422 F3.15
G01 X1.1348 Y0.0410 F3.15
G01 X1.1357 Y0.0398 F3.15
G01 X1.1367 Y0.0387 F3.15
G01 X1.1377 Y0.0376 F3.15
G01 X1.1388 Y0.0366 F3.15
G01 X1.1399 Y0.0356 F3.15
G01 X1.1411 Y0.0347 F3.15
G01 X1.1423 Y0.0339 F3.15
G01 X1.1435 Y0.0331 F3.15
G01 X1.1448 Y0.0323 F3.15
G01 X1.1461 Y0.0317 F3.15
G01 X1.1475 Y0.0311 F3.15
G01 X1.1489 Y0.0305 F3.15
G01 X1.1503 Y0.0301 F3.15
G01 X1.1517 Y0.0297 F3.15
G01 X1.1531 Y0.0294 F3.15
G01 X1.1546 Y0.0291 F3.15
G01 X1.1561 Y0.0289 F3.15
G01 X1.1575 Y0.0288 F3.15
G01 X1.1590 Y0.0288 F3.15
G01 X1.1605 Y0.0288 F3.15
G01 X1.1620 Y0.0289 F3.15
G01 X1.1634 Y0.0291 F3.15
G01 X1.1649 Y0.0294 F3.15
G01 X1.1663 Y0.0297 F3.15
G01 X1.1678 Y0.0301 F3.15
G01 X1.1692 Y0.0305 F3.15
G01 X1.1706 Y0.0311 F3.15
G01 X1.1719 Y0.0317 F3.15
G01 X1.1732 Y0.0323 F3.15
G01 X1.1745 Y0.0331 F3.15
G01 X1.1758 Y0.0339 F3.15
G01 X1.1770 Y0.0347 F3.15
G01 X1.1781 Y0.0356 F3.15
G01 X1.1793 Y0.0366 F3.15
G01 X1.1803 Y0.0376 F3.15
G01 X1.1814 Y0.0387 F3.15
G01 X1.1823 Y0.0398 F3.15
G01 X1.1832 Y0.0410 F3.15
G01 X1.1841 Y0.0422 F3.15
G01 X1.1849 Y0.0434 F3.15
G01 X1.1856 Y0.0447 F3.15
G01 X1.1863 Y0.0460 F3.15
G01 X1.1869 Y0.0474 F3.15
G01 X1.1874 Y0.0488 F3.15
G01 X1.1879 Y0.0502 F3.15
G01 X1.1883 Y0.0516 F3.15
G01 X1.1886 Y0.0531 F3.15
G01 X1.1888 Y0.0545 F3.15
G01 X1.1890 Y0.0560 F3.15
G01 X1.1891 Y0.0575 F3.15
G01 X1.1892 Y0.0589 F3.15
G00 Z0.0787
G00 X1.2942 Y0.0589
G01 F3.15
G01 Z-0.0945
G01 F3.15
G01 X1.2941 Y0.0604 F3.15
G01 X1.2940 Y0.0619 F3.15
G01 X1.2938 Y0.0634 F3.15
G01 X1.2936 Y0.0648 F3.15
G01 X1.2933 Y0.0663 F3.15
G01 X1.2929 Y0.0677 F3.15
G01 X1.2924 Y0.0691 F3.15
G01 X1.2919 Y0.0705 F3.15
G01 X1.2913 Y0.0718 F3.15
G01 X1.2906 Y0.0731 F3.15
G01 X1.2899 Y0.0744 F3.15
G01 X1.2891 Y0.0757 F3.15
G01 X1.2882 Y0.0769 F3.15
G01 X1.2873 Y0.0781 F3.15
G01 X1.2864 Y0.0792 F3.15
G01 X1.2853 Y0.0803 F3.15
G01 X1.2843 Y0.0813 F3.15
G01 X1.2831 Y0.0822 F3.15
G01 X1.2820 Y0.0832 F3.15
G01 X1.2808 Y0.0840 F3.15
G01 X1.2795 Y0.0848 F3.15
G01 X1.2782 Y0.0855 F3.15
G01 X1.2769 Y0.0862 F3.15
G01 X1.2756 Y0.0868 F3.15
G01 X1.2742 Y0.0873 F3.15
G01 X1.2728 Y0.0878 F3.15
G01 X1.2713 Y0.0882 F3.15
G01 X1.2699 Y0.0885 F3.15
G01 X1.2684 Y0.0888 F3.15
G01 X1.2670 Y0.0889 F3.15
G01 X1.2655 Y0.0891 F3.15
G01 X1.2640 Y0.0891 F3.15
G01 X1.2625 Y0.0891 F3.15
G01 X1.2611 Y0.0889 F3.15
G01 X1.2596 Y0.0888 F3.15
G01 X1.2581 Y0.0885 F3.15
G01 X1.2567 Y0.0882 F3.15
G01 X1.2553 Y0.0878 F3.15
G01 X1.2539 Y0.0873 F3.15
G01 X1.2525 Y0.0868 F3.15
G01 X1.2511 Y0.0862 F3.15
G01 X1.2498 Y0.0855 F3.15
G01 X1.2485 Y0.0848 F3.15
G01 X1.2473 Y0.0840 F3.15
G01 X1.2461 Y0.0832 F3.15
G01 X1.2449 Y0.0822 F3.15
G01 X1.2438 Y0.0813 F3.15
G01 X1.2427 Y0.0803 F3.15
G01 X1.2417 Y0.0792 F3.15
G01 X1.2407 Y0.0781 F3.15
G01 X1.2398 Y0.0769 F3.15
G01 X1.2389 Y0.0757 F3.15
G01 X1.2382 Y0.0744 F3.15
G01 X1.2374 Y0.0731 F3.15
G01 X1.2368 Y0.0718 F3.15
G01 X1.2362 Y0.0705 F3.15
G01 X1.2356 Y0.0691 F3.15
G01 X1.2352 Y0.0677 F3.15
G01 X1.2348 Y0.0663 F3.15
G01 X1.2344 Y0.0648 F3.15
G01 X1.2342 Y0.0634 F3.15
G01 X1.2340 Y0.0619 F3.15
G01 X1.2339 Y0.0604 F3.15
G01 X1.2339 Y0.0589 F3.15
G01 X1.2339 Y0.0575 F3.15
G01 X1.2340 Y0.0560 F3.15
G01 X1.2342 Y0.0545 F3.15
G01 X1.2344 Y0.0531 F3.15
G01 X1.2348 Y0.0516 F3.15
G01 X1.2352 Y0.0502 F3.15
G01 X1.2356 Y0.0488 F3.15
G01 X1.2362 Y0.0474 F3.15
G01 X1.2368 Y0.0460 F3.15
G01 X1.2374 Y0.0447 F3.15
G01 X1.2382 Y0.0434 F3.15
G01 X1.2389 Y0.0422 F3.15
G01 X1.2398 Y0.0410 F3.15
G01 X1.2407 Y0.0398 F3.15
G01 X1.2417 Y0.0387 F3.15
G01 X1.2427 Y0.0376 F3.15
G01 X1.2438 Y0.0366 F3.15
G01 X1.2449 Y0.0356 F3.15
G01 X1.2461 Y0.0347 F3.15
G01 X1.2473 Y0.0339 F3.15
G01 X1.2485 Y0.0331 F3.15
G01 X1.2498 Y0.0323 F3.15
G01 X1.2511 Y0.0317 F3.15
G01 X1.2525 Y0.0311 F3.15
G01 X1.2539 Y0.0305 F3.15
G01 X1.2553 Y0.0301 F3.15
G01 X1.2567 Y0.0297 F3.15
G01 X1.2581 Y0.0294 F3.15
G01 X1.2596 Y0.0291 F3.15
G01 X1.2611 Y0.0289 F3.15
G01 X1.2625 Y0.0288 F3.15
G01 X1.2640 Y0.0288 F3.15
G01 X1.2655 Y0.0288 F3.15
G01 X1.2670 Y0.0289 F3.15
G01 X1.2684 Y0.0291 F3.15
G01 X1.2699 Y0.0294 F3.15
G01 X1.2713 Y0.0297 F3.15
G01 X1.2728 Y0.0301 F3.15
G01 X1.2742 Y0.0305 F3.15
G01 X1.2756 Y0.0311 F3.15
G01 X1.2769 Y0.0317 F3.15
G01 X1.2782 Y0.0323 F3.15
G01 X1.2795 Y0.0331 F3.15
G01 X1.2808 Y0.0339 F3.15
G01 X1.2820 Y0.0347 F3.15
G01 X1.2831 Y0.0356 F3.15
G01 X1.2843 Y0.0366 F3.15
G01 X1.2853 Y0.0376 F3.15
G01 X1.2864 Y0.0387 F3.15
G01 X1.2873 Y0.0398 F3.15
G01 X1.2882 Y0.0410 F3.15
G01 X1.2891 Y0.0422 F3.15
G01 X1.2899 Y0.0434 F3.15
G01 X1.2906 Y0.0447 F3.15
G01 X1.2913 Y0.0460 F3.15
G01 X1.2919 Y0.0474 F3.15
G01 X1.2924 Y0.0488 F3.15
G01 X1.2929 Y0.0502 F3.15
G01 X1.2933 Y0.0516 F3.15
G01 X1.2936 Y0.0531 F3.15
G01 X1.2938 Y0.0545 F3.15
G01 X1.2940 Y0.0560 F3.15
G01 X1.2941 Y0.0575 F3.15
G01 X1.2942 Y0.0589 F3.15
G00 Z0.0787
G00 X1.3892 Y0.0589
G01 F3.15
G01 Z-0.0945
G01 F3.15
G01 X1.3891 Y0.0604 F3.15
G01 X1.3890 Y0.0619 F3.15
G01 X1.3888 Y0.0634 F3.15
G01 X1.3886 Y0.0648 F3.15
G01 X1.3883 Y0.0663 F3.15
G01 X1.3879 Y0.0677 F3.15
G01 X1.3874 Y0.0691 F3.15
G01 X1.3869 Y0.0705 F3.15
G01 X1.3863 Y0.0718 F3.15
G01 X1.3856 Y0.0731 F3.15
G01 X1.3849 Y0.0744 F3.15
G01 X1.3841 Y0.0757 F3.15
G01 X1.3832 Y0.0769 F3.15
G01 X1.3823 Y0.0781 F3.15
G01 X1.3814 Y0.0792 F3.15
G01 X1.3803 Y0.0803 F3.15
G01 X1.3793 Y0.0813 F3.15
G01 X1.3781 Y0.0822 F3.15
G01 X1.3770 Y0.0832 F3.15
G01 X1.3758 Y0.0840 F3.15
G01 X1.3745 Y0.0848 F3.15
G01 X1.3732 Y0.0855 F3.15
G01 X1.3719 Y0.0862 F3.15
G01 X1.3706 Y0.0868 F3.15
G01 X1.3692 Y0.0873 F3.15
G01 X1.3678 Y0.0878 F3.15
G01 X1.3663 Y0.0882 F3.15
G01 X1.3649 Y0.0885 F3.15
G01 X1.3634 Y0.0888 F3.15
G01 X1.3620 Y0.0889 F3.15
G01 X1.3605 Y0.0891 F3.15
G01 X1.3590 Y0.0891 F3.15
G01 X1.3575 Y0.0891 F3.15
G01 X1.3561 Y0.0889 F3.15
G01 X1.3546 Y0.0888 F3.15
G01 X1.3531 Y0.0885 F3.15
G01 X1.3517 Y0.0882 F3.15
G01 X1.3503 Y0.0878 F3.15
G01 X1.3489 Y0.0873 F3.15
G01 X1.3475 Y0.0868 F3.15
G01 X1.3461 Y0.0862 F3.15
G01 X1.3448 Y0.0855 F3.15
G01 X1.3435 Y0.0848 F3.15
G01 X1.3423 Y0.0840 F3.15
G01 X1.3411 Y0.0832 F3.15
G01 X1.3399 Y0.0822 F3.15
G01 X1.3388 Y0.0813 F3.15
G01 X1.3377 Y0.0803 F3.15
G01 X1.3367 Y0.0792 F3.15
G01 X1.3357 Y0.0781 F3.15
G01 X1.3348 Y0.0769 F3.15
G01 X1.3339 Y0.0757 F3.15
G01 X1.3332 Y0.0744 F3.15
G01 X1.3324 Y0.0731 F3.15
G01 X1.3318 Y0.0718 F3.15
G01 X1.3312 Y0.0705 F3.15
G01 X1.3306 Y0.0691 F3.15
G01 X1.3302 Y0.0677 F3.15
G01 X1.3298 Y0.0663 F3.15
G01 X1.3294 Y0.0648 F3.15
G01 X1.3292 Y0.0634 F3.15
G01 X1.3290 Y0.0619 F3.15
G01 X1.3289 Y0.0604 F3.15
G01 X1.3289 Y0.0589 F3.15
G01 X1.3289 Y0.0575 F3.15
G01 X1.3290 Y0.0560 F3.15
G01 X1.3292 Y0.0545 F3.15
G01 X1.3294 Y0.0531 F3.15
G01 X1.3298 Y0.0516 F3.15
G01 X1.3302 Y0.0502 F3.15
G01 X1.3306 Y0.0488 F3.15
G01 X1.3312 Y0.0474 F3.15
G01 X1.3318 Y0.0460 F3.15
G01 X1.3324 Y0.0447 F3.15
G01 X1.3332 Y0.0434 F3.15
G01 X1.3339 Y0.0422 F3.15
G01 X1.3348 Y0.0410 F3.15
G01 X1.3357 Y0.0398 F3.15
G01 X1.3367 Y0.0387 F3.15
G01 X1.3377 Y0.0376 F3.15
G01 X1.3388 Y0.0366 F3.15
G01 X1.3399 Y0.0356 F3.15
G01 X1.3411 Y0.0347 F3.15
G01 X1.3423 Y0.0339 F3.15
G01 X1.3435 Y0.0331 F3.15
G01 X1.3448 Y0.0323 F3.15
G01 X1.3461 Y0.0317 F3.15
G01 X1.3475 Y0.0311 F3.15
G01 X1.3489 Y0.0305 F3.15
G01 X1.3503 Y0.0301 F3.15
G01 X1.3517 Y0.0297 F3.15
G01 X1.3531 Y0.0294 F3.15
G01 X1.3546 Y0.0291 F3.15
G01 X1.3561 Y0.0289 F3.15
G01 X1.3575 Y0.0288 F3.15
G01 X1.3590 Y0.0288 F3.15
G01 X1.3605 Y0.0288 F3.15
G01 X1.3620 Y0.0289 F3.15
G01 X1.3634 Y0.0291 F3.15
G01 X1.3649 Y0.0294 F3.15
G01 X1.3663 Y0.0297 F3.15
G01 X1.3678 Y0.0301 F3.15
G01 X1.3692 Y0.0305 F3.15
G01 X1.3706 Y0.0311 F3.15
G01 X1.3719 Y0.0317 F3.15
G01 X1.3732 Y0.0323 F3.15
G01 X1.3745 Y0.0331 F3.15
G01 X1.3758 Y0.0339 F3.15
G01 X1.3770 Y0.0347 F3.15
G01 X1.3781 Y0.0356 F3.15
G01 X1.3793 Y0.0366 F3.15
G01 X1.3803 Y0.0376 F3.15
G01 X1.3814 Y0.0387 F3.15
G01 X1.3823 Y0.0398 F3.15
G01 X1.3832 Y0.0410 F3.15
G01 X1.3841 Y0.0422 F3.15
G01 X1.3849 Y0.0434 F3.15
G01 X1.3856 Y0.0447 F3.15
G01 X1.3863 Y0.0460 F3.15
G01 X1.3869 Y0.0474 F3.15
G01 X1.3874 Y0.0488 F3.15
G01 X1.3879 Y0.0502 F3.15
G01 X1.3883 Y0.0516 F3.15
G01 X1.3886 Y0.0531 F3.15
G01 X1.3888 Y0.0545 F3.15
G01 X1.3890 Y0.0560 F3.15
G01 X1.3891 Y0.0575 F3.15
G01 X1.3892 Y0.0589 F3.15
G00 Z0.0787
G00 X1.4942 Y0.0589
G01 F3.15
G01 Z-0.0945
G01 F3.15
G01 X1.4941 Y0.0604 F3.15
G01 X1.4940 Y0.0619 F3.15
G01 X1.4938 Y0.0634 F3.15
G01 X1.4936 Y0.0648 F3.15
G01 X1.4933 Y0.0663 F3.15
G01 X1.4929 Y0.0677 F3.15
G01 X1.4924 Y0.0691 F3.15
G01 X1.4919 Y0.0705 F3.15
G01 X1.4913 Y0.0718 F3.15
G01 X1.4906 Y0.0731 F3.15
G01 X1.4899 Y0.0744 F3.15
G01 X1.4891 Y0.0757 F3.15
G01 X1.4882 Y0.0769 F3.15
G01 X1.4873 Y0.0781 F3.15
G01 X1.4864 Y0.0792 F3.15
G01 X1.4853 Y0.0803 F3.15
G01 X1.4843 Y0.0813 F3.15
G01 X1.4831 Y0.0822 F3.15
G01 X1.4820 Y0.0832 F3.15
G01 X1.4808 Y0.0840 F3.15
G01 X1.4795 Y0.0848 F3.15
G01 X1.4782 Y0.0855 F3.15
G01 X1.4769 Y0.0862 F3.15
G01 X1.4756 Y0.0868 F3.15
G01 X1.4742 Y0.0873 F3.15
G01 X1.4728 Y0.0878 F3.15
G01 X1.4713 Y0.0882 F3.15
G01 X1.4699 Y0.0885 F3.15
G01 X1.4684 Y0.0888 F3.15
G01 X1.4670 Y0.0889 F3.15
G01 X1.4655 Y0.0891 F3.15
G01 X1.4640 Y0.0891 F3.15
G01 X1.4625 Y0.0891 F3.15
G01 X1.4611 Y0.0889 F3.15
G01 X1.4596 Y0.0888 F3.15
G01 X1.4581 Y0.0885 F3.15
G01 X1.4567 Y0.0882 F3.15
G01 X1.4553 Y0.0878 F3.15
G01 X1.4539 Y0.0873 F3.15
G01 X1.4525 Y0.0868 F3.15
G01 X1.4511 Y0.0862 F3.15
G01 X1.4498 Y0.0855 F3.15
G01 X1.4485 Y0.0848 F3.15
G01 X1.4473 Y0.0840 F3.15
G01 X1.4461 Y0.0832 F3.15
G01 X1.4449 Y0.0822 F3.15
G01 X1.4438 Y0.0813 F3.15
G01 X1.4427 Y0.0803 F3.15
G01 X1.4417 Y0.0792 F3.15
G01 X1.4407 Y0.0781 F3.15
G01 X1.4398 Y0.0769 F3.15
G01 X1.4389 Y0.0757 F3.15
G01 X1.4382 Y0.0744 F3.15
G01 X1.4374 Y0.0731 F3.15
G01 X1.4368 Y0.0718 F3.15
G01 X1.4362 Y0.0705 F3.15
G01 X1.4356 Y0.0691 F3.15
G01 X1.4352 Y0.0677 F3.15
G01 X1.4348 Y0.0663 F3.15
G01 X1.4344 Y0.0648 F3.15
G01 X1.4342 Y0.0634 F3.15
G01 X1.4340 Y0.0619 F3.15
G01 X1.4339 Y0.0604 F3.15
G01 X1.4339 Y0.0589 F3.15
G01 X1.4339 Y0.0575 F3.15
G01 X1.4340 Y0.0560 F3.15
G01 X1.4342 Y0.0545 F3.15
G01 X1.4344 Y0.0531 F3.15
G01 X1.4348 Y0.0516 F3.15
G01 X1.4352 Y0.0502 F3.15
G01 X1.4356 Y0.0488 F3.15
G01 X1.4362 Y0.0474 F3.15
G01 X1.4368 Y0.0460 F3.15
G01 X1.4374 Y0.0447 F3.15
G01 X1.4382 Y0.0434 F3.15
G01 X1.4389 Y0.0422 F3.15
G01 X1.4398 Y0.0410 F3.15
G01 X1.4407 Y0.0398 F3.15
G01 X1.4417 Y0.0387 F3.15
G01 X1.4427 Y0.0376 F3.15
G01 X1.4438 Y0.0366 F3.15
G01 X1.4449 Y0.0356 F3.15
G01 X1.4461 Y0.0347 F3.15
G01 X1.4473 Y0.0339 F3.15
G01 X1.4485 Y0.0331 F3.15
G01 X1.4498 Y0.0323 F3.15
G01 X1.4511 Y0.0317 F3.15
G01 X1.4525 Y0.0311 F3.15
G01 X1.4539 Y0.0305 F3.15
G01 X1.4553 Y0.0301 F3.15
G01 X1.4567 Y0.0297 F3.15
G01 X1.4581 Y0.0294 F3.15
G01 X1.4596 Y0.0291 F3.15
G01 X1.4611 Y0.0289 F3.15
G01 X1.4625 Y0.0288 F3.15
G01 X1.4640 Y0.0288 F3.15
G01 X1.4655 Y0.0288 F3.15
G01 X1.4670 Y0.0289 F3.15
G01 X1.4684 Y0.0291 F3.15
G01 X1.4699 Y0.0294 F3.15
G01 X1.4713 Y0.0297 F3.15
G01 X1.4728 Y0.0301 F3.15
G01 X1.4742 Y0.0305 F3.15
G01 X1.4756 Y0.0311 F3.15
G01 X1.4769 Y0.0317 F3.15
G01 X1.4782 Y0.0323 F3.15
G01 X1.4795 Y0.0331 F3.15
G01 X1.4808 Y0.0339 F3.15
G01 X1.4820 Y0.0347 F3.15
G01 X1.4831 Y0.0356 F3.15
G01 X1.4843 Y0.0366 F3.15
G01 X1.4853 Y0.0376 F3.15
G01 X1.4864 Y0.0387 F3.15
G01 X1.4873 Y0.0398 F3.15
G01 X1.4882 Y0.0410 F3.15
G01 X1.4891 Y0.0422 F3.15
G01 X1.4899 Y0.0434 F3.15
G01 X1.4906 Y0.0447 F3.15
G01 X1.4913 Y0.0460 F3.15
G01 X1.4919 Y0.0474 F3.15
G01 X1.4924 Y0.0488 F3.15
G01 X1.4929 Y0.0502 F3.15
G01 X1.4933 Y0.0516 F3.15
G01 X1.4936 Y0.0531 F3.15
G01 X1.4938 Y0.0545 F3.15
G01 X1.4940 Y0.0560 F3.15
G01 X1.4941 Y0.0575 F3.15
G01 X1.4942 Y0.0589 F3.15
G00 Z0.0787
G00 X1.5942 Y0.0589
G01 F3.15
G01 Z-0.0945
G01 F3.15
G01 X1.5941 Y0.0604 F3.15
G01 X1.5940 Y0.0619 F3.15
G01 X1.5938 Y0.0634 F3.15
G01 X1.5936 Y0.0648 F3.15
G01 X1.5933 Y0.0663 F3.15
G01 X1.5929 Y0.0677 F3.15
G01 X1.5924 Y0.0691 F3.15
G01 X1.5919 Y0.0705 F3.15
G01 X1.5913 Y0.0718 F3.15
G01 X1.5906 Y0.0731 F3.15
G01 X1.5899 Y0.0744 F3.15
G01 X1.5891 Y0.0757 F3.15
G01 X1.5882 Y0.0769 F3.15
G01 X1.5873 Y0.0781 F3.15
G01 X1.5864 Y0.0792 F3.15
G01 X1.5853 Y0.0803 F3.15
G01 X1.5843 Y0.0813 F3.15
G01 X1.5831 Y0.0822 F3.15
G01 X1.5820 Y0.0832 F3.15
G01 X1.5808 Y0.0840 F3.15
G01 X1.5795 Y0.0848 F3.15
G01 X1.5782 Y0.0855 F3.15
G01 X1.5769 Y0.0862 F3.15
G01 X1.5756 Y0.0868 F3.15
G01 X1.5742 Y0.0873 F3.15
G01 X1.5728 Y0.0878 F3.15
G01 X1.5713 Y0.0882 F3.15
G01 X1.5699 Y0.0885 F3.15
G01 X1.5684 Y0.0888 F3.15
G01 X1.5670 Y0.0889 F3.15
G01 X1.5655 Y0.0891 F3.15
G01 X1.5640 Y0.0891 F3.15
G01 X1.5625 Y0.0891 F3.15
G01 X1.5611 Y0.0889 F3.15
G01 X1.5596 Y0.0888 F3.15
G01 X1.5581 Y0.0885 F3.15
G01 X1.5567 Y0.0882 F3.15
G01 X1.5553 Y0.0878 F3.15
G01 X1.5539 Y0.0873 F3.15
G01 X1.5525 Y0.0868 F3.15
G01 X1.5511 Y0.0862 F3.15
G01 X1.5498 Y0.0855 F3.15
G01 X1.5485 Y0.0848 F3.15
G01 X1.5473 Y0.0840 F3.15
G01 X1.5461 Y0.0832 F3.15
G01 X1.5449 Y0.0822 F3.15
G01 X1.5438 Y0.0813 F3.15
G01 X1.5427 Y0.0803 F3.15
G01 X1.5417 Y0.0792 F3.15
G01 X1.5407 Y0.0781 F3.15
G01 X1.5398 Y0.0769 F3.15
G01 X1.5389 Y0.0757 F3.15
G01 X1.5382 Y0.0744 F3.15
G01 X1.5374 Y0.0731 F3.15
G01 X1.5368 Y0.0718 F3.15
G01 X1.5362 Y0.0705 F3.15
G01 X1.5356 Y0.0691 F3.15
G01 X1.5352 Y0.0677 F3.15
G01 X1.5348 Y0.0663 F3.15
G01 X1.5344 Y0.0648 F3.15
G01 X1.5342 Y0.0634 F3.15
G01 X1.5340 Y0.0619 F3.15
G01 X1.5339 Y0.0604 F3.15
G01 X1.5339 Y0.0589 F3.15
G01 X1.5339 Y0.0575 F3.15
G01 X1.5340 Y0.0560 F3.15
G01 X1.5342 Y0.0545 F3.15
G01 X1.5344 Y0.0531 F3.15
G01 X1.5348 Y0.0516 F3.15
G01 X1.5352 Y0.0502 F3.15
G01 X1.5356 Y0.0488 F3.15
G01 X1.5362 Y0.0474 F3.15
G01 X1.5368 Y0.0460 F3.15
G01 X1.5374 Y0.0447 F3.15
G01 X1.5382 Y0.0434 F3.15
G01 X1.5389 Y0.0422 F3.15
G01 X1.5398 Y0.0410 F3.15
G01 X1.5407 Y0.0398 F3.15
G01 X1.5417 Y0.0387 F3.15
G01 X1.5427 Y0.0376 F3.15
G01 X1.5438 Y0.0366 F3.15
G01 X1.5449 Y0.0356 F3.15
G01 X1.5461 Y0.0347 F3.15
G01 X1.5473 Y0.0339 F3.15
G01 X1.5485 Y0.0331 F3.15
G01 X1.5498 Y0.0323 F3.15
G01 X1.5511 Y0.0317 F3.15
G01 X1.5525 Y0.0311 F3.15
G01 X1.5539 Y0.0305 F3.15
G01 X1.5553 Y0.0301 F3.15
G01 X1.5567 Y0.0297 F3.15
G01 X1.5581 Y0.0294 F3.15
G01 X1.5596 Y0.0291 F3.15
G01 X1.5611 Y0.0289 F3.15
G01 X1.5625 Y0.0288 F3.15
G01 X1.5640 Y0.0288 F3.15
G01 X1.5655 Y0.0288 F3.15
G01 X1.5670 Y0.0289 F3.15
G01 X1.5684 Y0.0291 F3.15
G01 X1.5699 Y0.0294 F3.15
G01 X1.5713 Y0.0297 F3.15
G01 X1.5728 Y0.0301 F3.15
G01 X1.5742 Y0.0305 F3.15
G01 X1.5756 Y0.0311 F3.15
G01 X1.5769 Y0.0317 F3.15
G01 X1.5782 Y0.0323 F3.15
G01 X1.5795 Y0.0331 F3.15
G01 X1.5808 Y0.0339 F3.15
G01 X1.5820 Y0.0347 F3.15
G01 X1.5831 Y0.0356 F3.15
G01 X1.5843 Y0.0366 F3.15
G01 X1.5853 Y0.0376 F3.15
G01 X1.5864 Y0.0387 F3.15
G01 X1.5873 Y0.0398 F3.15
G01 X1.5882 Y0.0410 F3.15
G01 X1.5891 Y0.0422 F3.15
G01 X1.5899 Y0.0434 F3.15
G01 X1.5906 Y0.0447 F3.15
G01 X1.5913 Y0.0460 F3.15
G01 X1.5919 Y0.0474 F3.15
G01 X1.5924 Y0.0488 F3.15
G01 X1.5929 Y0.0502 F3.15
G01 X1.5933 Y0.0516 F3.15
G01 X1.5936 Y0.0531 F3.15
G01 X1.5938 Y0.0545 F3.15
G01 X1.5940 Y0.0560 F3.15
G01 X1.5941 Y0.0575 F3.15
G01 X1.5942 Y0.0589 F3.15
G00 Z0.0787
G00 X1.6942 Y0.0589
G01 F3.15
G01 Z-0.0945
G01 F3.15
G01 X1.6941 Y0.0604 F3.15
G01 X1.6940 Y0.0619 F3.15
G01 X1.6938 Y0.0634 F3.15
G01 X1.6936 Y0.0648 F3.15
G01 X1.6933 Y0.0663 F3.15
G01 X1.6929 Y0.0677 F3.15
G01 X1.6924 Y0.0691 F3.15
G01 X1.6919 Y0.0705 F3.15
G01 X1.6913 Y0.0718 F3.15
G01 X1.6906 Y0.0731 F3.15
G01 X1.6899 Y0.0744 F3.15
G01 X1.6891 Y0.0757 F3.15
G01 X1.6882 Y0.0769 F3.15
G01 X1.6873 Y0.0781 F3.15
G01 X1.6864 Y0.0792 F3.15
G01 X1.6853 Y0.0803 F3.15
G01 X1.6843 Y0.0813 F3.15
G01 X1.6831 Y0.0822 F3.15
G01 X1.6820 Y0.0832 F3.15
G01 X1.6808 Y0.0840 F3.15
G01 X1.6795 Y0.0848 F3.15
G01 X1.6782 Y0.0855 F3.15
G01 X1.6769 Y0.0862 F3.15
G01 X1.6756 Y0.0868 F3.15
G01 X1.6742 Y0.0873 F3.15
G01 X1.6728 Y0.0878 F3.15
G01 X1.6713 Y0.0882 F3.15
G01 X1.6699 Y0.0885 F3.15
G01 X1.6684 Y0.0888 F3.15
G01 X1.6670 Y0.0889 F3.15
G01 X1.6655 Y0.0891 F3.15
G01 X1.6640 Y0.0891 F3.15
G01 X1.6625 Y0.0891 F3.15
G01 X1.6611 Y0.0889 F3.15
G01 X1.6596 Y0.0888 F3.15
G01 X1.6581 Y0.0885 F3.15
G01 X1.6567 Y0.0882 F3.15
G01 X1.6553 Y0.0878 F3.15
G01 X1.6539 Y0.0873 F3.15
G01 X1.6525 Y0.0868 F3.15
G01 X1.6511 Y0.0862 F3.15
G01 X1.6498 Y0.0855 F3.15
G01 X1.6485 Y0.0848 F3.15
G01 X1.6473 Y0.0840 F3.15
G01 X1.6461 Y0.0832 F3.15
G01 X1.6449 Y0.0822 F3.15
G01 X1.6438 Y0.0813 F3.15
G01 X1.6427 Y0.0803 F3.15
G01 X1.6417 Y0.0792 F3.15
G01 X1.6407 Y0.0781 F3.15
G01 X1.6398 Y0.0769 F3.15
G01 X1.6389 Y0.0757 F3.15
G01 X1.6382 Y0.0744 F3.15
G01 X1.6374 Y0.0731 F3.15
G01 X1.6368 Y0.0718 F3.15
G01 X1.6362 Y0.0705 F3.15
G01 X1.6356 Y0.0691 F3.15
G01 X1.6352 Y0.0677 F3.15
G01 X1.6348 Y0.0663 F3.15
G01 X1.6344 Y0.0648 F3.15
G01 X1.6342 Y0.0634 F3.15
G01 X1.6340 Y0.0619 F3.15
G01 X1.6339 Y0.0604 F3.15
G01 X1.6339 Y0.0589 F3.15
G01 X1.6339 Y0.0575 F3.15
G01 X1.6340 Y0.0560 F3.15
G01 X1.6342 Y0.0545 F3.15
G01 X1.6344 Y0.0531 F3.15
G01 X1.6348 Y0.0516 F3.15
G01 X1.6352 Y0.0502 F3.15
G01 X1.6356 Y0.0488 F3.15
G01 X1.6362 Y0.0474 F3.15
G01 X1.6368 Y0.0460 F3.15
G01 X1.6374 Y0.0447 F3.15
G01 X1.6382 Y0.0434 F3.15
G01 X1.6389 Y0.0422 F3.15
G01 X1.6398 Y0.0410 F3.15
G01 X1.6407 Y0.0398 F3.15
G01 X1.6417 Y0.0387 F3.15
G01 X1.6427 Y0.0376 F3.15
G01 X1.6438 Y0.0366 F3.15
G01 X1.6449 Y0.0356 F3.15
G01 X1.6461 Y0.0347 F3.15
G01 X1.6473 Y0.0339 F3.15
G01 X1.6485 Y0.0331 F3.15
G01 X1.6498 Y0.0323 F3.15
G01 X1.6511 Y0.0317 F3.15
G01 X1.6525 Y0.0311 F3.15
G01 X1.6539 Y0.0305 F3.15
G01 X1.6553 Y0.0301 F3.15
G01 X1.6567 Y0.0297 F3.15
G01 X1.6581 Y0.0294 F3.15
G01 X1.6596 Y0.0291 F3.15
G01 X1.6611 Y0.0289 F3.15
G01 X1.6625 Y0.0288 F3.15
G01 X1.6640 Y0.0288 F3.15
G01 X1.6655 Y0.0288 F3.15
G01 X1.6670 Y0.0289 F3.15
G01 X1.6684 Y0.0291 F3.15
G01 X1.6699 Y0.0294 F3.15
G01 X1.6713 Y0.0297 F3.15
G01 X1.6728 Y0.0301 F3.15
G01 X1.6742 Y0.0305 F3.15
G01 X1.6756 Y0.0311 F3.15
G01 X1.6769 Y0.0317 F3.15
G01 X1.6782 Y0.0323 F3.15
G01 X1.6795 Y0.0331 F3.15
G01 X1.6808 Y0.0339 F3.15
G01 X1.6820 Y0.0347 F3.15
G01 X1.6831 Y0.0356 F3.15
G01 X1.6843 Y0.0366 F3.15
G01 X1.6853 Y0.0376 F3.15
G01 X1.6864 Y0.0387 F3.15
G01 X1.6873 Y0.0398 F3.15
G01 X1.6882 Y0.0410 F3.15
G01 X1.6891 Y0.0422 F3.15
G01 X1.6899 Y0.0434 F3.15
G01 X1.6906 Y0.0447 F3.15
G01 X1.6913 Y0.0460 F3.15
G01 X1.6919 Y0.0474 F3.15
G01 X1.6924 Y0.0488 F3.15
G01 X1.6929 Y0.0502 F3.15
G01 X1.6933 Y0.0516 F3.15
G01 X1.6936 Y0.0531 F3.15
G01 X1.6938 Y0.0545 F3.15
G01 X1.6940 Y0.0560 F3.15
G01 X1.6941 Y0.0575 F3.15
G01 X1.6942 Y0.0589 F3.15
G00 Z0.0787
G00 X1.7942 Y0.0589
G01 F3.15
G01 Z-0.0945
G01 F3.15
G01 X1.7941 Y0.0604 F3.15
G01 X1.7940 Y0.0619 F3.15
G01 X1.7938 Y0.0634 F3.15
G01 X1.7936 Y0.0648 F3.15
G01 X1.7933 Y0.0663 F3.15
G01 X1.7929 Y0.0677 F3.15
G01 X1.7924 Y0.0691 F3.15
G01 X1.7919 Y0.0705 F3.15
G01 X1.7913 Y0.0718 F3.15
G01 X1.7906 Y0.0731 F3.15
G01 X1.7899 Y0.0744 F3.15
G01 X1.7891 Y0.0757 F3.15
G01 X1.7882 Y0.0769 F3.15
G01 X1.7873 Y0.0781 F3.15
G01 X1.7864 Y0.0792 F3.15
G01 X1.7853 Y0.0803 F3.15
G01 X1.7843 Y0.0813 F3.15
G01 X1.7831 Y0.0822 F3.15
G01 X1.7820 Y0.0832 F3.15
G01 X1.7808 Y0.0840 F3.15
G01 X1.7795 Y0.0848 F3.15
G01 X1.7782 Y0.0855 F3.15
G01 X1.7769 Y0.0862 F3.15
G01 X1.7756 Y0.0868 F3.15
G01 X1.7742 Y0.0873 F3.15
G01 X1.7728 Y0.0878 F3.15
G01 X1.7713 Y0.0882 F3.15
G01 X1.7699 Y0.0885 F3.15
G01 X1.7684 Y0.0888 F3.15
G01 X1.7670 Y0.0889 F3.15
G01 X1.7655 Y0.0891 F3.15
G01 X1.7640 Y0.0891 F3.15
G01 X1.7625 Y0.0891 F3.15
G01 X1.7611 Y0.0889 F3.15
G01 X1.7596 Y0.0888 F3.15
G01 X1.7581 Y0.0885 F3.15
G01 X1.7567 Y0.0882 F3.15
G01 X1.7553 Y0.0878 F3.15
G01 X1.7539 Y0.0873 F3.15
G01 X1.7525 Y0.0868 F3.15
G01 X1.7511 Y0.0862 F3.15
G01 X1.7498 Y0.0855 F3.15
G01 X1.7485 Y0.0848 F3.15
G01 X1.7473 Y0.0840 F3.15
G01 X1.7461 Y0.0832 F3.15
G01 X1.7449 Y0.0822 F3.15
G01 X1.7438 Y0.0813 F3.15
G01 X1.7427 Y0.0803 F3.15
G01 X1.7417 Y0.0792 F3.15
G01 X1.7407 Y0.0781 F3.15
G01 X1.7398 Y0.0769 F3.15
G01 X1.7389 Y0.0757 F3.15
G01 X1.7382 Y0.0744 F3.15
G01 X1.7374 Y0.0731 F3.15
G01 X1.7368 Y0.0718 F3.15
G01 X1.7362 Y0.0705 F3.15
G01 X1.7356 Y0.0691 F3.15
G01 X1.7352 Y0.0677 F3.15
G01 X1.7348 Y0.0663 F3.15
G01 X1.7344 Y0.0648 F3.15
G01 X1.7342 Y0.0634 F3.15
G01 X1.7340 Y0.0619 F3.15
G01 X1.7339 Y0.0604 F3.15
G01 X1.7339 Y0.0589 F3.15
G01 X1.7339 Y0.0575 F3.15
G01 X1.7340 Y0.0560 F3.15
G01 X1.7342 Y0.0545 F3.15
G01 X1.7344 Y0.0531 F3.15
G01 X1.7348 Y0.0516 F3.15
G01 X1.7352 Y0.0502 F3.15
G01 X1.7356 Y0.0488 F3.15
G01 X1.7362 Y0.0474 F3.15
G01 X1.7368 Y0.0460 F3.15
G01 X1.7374 Y0.0447 F3.15
G01 X1.7382 Y0.0434 F3.15
G01 X1.7389 Y0.0422 F3.15
G01 X1.7398 Y0.0410 F3.15
G01 X1.7407 Y0.0398 F3.15
G01 X1.7417 Y0.0387 F3.15
G01 X1.7427 Y0.0376 F3.15
G01 X1.7438 Y0.0366 F3.15
G01 X1.7449 Y0.0356 F3.15
G01 X1.7461 Y0.0347 F3.15
G01 X1.7473 Y0.0339 F3.15
G01 X1.7485 Y0.0331 F3.15
G01 X1.7498 Y0.0323 F3.15
G01 X1.7511 Y0.0317 F3.15
G01 X1.7525 Y0.0311 F3.15
G01 X1.7539 Y0.0305 F3.15
G01 X1.7553 Y0.0301 F3.15
G01 X1.7567 Y0.0297 F3.15
G01 X1.7581 Y0.0294 F3.15
G01 X1.7596 Y0.0291 F3.15
G01 X1.7611 Y0.0289 F3.15
G01 X1.7625 Y0.0288 F3.15
G01 X1.7640 Y0.0288 F3.15
G01 X1.7655 Y0.0288 F3.15
G01 X1.7670 Y0.0289 F3.15
G01 X1.7684 Y0.0291 F3.15
G01 X1.7699 Y0.0294 F3.15
G01 X1.7713 Y0.0297 F3.15
G01 X1.7728 Y0.0301 F3.15
G01 X1.7742 Y0.0305 F3.15
G01 X1.7756 Y0.0311 F3.15
G01 X1.7769 Y0.0317 F3.15
G01 X1.7782 Y0.0323 F3.15
G01 X1.7795 Y0.0331 F3.15
G01 X1.7808 Y0.0339 F3.15
G01 X1.7820 Y0.0347 F3.15
G01 X1.7831 Y0.0356 F3.15
G01 X1.7843 Y0.0366 F3.15
G01 X1.7853 Y0.0376 F3.15
G01 X1.7864 Y0.0387 F3.15
G01 X1.7873 Y0.0398 F3.15
G01 X1.7882 Y0.0410 F3.15
G01 X1.7891 Y0.0422 F3.15
G01 X1.7899 Y0.0434 F3.15
G01 X1.7906 Y0.0447 F3.15
G01 X1.7913 Y0.0460 F3.15
G01 X1.7919 Y0.0474 F3.15
G01 X1.7924 Y0.0488 F3.15
G01 X1.7929 Y0.0502 F3.15
G01 X1.7933 Y0.0516 F3.15
G01 X1.7936 Y0.0531 F3.15
G01 X1.7938 Y0.0545 F3.15
G01 X1.7940 Y0.0560 F3.15
G01 X1.7941 Y0.0575 F3.15
G01 X1.7942 Y0.0589 F3.15
G00 Z0.0787
G00 X1.8942 Y0.0589
G01 F3.15
G01 Z-0.0945
G01 F3.15
G01 X1.8941 Y0.0604 F3.15
G01 X1.8940 Y0.0619 F3.15
G01 X1.8938 Y0.0634 F3.15
G01 X1.8936 Y0.0648 F3.15
G01 X1.8933 Y0.0663 F3.15
G01 X1.8929 Y0.0677 F3.15
G01 X1.8924 Y0.0691 F3.15
G01 X1.8919 Y0.0705 F3.15
G01 X1.8913 Y0.0718 F3.15
G01 X1.8906 Y0.0731 F3.15
G01 X1.8899 Y0.0744 F3.15
G01 X1.8891 Y0.0757 F3.15
G01 X1.8882 Y0.0769 F3.15
G01 X1.8873 Y0.0781 F3.15
G01 X1.8864 Y0.0792 F3.15
G01 X1.8853 Y0.0803 F3.15
G01 X1.8843 Y0.0813 F3.15
G01 X1.8831 Y0.0822 F3.15
G01 X1.8820 Y0.0832 F3.15
G01 X1.8808 Y0.0840 F3.15
G01 X1.8795 Y0.0848 F3.15
G01 X1.8782 Y0.0855 F3.15
G01 X1.8769 Y0.0862 F3.15
G01 X1.8756 Y0.0868 F3.15
G01 X1.8742 Y0.0873 F3.15
G01 X1.8728 Y0.0878 F3.15
G01 X1.8713 Y0.0882 F3.15
G01 X1.8699 Y0.0885 F3.15
G01 X1.8684 Y0.0888 F3.15
G01 X1.8670 Y0.0889 F3.15
G01 X1.8655 Y0.0891 F3.15
G01 X1.8640 Y0.0891 F3.15
G01 X1.8625 Y0.0891 F3.15
G01 X1.8611 Y0.0889 F3.15
G01 X1.8596 Y0.0888 F3.15
G01 X1.8581 Y0.0885 F3.15
G01 X1.8567 Y0.0882 F3.15
G01 X1.8553 Y0.0878 F3.15
G01 X1.8539 Y0.0873 F3.15
G01 X1.8525 Y0.0868 F3.15
G01 X1.8511 Y0.0862 F3.15
G01 X1.8498 Y0.0855 F3.15
G01 X1.8485 Y0.0848 F3.15
G01 X1.8473 Y0.0840 F3.15
G01 X1.8461 Y0.0832 F3.15
G01 X1.8449 Y0.0822 F3.15
G01 X1.8438 Y0.0813 F3.15
G01 X1.8427 Y0.0803 F3.15
G01 X1.8417 Y0.0792 F3.15
G01 X1.8407 Y0.0781 F3.15
G01 X1.8398 Y0.0769 F3.15
G01 X1.8389 Y0.0757 F3.15
G01 X1.8382 Y0.0744 F3.15
G01 X1.8374 Y0.0731 F3.15
G01 X1.8368 Y0.0718 F3.15
G01 X1.8362 Y0.0705 F3.15
G01 X1.8356 Y0.0691 F3.15
G01 X1.8352 Y0.0677 F3.15
G01 X1.8348 Y0.0663 F3.15
G01 X1.8344 Y0.0648 F3.15
G01 X1.8342 Y0.0634 F3.15
G01 X1.8340 Y0.0619 F3.15
G01 X1.8339 Y0.0604 F3.15
G01 X1.8339 Y0.0589 F3.15
G01 X1.8339 Y0.0575 F3.15
G01 X1.8340 Y0.0560 F3.15
G01 X1.8342 Y0.0545 F3.15
G01 X1.8344 Y0.0531 F3.15
G01 X1.8348 Y0.0516 F3.15
G01 X1.8352 Y0.0502 F3.15
G01 X1.8356 Y0.0488 F3.15
G01 X1.8362 Y0.0474 F3.15
G01 X1.8368 Y0.0460 F3.15
G01 X1.8374 Y0.0447 F3.15
G01 X1.8382 Y0.0434 F3.15
G01 X1.8389 Y0.0422 F3.15
G01 X1.8398 Y0.0410 F3.15
G01 X1.8407 Y0.0398 F3.15
G01 X1.8417 Y0.0387 F3.15
G01 X1.8427 Y0.0376 F3.15
G01 X1.8438 Y0.0366 F3.15
G01 X1.8449 Y0.0356 F3.15
G01 X1.8461 Y0.0347 F3.15
G01 X1.8473 Y0.0339 F3.15
G01 X1.8485 Y0.0331 F3.15
G01 X1.8498 Y0.0323 F3.15
G01 X1.8511 Y0.0317 F3.15
G01 X1.8525 Y0.0311 F3.15
G01 X1.8539 Y0.0305 F3.15
G01 X1.8553 Y0.0301 F3.15
G01 X1.8567 Y0.0297 F3.15
G01 X1.8581 Y0.0294 F3.15
G01 X1.8596 Y0.0291 F3.15
G01 X1.8611 Y0.0289 F3.15
G01 X1.8625 Y0.0288 F3.15
G01 X1.8640 Y0.0288 F3.15
G01 X1.8655 Y0.0288 F3.15
G01 X1.8670 Y0.0289 F3.15
G01 X1.8684 Y0.0291 F3.15
G01 X1.8699 Y0.0294 F3.15
G01 X1.8713 Y0.0297 F3.15
G01 X1.8728 Y0.0301 F3.15
G01 X1.8742 Y0.0305 F3.15
G01 X1.8756 Y0.0311 F3.15
G01 X1.8769 Y0.0317 F3.15
G01 X1.8782 Y0.0323 F3.15
G01 X1.8795 Y0.0331 F3.15
G01 X1.8808 Y0.0339 F3.15
G01 X1.8820 Y0.0347 F3.15
G01 X1.8831 Y0.0356 F3.15
G01 X1.8843 Y0.0366 F3.15
G01 X1.8853 Y0.0376 F3.15
G01 X1.8864 Y0.0387 F3.15
G01 X1.8873 Y0.0398 F3.15
G01 X1.8882 Y0.0410 F3.15
G01 X1.8891 Y0.0422 F3.15
G01 X1.8899 Y0.0434 F3.15
G01 X1.8906 Y0.0447 F3.15
G01 X1.8913 Y0.0460 F3.15
G01 X1.8919 Y0.0474 F3.15
G01 X1.8924 Y0.0488 F3.15
G01 X1.8929 Y0.0502 F3.15
G01 X1.8933 Y0.0516 F3.15
G01 X1.8936 Y0.0531 F3.15
G01 X1.8938 Y0.0545 F3.15
G01 X1.8940 Y0.0560 F3.15
G01 X1.8941 Y0.0575 F3.15
G01 X1.8942 Y0.0589 F3.15
G00 Z0.0787
G00 X1.9942 Y0.0589
G01 F3.15
G01 Z-0.0945
G01 F3.15
G01 X1.9941 Y0.0604 F3.15
G01 X1.9940 Y0.0619 F3.15
G01 X1.9938 Y0.0634 F3.15
G01 X1.9936 Y0.0648 F3.15
G01 X1.9933 Y0.0663 F3.15
G01 X1.9929 Y0.0677 F3.15
G01 X1.9924 Y0.0691 F3.15
G01 X1.9919 Y0.0705 F3.15
G01 X1.9913 Y0.0718 F3.15
G01 X1.9906 Y0.0731 F3.15
G01 X1.9899 Y0.0744 F3.15
G01 X1.9891 Y0.0757 F3.15
G01 X1.9882 Y0.0769 F3.15
G01 X1.9873 Y0.0781 F3.15
G01 X1.9864 Y0.0792 F3.15
G01 X1.9853 Y0.0803 F3.15
G01 X1.9843 Y0.0813 F3.15
G01 X1.9831 Y0.0822 F3.15
G01 X1.9820 Y0.0832 F3.15
G01 X1.9808 Y0.0840 F3.15
G01 X1.9795 Y0.0848 F3.15
G01 X1.9782 Y0.0855 F3.15
G01 X1.9769 Y0.0862 F3.15
G01 X1.9756 Y0.0868 F3.15
G01 X1.9742 Y0.0873 F3.15
G01 X1.9728 Y0.0878 F3.15
G01 X1.9713 Y0.0882 F3.15
G01 X1.9699 Y0.0885 F3.15
G01 X1.9684 Y0.0888 F3.15
G01 X1.9670 Y0.0889 F3.15
G01 X1.9655 Y0.0891 F3.15
G01 X1.9640 Y0.0891 F3.15
G01 X1.9625 Y0.0891 F3.15
G01 X1.9611 Y0.0889 F3.15
G01 X1.9596 Y0.0888 F3.15
G01 X1.9581 Y0.0885 F3.15
G01 X1.9567 Y0.0882 F3.15
G01 X1.9553 Y0.0878 F3.15
G01 X1.9539 Y0.0873 F3.15
G01 X1.9525 Y0.0868 F3.15
G01 X1.9511 Y0.0862 F3.15
G01 X1.9498 Y0.0855 F3.15
G01 X1.9485 Y0.0848 F3.15
G01 X1.9473 Y0.0840 F3.15
G01 X1.9461 Y0.0832 F3.15
G01 X1.9449 Y0.0822 F3.15
G01 X1.9438 Y0.0813 F3.15
G01 X1.9427 Y0.0803 F3.15
G01 X1.9417 Y0.0792 F3.15
G01 X1.9407 Y0.0781 F3.15
G01 X1.9398 Y0.0769 F3.15
G01 X1.9389 Y0.0757 F3.15
G01 X1.9382 Y0.0744 F3.15
G01 X1.9374 Y0.0731 F3.15
G01 X1.9368 Y0.0718 F3.15
G01 X1.9362 Y0.0705 F3.15
G01 X1.9356 Y0.0691 F3.15
G01 X1.9352 Y0.0677 F3.15
G01 X1.9348 Y0.0663 F3.15
G01 X1.9344 Y0.0648 F3.15
G01 X1.9342 Y0.0634 F3.15
G01 X1.9340 Y0.0619 F3.15
G01 X1.9339 Y0.0604 F3.15
G01 X1.9339 Y0.0589 F3.15
G01 X1.9339 Y0.0575 F3.15
G01 X1.9340 Y0.0560 F3.15
G01 X1.9342 Y0.0545 F3.15
G01 X1.9344 Y0.0531 F3.15
G01 X1.9348 Y0.0516 F3.15
G01 X1.9352 Y0.0502 F3.15
G01 X1.9356 Y0.0488 F3.15
G01 X1.9362 Y0.0474 F3.15
G01 X1.9368 Y0.0460 F3.15
G01 X1.9374 Y0.0447 F3.15
G01 X1.9382 Y0.0434 F3.15
G01 X1.9389 Y0.0422 F3.15
G01 X1.9398 Y0.0410 F3.15
G01 X1.9407 Y0.0398 F3.15
G01 X1.9417 Y0.0387 F3.15
G01 X1.9427 Y0.0376 F3.15
G01 X1.9438 Y0.0366 F3.15
G01 X1.9449 Y0.0356 F3.15
G01 X1.9461 Y0.0347 F3.15
G01 X1.9473 Y0.0339 F3.15
G01 X1.9485 Y0.0331 F3.15
G01 X1.9498 Y0.0323 F3.15
G01 X1.9511 Y0.0317 F3.15
G01 X1.9525 Y0.0311 F3.15
G01 X1.9539 Y0.0305 F3.15
G01 X1.9553 Y0.0301 F3.15
G01 X1.9567 Y0.0297 F3.15
G01 X1.9581 Y0.0294 F3.15
G01 X1.9596 Y0.0291 F3.15
G01 X1.9611 Y0.0289 F3.15
G01 X1.9625 Y0.0288 F3.15
G01 X1.9640 Y0.0288 F3.15
G01 X1.9655 Y0.0288 F3.15
G01 X1.9670 Y0.0289 F3.15
G01 X1.9684 Y0.0291 F3.15
G01 X1.9699 Y0.0294 F3.15
G01 X1.9713 Y0.0297 F3.15
G01 X1.9728 Y0.0301 F3.15
G01 X1.9742 Y0.0305 F3.15
G01 X1.9756 Y0.0311 F3.15
G01 X1.9769 Y0.0317 F3.15
G01 X1.9782 Y0.0323 F3.15
G01 X1.9795 Y0.0331 F3.15
G01 X1.9808 Y0.0339 F3.15
G01 X1.9820 Y0.0347 F3.15
G01 X1.9831 Y0.0356 F3.15
G01 X1.9843 Y0.0366 F3.15
G01 X1.9853 Y0.0376 F3.15
G01 X1.9864 Y0.0387 F3.15
G01 X1.9873 Y0.0398 F3.15
G01 X1.9882 Y0.0410 F3.15
G01 X1.9891 Y0.0422 F3.15
G01 X1.9899 Y0.0434 F3.15
G01 X1.9906 Y0.0447 F3.15
G01 X1.9913 Y0.0460 F3.15
G01 X1.9919 Y0.0474 F3.15
G01 X1.9924 Y0.0488 F3.15
G01 X1.9929 Y0.0502 F3.15
G01 X1.9933 Y0.0516 F3.15
G01 X1.9936 Y0.0531 F3.15
G01 X1.9938 Y0.0545 F3.15
G01 X1.9940 Y0.0560 F3.15
G01 X1.9941 Y0.0575 F3.15
G01 X1.9942 Y0.0589 F3.15
G00 Z0.0787
G00 X2.0942 Y0.0539
G01 F3.15
G01 Z-0.0945
G01 F3.15
G01 X2.0941 Y0.0554 F3.15
G01 X2.0940 Y0.0569 F3.15
G01 X2.0938 Y0.0584 F3.15
G01 X2.0936 Y0.0598 F3.15
G01 X2.0933 Y0.0613 F3.15
G01 X2.0929 Y0.0627 F3.15
G01 X2.0924 Y0.0641 F3.15
G01 X2.0919 Y0.0655 F3.15
G01 X2.0913 Y0.0668 F3.15
G01 X2.0906 Y0.0681 F3.15
G01 X2.0899 Y0.0694 F3.15
G01 X2.0891 Y0.0707 F3.15
G01 X2.0882 Y0.0719 F3.15
G01 X2.0873 Y0.0731 F3.15
G01 X2.0864 Y0.0742 F3.15
G01 X2.0853 Y0.0753 F3.15
G01 X2.0843 Y0.0763 F3.15
G01 X2.0831 Y0.0772 F3.15
G01 X2.0820 Y0.0782 F3.15
G01 X2.0808 Y0.0790 F3.15
G01 X2.0795 Y0.0798 F3.15
G01 X2.0782 Y0.0805 F3.15
G01 X2.0769 Y0.0812 F3.15
G01 X2.0756 Y0.0818 F3.15
G01 X2.0742 Y0.0823 F3.15
G01 X2.0728 Y0.0828 F3.15
G01 X2.0713 Y0.0832 F3.15
G01 X2.0699 Y0.0835 F3.15
G01 X2.0684 Y0.0838 F3.15
G01 X2.0670 Y0.0839 F3.15
G01 X2.0655 Y0.0841 F3.15
G01 X2.0640 Y0.0841 F3.15
G01 X2.0625 Y0.0841 F3.15
G01 X2.0611 Y0.0839 F3.15
G01 X2.0596 Y0.0838 F3.15
G01 X2.0581 Y0.0835 F3.15
G01 X2.0567 Y0.0832 F3.15
G01 X2.0553 Y0.0828 F3.15
G01 X2.0539 Y0.0823 F3.15
G01 X2.0525 Y0.0818 F3.15
G01 X2.0511 Y0.0812 F3.15
G01 X2.0498 Y0.0805 F3.15
G01 X2.0485 Y0.0798 F3.15
G01 X2.0473 Y0.0790 F3.15
G01 X2.0461 Y0.0782 F3.15
G01 X2.0449 Y0.0772 F3.15
G01 X2.0438 Y0.0763 F3.15
G01 X2.0427 Y0.0753 F3.15
G01 X2.0417 Y0.0742 F3.15
G01 X2.0407 Y0.0731 F3.15
G01 X2.0398 Y0.0719 F3.15
G01 X2.0389 Y0.0707 F3.15
G01 X2.0382 Y0.0694 F3.15
G01 X2.0374 Y0.0681 F3.15
G01 X2.0368 Y0.0668 F3.15
G01 X2.0362 Y0.0655 F3.15
G01 X2.0356 Y0.0641 F3.15
G01 X2.0352 Y0.0627 F3.15
G01 X2.0348 Y0.0613 F3.15
G01 X2.0344 Y0.0598 F3.15
G01 X2.0342 Y0.0584 F3.15
G01 X2.0340 Y0.0569 F3.15
G01 X2.0339 Y0.0554 F3.15
G01 X2.0339 Y0.0539 F3.15
G01 X2.0339 Y0.0525 F3.15
G01 X2.0340 Y0.0510 F3.15
G01 X2.0342 Y0.0495 F3.15
G01 X2.0344 Y0.0481 F3.15
G01 X2.0348 Y0.0466 F3.15
G01 X2.0352 Y0.0452 F3.15
G01 X2.0356 Y0.0438 F3.15
G01 X2.0362 Y0.0424 F3.15
G01 X2.0368 Y0.0410 F3.15
G01 X2.0374 Y0.0397 F3.15
G01 X2.0382 Y0.0384 F3.15
G01 X2.0389 Y0.0372 F3.15
G01 X2.0398 Y0.0360 F3.15
G01 X2.0407 Y0.0348 F3.15
G01 X2.0417 Y0.0337 F3.15
G01 X2.0427 Y0.0326 F3.15
G01 X2.0438 Y0.0316 F3.15
G01 X2.0449 Y0.0306 F3.15
G01 X2.0461 Y0.0297 F3.15
G01 X2.0473 Y0.0289 F3.15
G01 X2.0485 Y0.0281 F3.15
G01 X2.0498 Y0.0273 F3.15
G01 X2.0511 Y0.0267 F3.15
G01 X2.0525 Y0.0261 F3.15
G01 X2.0539 Y0.0255 F3.15
G01 X2.0553 Y0.0251 F3.15
G01 X2.0567 Y0.0247 F3.15
G01 X2.0581 Y0.0244 F3.15
G01 X2.0596 Y0.0241 F3.15
G01 X2.0611 Y0.0239 F3.15
G01 X2.0625 Y0.0238 F3.15
G01 X2.0640 Y0.0238 F3.15
G01 X2.0655 Y0.0238 F3.15
G01 X2.0670 Y0.0239 F3.15
G01 X2.0684 Y0.0241 F3.15
G01 X2.0699 Y0.0244 F3.15
G01 X2.0713 Y0.0247 F3.15
G01 X2.0728 Y0.0251 F3.15
G01 X2.0742 Y0.0255 F3.15
G01 X2.0756 Y0.0261 F3.15
G01 X2.0769 Y0.0267 F3.15
G01 X2.0782 Y0.0273 F3.15
G01 X2.0795 Y0.0281 F3.15
G01 X2.0808 Y0.0289 F3.15
G01 X2.0820 Y0.0297 F3.15
G01 X2.0831 Y0.0306 F3.15
G01 X2.0843 Y0.0316 F3.15
G01 X2.0853 Y0.0326 F3.15
G01 X2.0864 Y0.0337 F3.15
G01 X2.0873 Y0.0348 F3.15
G01 X2.0882 Y0.0360 F3.15
G01 X2.0891 Y0.0372 F3.15
G01 X2.0899 Y0.0384 F3.15
G01 X2.0906 Y0.0397 F3.15
G01 X2.0913 Y0.0410 F3.15
G01 X2.0919 Y0.0424 F3.15
G01 X2.0924 Y0.0438 F3.15
G01 X2.0929 Y0.0452 F3.15
G01 X2.0933 Y0.0466 F3.15
G01 X2.0936 Y0.0481 F3.15
G01 X2.0938 Y0.0495 F3.15
G01 X2.0940 Y0.0510 F3.15
G01 X2.0941 Y0.0525 F3.15
G01 X2.0942 Y0.0539 F3.15
G00 Z0.0787
G00 X2.1942 Y0.0539
G01 F3.15
G01 Z-0.0945
G01 F3.15
G01 X2.1941 Y0.0554 F3.15
G01 X2.1940 Y0.0569 F3.15
G01 X2.1938 Y0.0584 F3.15
G01 X2.1936 Y0.0598 F3.15
G01 X2.1933 Y0.0613 F3.15
G01 X2.1929 Y0.0627 F3.15
G01 X2.1924 Y0.0641 F3.15
G01 X2.1919 Y0.0655 F3.15
G01 X2.1913 Y0.0668 F3.15
G01 X2.1906 Y0.0681 F3.15
G01 X2.1899 Y0.0694 F3.15
G01 X2.1891 Y0.0707 F3.15
G01 X2.1882 Y0.0719 F3.15
G01 X2.1873 Y0.0731 F3.15
G01 X2.1864 Y0.0742 F3.15
G01 X2.1853 Y0.0753 F3.15
G01 X2.1843 Y0.0763 F3.15
G01 X2.1831 Y0.0772 F3.15
G01 X2.1820 Y0.0782 F3.15
G01 X2.1808 Y0.0790 F3.15
G01 X2.1795 Y0.0798 F3.15
G01 X2.1782 Y0.0805 F3.15
G01 X2.1769 Y0.0812 F3.15
G01 X2.1756 Y0.0818 F3.15
G01 X2.1742 Y0.0823 F3.15
G01 X2.1728 Y0.0828 F3.15
G01 X2.1713 Y0.0832 F3.15
G01 X2.1699 Y0.0835 F3.15
G01 X2.1684 Y0.0838 F3.15
G01 X2.1670 Y0.0839 F3.15
G01 X2.1655 Y0.0841 F3.15
G01 X2.1640 Y0.0841 F3.15
G01 X2.1625 Y0.0841 F3.15
G01 X2.1611 Y0.0839 F3.15
G01 X2.1596 Y0.0838 F3.15
G01 X2.1581 Y0.0835 F3.15
G01 X2.1567 Y0.0832 F3.15
G01 X2.1553 Y0.0828 F3.15
G01 X2.1539 Y0.0823 F3.15
G01 X2.1525 Y0.0818 F3.15
G01 X2.1511 Y0.0812 F3.15
G01 X2.1498 Y0.0805 F3.15
G01 X2.1485 Y0.0798 F3.15
G01 X2.1473 Y0.0790 F3.15
G01 X2.1461 Y0.0782 F3.15
G01 X2.1449 Y0.0772 F3.15
G01 X2.1438 Y0.0763 F3.15
G01 X2.1427 Y0.0753 F3.15
G01 X2.1417 Y0.0742 F3.15
G01 X2.1407 Y0.0731 F3.15
G01 X2.1398 Y0.0719 F3.15
G01 X2.1389 Y0.0707 F3.15
G01 X2.1382 Y0.0694 F3.15
G01 X2.1374 Y0.0681 F3.15
G01 X2.1368 Y0.0668 F3.15
G01 X2.1362 Y0.0655 F3.15
G01 X2.1356 Y0.0641 F3.15
G01 X2.1352 Y0.0627 F3.15
G01 X2.1348 Y0.0613 F3.15
G01 X2.1344 Y0.0598 F3.15
G01 X2.1342 Y0.0584 F3.15
G01 X2.1340 Y0.0569 F3.15
G01 X2.1339 Y0.0554 F3.15
G01 X2.1339 Y0.0539 F3.15
G01 X2.1339 Y0.0525 F3.15
G01 X2.1340 Y0.0510 F3.15
G01 X2.1342 Y0.0495 F3.15
G01 X2.1344 Y0.0481 F3.15
G01 X2.1348 Y0.0466 F3.15
G01 X2.1352 Y0.0452 F3.15
G01 X2.1356 Y0.0438 F3.15
G01 X2.1362 Y0.0424 F3.15
G01 X2.1368 Y0.0410 F3.15
G01 X2.1374 Y0.0397 F3.15
G01 X2.1382 Y0.0384 F3.15
G01 X2.1389 Y0.0372 F3.15
G01 X2.1398 Y0.0360 F3.15
G01 X2.1407 Y0.0348 F3.15
G01 X2.1417 Y0.0337 F3.15
G01 X2.1427 Y0.0326 F3.15
G01 X2.1438 Y0.0316 F3.15
G01 X2.1449 Y0.0306 F3.15
G01 X2.1461 Y0.0297 F3.15
G01 X2.1473 Y0.0289 F3.15
G01 X2.1485 Y0.0281 F3.15
G01 X2.1498 Y0.0273 F3.15
G01 X2.1511 Y0.0267 F3.15
G01 X2.1525 Y0.0261 F3.15
G01 X2.1539 Y0.0255 F3.15
G01 X2.1553 Y0.0251 F3.15
G01 X2.1567 Y0.0247 F3.15
G01 X2.1581 Y0.0244 F3.15
G01 X2.1596 Y0.0241 F3.15
G01 X2.1611 Y0.0239 F3.15
G01 X2.1625 Y0.0238 F3.15
G01 X2.1640 Y0.0238 F3.15
G01 X2.1655 Y0.0238 F3.15
G01 X2.1670 Y0.0239 F3.15
G01 X2.1684 Y0.0241 F3.15
G01 X2.1699 Y0.0244 F3.15
G01 X2.1713 Y0.0247 F3.15
G01 X2.1728 Y0.0251 F3.15
G01 X2.1742 Y0.0255 F3.15
G01 X2.1756 Y0.0261 F3.15
G01 X2.1769 Y0.0267 F3.15
G01 X2.1782 Y0.0273 F3.15
G01 X2.1795 Y0.0281 F3.15
G01 X2.1808 Y0.0289 F3.15
G01 X2.1820 Y0.0297 F3.15
G01 X2.1831 Y0.0306 F3.15
G01 X2.1843 Y0.0316 F3.15
G01 X2.1853 Y0.0326 F3.15
G01 X2.1864 Y0.0337 F3.15
G01 X2.1873 Y0.0348 F3.15
G01 X2.1882 Y0.0360 F3.15
G01 X2.1891 Y0.0372 F3.15
G01 X2.1899 Y0.0384 F3.15
G01 X2.1906 Y0.0397 F3.15
G01 X2.1913 Y0.0410 F3.15
G01 X2.1919 Y0.0424 F3.15
G01 X2.1924 Y0.0438 F3.15
G01 X2.1929 Y0.0452 F3.15
G01 X2.1933 Y0.0466 F3.15
G01 X2.1936 Y0.0481 F3.15
G01 X2.1938 Y0.0495 F3.15
G01 X2.1940 Y0.0510 F3.15
G01 X2.1941 Y0.0525 F3.15
G01 X2.1942 Y0.0539 F3.15
G00 Z0.0787
G00 X2.2942 Y0.0539
G01 F3.15
G01 Z-0.0945
G01 F3.15
G01 X2.2941 Y0.0554 F3.15
G01 X2.2940 Y0.0569 F3.15
G01 X2.2938 Y0.0584 F3.15
G01 X2.2936 Y0.0598 F3.15
G01 X2.2933 Y0.0613 F3.15
G01 X2.2929 Y0.0627 F3.15
G01 X2.2924 Y0.0641 F3.15
G01 X2.2919 Y0.0655 F3.15
G01 X2.2913 Y0.0668 F3.15
G01 X2.2906 Y0.0681 F3.15
G01 X2.2899 Y0.0694 F3.15
G01 X2.2891 Y0.0707 F3.15
G01 X2.2882 Y0.0719 F3.15
G01 X2.2873 Y0.0731 F3.15
G01 X2.2864 Y0.0742 F3.15
G01 X2.2853 Y0.0753 F3.15
G01 X2.2843 Y0.0763 F3.15
G01 X2.2831 Y0.0772 F3.15
G01 X2.2820 Y0.0782 F3.15
G01 X2.2808 Y0.0790 F3.15
G01 X2.2795 Y0.0798 F3.15
G01 X2.2782 Y0.0805 F3.15
G01 X2.2769 Y0.0812 F3.15
G01 X2.2756 Y0.0818 F3.15
G01 X2.2742 Y0.0823 F3.15
G01 X2.2728 Y0.0828 F3.15
G01 X2.2713 Y0.0832 F3.15
G01 X2.2699 Y0.0835 F3.15
G01 X2.2684 Y0.0838 F3.15
G01 X2.2670 Y0.0839 F3.15
G01 X2.2655 Y0.0841 F3.15
G01 X2.2640 Y0.0841 F3.15
G01 X2.2625 Y0.0841 F3.15
G01 X2.2611 Y0.0839 F3.15
G01 X2.2596 Y0.0838 F3.15
G01 X2.2581 Y0.0835 F3.15
G01 X2.2567 Y0.0832 F3.15
G01 X2.2553 Y0.0828 F3.15
G01 X2.2539 Y0.0823 F3.15
G01 X2.2525 Y0.0818 F3.15
G01 X2.2511 Y0.0812 F3.15
G01 X2.2498 Y0.0805 F3.15
G01 X2.2485 Y0.0798 F3.15
G01 X2.2473 Y0.0790 F3.15
G01 X2.2461 Y0.0782 F3.15
G01 X2.2449 Y0.0772 F3.15
G01 X2.2438 Y0.0763 F3.15
G01 X2.2427 Y0.0753 F3.15
G01 X2.2417 Y0.0742 F3.15
G01 X2.2407 Y0.0731 F3.15
G01 X2.2398 Y0.0719 F3.15
G01 X2.2389 Y0.0707 F3.15
G01 X2.2382 Y0.0694 F3.15
G01 X2.2374 Y0.0681 F3.15
G01 X2.2368 Y0.0668 F3.15
G01 X2.2362 Y0.0655 F3.15
G01 X2.2356 Y0.0641 F3.15
G01 X2.2352 Y0.0627 F3.15
G01 X2.2348 Y0.0613 F3.15
G01 X2.2344 Y0.0598 F3.15
G01 X2.2342 Y0.0584 F3.15
G01 X2.2340 Y0.0569 F3.15
G01 X2.2339 Y0.0554 F3.15
G01 X2.2339 Y0.0539 F3.15
G01 X2.2339 Y0.0525 F3.15
G01 X2.2340 Y0.0510 F3.15
G01 X2.2342 Y0.0495 F3.15
G01 X2.2344 Y0.0481 F3.15
G01 X2.2348 Y0.0466 F3.15
G01 X2.2352 Y0.0452 F3.15
G01 X2.2356 Y0.0438 F3.15
G01 X2.2362 Y0.0424 F3.15
G01 X2.2368 Y0.0410 F3.15
G01 X2.2374 Y0.0397 F3.15
G01 X2.2382 Y0.0384 F3.15
G01 X2.2389 Y0.0372 F3.15
G01 X2.2398 Y0.0360 F3.15
G01 X2.2407 Y0.0348 F3.15
G01 X2.2417 Y0.0337 F3.15
G01 X2.2427 Y0.0326 F3.15
G01 X2.2438 Y0.0316 F3.15
G01 X2.2449 Y0.0306 F3.15
G01 X2.2461 Y0.0297 F3.15
G01 X2.2473 Y0.0289 F3.15
G01 X2.2485 Y0.0281 F3.15
G01 X2.2498 Y0.0273 F3.15
G01 X2.2511 Y0.0267 F3.15
G01 X2.2525 Y0.0261 F3.15
G01 X2.2539 Y0.0255 F3.15
G01 X2.2553 Y0.0251 F3.15
G01 X2.2567 Y0.0247 F3.15
G01 X2.2581 Y0.0244 F3.15
G01 X2.2596 Y0.0241 F3.15
G01 X2.2611 Y0.0239 F3.15
G01 X2.2625 Y0.0238 F3.15
G01 X2.2640 Y0.0238 F3.15
G01 X2.2655 Y0.0238 F3.15
G01 X2.2670 Y0.0239 F3.15
G01 X2.2684 Y0.0241 F3.15
G01 X2.2699 Y0.0244 F3.15
G01 X2.2713 Y0.0247 F3.15
G01 X2.2728 Y0.0251 F3.15
G01 X2.2742 Y0.0255 F3.15
G01 X2.2756 Y0.0261 F3.15
G01 X2.2769 Y0.0267 F3.15
G01 X2.2782 Y0.0273 F3.15
G01 X2.2795 Y0.0281 F3.15
G01 X2.2808 Y0.0289 F3.15
G01 X2.2820 Y0.0297 F3.15
G01 X2.2831 Y0.0306 F3.15
G01 X2.2843 Y0.0316 F3.15
G01 X2.2853 Y0.0326 F3.15
G01 X2.2864 Y0.0337 F3.15
G01 X2.2873 Y0.0348 F3.15
G01 X2.2882 Y0.0360 F3.15
G01 X2.2891 Y0.0372 F3.15
G01 X2.2899 Y0.0384 F3.15
G01 X2.2906 Y0.0397 F3.15
G01 X2.2913 Y0.0410 F3.15
G01 X2.2919 Y0.0424 F3.15
G01 X2.2924 Y0.0438 F3.15
G01 X2.2929 Y0.0452 F3.15
G01 X2.2933 Y0.0466 F3.15
G01 X2.2936 Y0.0481 F3.15
G01 X2.2938 Y0.0495 F3.15
G01 X2.2940 Y0.0510 F3.15
G01 X2.2941 Y0.0525 F3.15
G01 X2.2942 Y0.0539 F3.15
G00 Z0.0787
G00 X2.3942 Y0.0539
G01 F3.15
G01 Z-0.0945
G01 F3.15
G01 X2.3941 Y0.0554 F3.15
G01 X2.3940 Y0.0569 F3.15
G01 X2.3938 Y0.0584 F3.15
G01 X2.3936 Y0.0598 F3.15
G01 X2.3933 Y0.0613 F3.15
G01 X2.3929 Y0.0627 F3.15
G01 X2.3924 Y0.0641 F3.15
G01 X2.3919 Y0.0655 F3.15
G01 X2.3913 Y0.0668 F3.15
G01 X2.3906 Y0.0681 F3.15
G01 X2.3899 Y0.0694 F3.15
G01 X2.3891 Y0.0707 F3.15
G01 X2.3882 Y0.0719 F3.15
G01 X2.3873 Y0.0731 F3.15
G01 X2.3864 Y0.0742 F3.15
G01 X2.3853 Y0.0753 F3.15
G01 X2.3843 Y0.0763 F3.15
G01 X2.3831 Y0.0772 F3.15
G01 X2.3820 Y0.0782 F3.15
G01 X2.3808 Y0.0790 F3.15
G01 X2.3795 Y0.0798 F3.15
G01 X2.3782 Y0.0805 F3.15
G01 X2.3769 Y0.0812 F3.15
G01 X2.3756 Y0.0818 F3.15
G01 X2.3742 Y0.0823 F3.15
G01 X2.3728 Y0.0828 F3.15
G01 X2.3713 Y0.0832 F3.15
G01 X2.3699 Y0.0835 F3.15
G01 X2.3684 Y0.0838 F3.15
G01 X2.3670 Y0.0839 F3.15
G01 X2.3655 Y0.0841 F3.15
G01 X2.3640 Y0.0841 F3.15
G01 X2.3625 Y0.0841 F3.15
G01 X2.3611 Y0.0839 F3.15
G01 X2.3596 Y0.0838 F3.15
G01 X2.3581 Y0.0835 F3.15
G01 X2.3567 Y0.0832 F3.15
G01 X2.3553 Y0.0828 F3.15
G01 X2.3539 Y0.0823 F3.15
G01 X2.3525 Y0.0818 F3.15
G01 X2.3511 Y0.0812 F3.15
G01 X2.3498 Y0.0805 F3.15
G01 X2.3485 Y0.0798 F3.15
G01 X2.3473 Y0.0790 F3.15
G01 X2.3461 Y0.0782 F3.15
G01 X2.3449 Y0.0772 F3.15
G01 X2.3438 Y0.0763 F3.15
G01 X2.3427 Y0.0753 F3.15
G01 X2.3417 Y0.0742 F3.15
G01 X2.3407 Y0.0731 F3.15
G01 X2.3398 Y0.0719 F3.15
G01 X2.3389 Y0.0707 F3.15
G01 X2.3382 Y0.0694 F3.15
G01 X2.3374 Y0.0681 F3.15
G01 X2.3368 Y0.0668 F3.15
G01 X2.3362 Y0.0655 F3.15
G01 X2.3356 Y0.0641 F3.15
G01 X2.3352 Y0.0627 F3.15
G01 X2.3348 Y0.0613 F3.15
G01 X2.3344 Y0.0598 F3.15
G01 X2.3342 Y0.0584 F3.15
G01 X2.3340 Y0.0569 F3.15
G01 X2.3339 Y0.0554 F3.15
G01 X2.3339 Y0.0539 F3.15
G01 X2.3339 Y0.0525 F3.15
G01 X2.3340 Y0.0510 F3.15
G01 X2.3342 Y0.0495 F3.15
G01 X2.3344 Y0.0481 F3.15
G01 X2.3348 Y0.0466 F3.15
G01 X2.3352 Y0.0452 F3.15
G01 X2.3356 Y0.0438 F3.15
G01 X2.3362 Y0.0424 F3.15
G01 X2.3368 Y0.0410 F3.15
G01 X2.3374 Y0.0397 F3.15
G01 X2.3382 Y0.0384 F3.15
G01 X2.3389 Y0.0372 F3.15
G01 X2.3398 Y0.0360 F3.15
G01 X2.3407 Y0.0348 F3.15
G01 X2.3417 Y0.0337 F3.15
G01 X2.3427 Y0.0326 F3.15
G01 X2.3438 Y0.0316 F3.15
G01 X2.3449 Y0.0306 F3.15
G01 X2.3461 Y0.0297 F3.15
G01 X2.3473 Y0.0289 F3.15
G01 X2.3485 Y0.0281 F3.15
G01 X2.3498 Y0.0273 F3.15
G01 X2.3511 Y0.0267 F3.15
G01 X2.3525 Y0.0261 F3.15
G01 X2.3539 Y0.0255 F3.15
G01 X2.3553 Y0.0251 F3.15
G01 X2.3567 Y0.0247 F3.15
G01 X2.3581 Y0.0244 F3.15
G01 X2.3596 Y0.0241 F3.15
G01 X2.3611 Y0.0239 F3.15
G01 X2.3625 Y0.0238 F3.15
G01 X2.3640 Y0.0238 F3.15
G01 X2.3655 Y0.0238 F3.15
G01 X2.3670 Y0.0239 F3.15
G01 X2.3684 Y0.0241 F3.15
G01 X2.3699 Y0.0244 F3.15
G01 X2.3713 Y0.0247 F3.15
G01 X2.3728 Y0.0251 F3.15
G01 X2.3742 Y0.0255 F3.15
G01 X2.3756 Y0.0261 F3.15
G01 X2.3769 Y0.0267 F3.15
G01 X2.3782 Y0.0273 F3.15
G01 X2.3795 Y0.0281 F3.15
G01 X2.3808 Y0.0289 F3.15
G01 X2.3820 Y0.0297 F3.15
G01 X2.3831 Y0.0306 F3.15
G01 X2.3843 Y0.0316 F3.15
G01 X2.3853 Y0.0326 F3.15
G01 X2.3864 Y0.0337 F3.15
G01 X2.3873 Y0.0348 F3.15
G01 X2.3882 Y0.0360 F3.15
G01 X2.3891 Y0.0372 F3.15
G01 X2.3899 Y0.0384 F3.15
G01 X2.3906 Y0.0397 F3.15
G01 X2.3913 Y0.0410 F3.15
G01 X2.3919 Y0.0424 F3.15
G01 X2.3924 Y0.0438 F3.15
G01 X2.3929 Y0.0452 F3.15
G01 X2.3933 Y0.0466 F3.15
G01 X2.3936 Y0.0481 F3.15
G01 X2.3938 Y0.0495 F3.15
G01 X2.3940 Y0.0510 F3.15
G01 X2.3941 Y0.0525 F3.15
G01 X2.3942 Y0.0539 F3.15
G00 Z0.0787
G00 X2.4942 Y0.0539
G01 F3.15
G01 Z-0.0945
G01 F3.15
G01 X2.4941 Y0.0554 F3.15
G01 X2.4940 Y0.0569 F3.15
G01 X2.4938 Y0.0584 F3.15
G01 X2.4936 Y0.0598 F3.15
G01 X2.4933 Y0.0613 F3.15
G01 X2.4929 Y0.0627 F3.15
G01 X2.4924 Y0.0641 F3.15
G01 X2.4919 Y0.0655 F3.15
G01 X2.4913 Y0.0668 F3.15
G01 X2.4906 Y0.0681 F3.15
G01 X2.4899 Y0.0694 F3.15
G01 X2.4891 Y0.0707 F3.15
G01 X2.4882 Y0.0719 F3.15
G01 X2.4873 Y0.0731 F3.15
G01 X2.4864 Y0.0742 F3.15
G01 X2.4853 Y0.0753 F3.15
G01 X2.4843 Y0.0763 F3.15
G01 X2.4831 Y0.0772 F3.15
G01 X2.4820 Y0.0782 F3.15
G01 X2.4808 Y0.0790 F3.15
G01 X2.4795 Y0.0798 F3.15
G01 X2.4782 Y0.0805 F3.15
G01 X2.4769 Y0.0812 F3.15
G01 X2.4756 Y0.0818 F3.15
G01 X2.4742 Y0.0823 F3.15
G01 X2.4728 Y0.0828 F3.15
G01 X2.4713 Y0.0832 F3.15
G01 X2.4699 Y0.0835 F3.15
G01 X2.4684 Y0.0838 F3.15
G01 X2.4670 Y0.0839 F3.15
G01 X2.4655 Y0.0841 F3.15
G01 X2.4640 Y0.0841 F3.15
G01 X2.4625 Y0.0841 F3.15
G01 X2.4611 Y0.0839 F3.15
G01 X2.4596 Y0.0838 F3.15
G01 X2.4581 Y0.0835 F3.15
G01 X2.4567 Y0.0832 F3.15
G01 X2.4553 Y0.0828 F3.15
G01 X2.4539 Y0.0823 F3.15
G01 X2.4525 Y0.0818 F3.15
G01 X2.4511 Y0.0812 F3.15
G01 X2.4498 Y0.0805 F3.15
G01 X2.4485 Y0.0798 F3.15
G01 X2.4473 Y0.0790 F3.15
G01 X2.4461 Y0.0782 F3.15
G01 X2.4449 Y0.0772 F3.15
G01 X2.4438 Y0.0763 F3.15
G01 X2.4427 Y0.0753 F3.15
G01 X2.4417 Y0.0742 F3.15
G01 X2.4407 Y0.0731 F3.15
G01 X2.4398 Y0.0719 F3.15
G01 X2.4389 Y0.0707 F3.15
G01 X2.4382 Y0.0694 F3.15
G01 X2.4374 Y0.0681 F3.15
G01 X2.4368 Y0.0668 F3.15
G01 X2.4362 Y0.0655 F3.15
G01 X2.4356 Y0.0641 F3.15
G01 X2.4352 Y0.0627 F3.15
G01 X2.4348 Y0.0613 F3.15
G01 X2.4344 Y0.0598 F3.15
G01 X2.4342 Y0.0584 F3.15
G01 X2.4340 Y0.0569 F3.15
G01 X2.4339 Y0.0554 F3.15
G01 X2.4339 Y0.0539 F3.15
G01 X2.4339 Y0.0525 F3.15
G01 X2.4340 Y0.0510 F3.15
G01 X2.4342 Y0.0495 F3.15
G01 X2.4344 Y0.0481 F3.15
G01 X2.4348 Y0.0466 F3.15
G01 X2.4352 Y0.0452 F3.15
G01 X2.4356 Y0.0438 F3.15
G01 X2.4362 Y0.0424 F3.15
G01 X2.4368 Y0.0410 F3.15
G01 X2.4374 Y0.0397 F3.15
G01 X2.4382 Y0.0384 F3.15
G01 X2.4389 Y0.0372 F3.15
G01 X2.4398 Y0.0360 F3.15
G01 X2.4407 Y0.0348 F3.15
G01 X2.4417 Y0.0337 F3.15
G01 X2.4427 Y0.0326 F3.15
G01 X2.4438 Y0.0316 F3.15
G01 X2.4449 Y0.0306 F3.15
G01 X2.4461 Y0.0297 F3.15
G01 X2.4473 Y0.0289 F3.15
G01 X2.4485 Y0.0281 F3.15
G01 X2.4498 Y0.0273 F3.15
G01 X2.4511 Y0.0267 F3.15
G01 X2.4525 Y0.0261 F3.15
G01 X2.4539 Y0.0255 F3.15
G01 X2.4553 Y0.0251 F3.15
G01 X2.4567 Y0.0247 F3.15
G01 X2.4581 Y0.0244 F3.15
G01 X2.4596 Y0.0241 F3.15
G01 X2.4611 Y0.0239 F3.15
G01 X2.4625 Y0.0238 F3.15
G01 X2.4640 Y0.0238 F3.15
G01 X2.4655 Y0.0238 F3.15
G01 X2.4670 Y0.0239 F3.15
G01 X2.4684 Y0.0241 F3.15
G01 X2.4699 Y0.0244 F3.15
G01 X2.4713 Y0.0247 F3.15
G01 X2.4728 Y0.0251 F3.15
G01 X2.4742 Y0.0255 F3.15
G01 X2.4756 Y0.0261 F3.15
G01 X2.4769 Y0.0267 F3.15
G01 X2.4782 Y0.0273 F3.15
G01 X2.4795 Y0.0281 F3.15
G01 X2.4808 Y0.0289 F3.15
G01 X2.4820 Y0.0297 F3.15
G01 X2.4831 Y0.0306 F3.15
G01 X2.4843 Y0.0316 F3.15
G01 X2.4853 Y0.0326 F3.15
G01 X2.4864 Y0.0337 F3.15
G01 X2.4873 Y0.0348 F3.15
G01 X2.4882 Y0.0360 F3.15
G01 X2.4891 Y0.0372 F3.15
G01 X2.4899 Y0.0384 F3.15
G01 X2.4906 Y0.0397 F3.15
G01 X2.4913 Y0.0410 F3.15
G01 X2.4919 Y0.0424 F3.15
G01 X2.4924 Y0.0438 F3.15
G01 X2.4929 Y0.0452 F3.15
G01 X2.4933 Y0.0466 F3.15
G01 X2.4936 Y0.0481 F3.15
G01 X2.4938 Y0.0495 F3.15
G01 X2.4940 Y0.0510 F3.15
G01 X2.4941 Y0.0525 F3.15
G01 X2.4942 Y0.0539 F3.15
G00 Z0.0787
G00 X2.5942 Y0.0539
G01 F3.15
G01 Z-0.0945
G01 F3.15
G01 X2.5941 Y0.0554 F3.15
G01 X2.5940 Y0.0569 F3.15
G01 X2.5938 Y0.0584 F3.15
G01 X2.5936 Y0.0598 F3.15
G01 X2.5933 Y0.0613 F3.15
G01 X2.5929 Y0.0627 F3.15
G01 X2.5924 Y0.0641 F3.15
G01 X2.5919 Y0.0655 F3.15
G01 X2.5913 Y0.0668 F3.15
G01 X2.5906 Y0.0681 F3.15
G01 X2.5899 Y0.0694 F3.15
G01 X2.5891 Y0.0707 F3.15
G01 X2.5882 Y0.0719 F3.15
G01 X2.5873 Y0.0731 F3.15
G01 X2.5864 Y0.0742 F3.15
G01 X2.5853 Y0.0753 F3.15
G01 X2.5843 Y0.0763 F3.15
G01 X2.5831 Y0.0772 F3.15
G01 X2.5820 Y0.0782 F3.15
G01 X2.5808 Y0.0790 F3.15
G01 X2.5795 Y0.0798 F3.15
G01 X2.5782 Y0.0805 F3.15
G01 X2.5769 Y0.0812 F3.15
G01 X2.5756 Y0.0818 F3.15
G01 X2.5742 Y0.0823 F3.15
G01 X2.5728 Y0.0828 F3.15
G01 X2.5713 Y0.0832 F3.15
G01 X2.5699 Y0.0835 F3.15
G01 X2.5684 Y0.0838 F3.15
G01 X2.5670 Y0.0839 F3.15
G01 X2.5655 Y0.0841 F3.15
G01 X2.5640 Y0.0841 F3.15
G01 X2.5625 Y0.0841 F3.15
G01 X2.5611 Y0.0839 F3.15
G01 X2.5596 Y0.0838 F3.15
G01 X2.5581 Y0.0835 F3.15
G01 X2.5567 Y0.0832 F3.15
G01 X2.5553 Y0.0828 F3.15
G01 X2.5539 Y0.0823 F3.15
G01 X2.5525 Y0.0818 F3.15
G01 X2.5511 Y0.0812 F3.15
G01 X2.5498 Y0.0805 F3.15
G01 X2.5485 Y0.0798 F3.15
G01 X2.5473 Y0.0790 F3.15
G01 X2.5461 Y0.0782 F3.15
G01 X2.5449 Y0.0772 F3.15
G01 X2.5438 Y0.0763 F3.15
G01 X2.5427 Y0.0753 F3.15
G01 X2.5417 Y0.0742 F3.15
G01 X2.5407 Y0.0731 F3.15
G01 X2.5398 Y0.0719 F3.15
G01 X2.5389 Y0.0707 F3.15
G01 X2.5382 Y0.0694 F3.15
G01 X2.5374 Y0.0681 F3.15
G01 X2.5368 Y0.0668 F3.15
G01 X2.5362 Y0.0655 F3.15
G01 X2.5356 Y0.0641 F3.15
G01 X2.5352 Y0.0627 F3.15
G01 X2.5348 Y0.0613 F3.15
G01 X2.5344 Y0.0598 F3.15
G01 X2.5342 Y0.0584 F3.15
G01 X2.5340 Y0.0569 F3.15
G01 X2.5339 Y0.0554 F3.15
G01 X2.5339 Y0.0539 F3.15
G01 X2.5339 Y0.0525 F3.15
G01 X2.5340 Y0.0510 F3.15
G01 X2.5342 Y0.0495 F3.15
G01 X2.5344 Y0.0481 F3.15
G01 X2.5348 Y0.0466 F3.15
G01 X2.5352 Y0.0452 F3.15
G01 X2.5356 Y0.0438 F3.15
G01 X2.5362 Y0.0424 F3.15
G01 X2.5368 Y0.0410 F3.15
G01 X2.5374 Y0.0397 F3.15
G01 X2.5382 Y0.0384 F3.15
G01 X2.5389 Y0.0372 F3.15
G01 X2.5398 Y0.0360 F3.15
G01 X2.5407 Y0.0348 F3.15
G01 X2.5417 Y0.0337 F3.15
G01 X2.5427 Y0.0326 F3.15
G01 X2.5438 Y0.0316 F3.15
G01 X2.5449 Y0.0306 F3.15
G01 X2.5461 Y0.0297 F3.15
G01 X2.5473 Y0.0289 F3.15
G01 X2.5485 Y0.0281 F3.15
G01 X2.5498 Y0.0273 F3.15
G01 X2.5511 Y0.0267 F3.15
G01 X2.5525 Y0.0261 F3.15
G01 X2.5539 Y0.0255 F3.15
G01 X2.5553 Y0.0251 F3.15
G01 X2.5567 Y0.0247 F3.15
G01 X2.5581 Y0.0244 F3.15
G01 X2.5596 Y0.0241 F3.15
G01 X2.5611 Y0.0239 F3.15
G01 X2.5625 Y0.0238 F3.15
G01 X2.5640 Y0.0238 F3.15
G01 X2.5655 Y0.0238 F3.15
G01 X2.5670 Y0.0239 F3.15
G01 X2.5684 Y0.0241 F3.15
G01 X2.5699 Y0.0244 F3.15
G01 X2.5713 Y0.0247 F3.15
G01 X2.5728 Y0.0251 F3.15
G01 X2.5742 Y0.0255 F3.15
G01 X2.5756 Y0.0261 F3.15
G01 X2.5769 Y0.0267 F3.15
G01 X2.5782 Y0.0273 F3.15
G01 X2.5795 Y0.0281 F3.15
G01 X2.5808 Y0.0289 F3.15
G01 X2.5820 Y0.0297 F3.15
G01 X2.5831 Y0.0306 F3.15
G01 X2.5843 Y0.0316 F3.15
G01 X2.5853 Y0.0326 F3.15
G01 X2.5864 Y0.0337 F3.15
G01 X2.5873 Y0.0348 F3.15
G01 X2.5882 Y0.0360 F3.15
G01 X2.5891 Y0.0372 F3.15
G01 X2.5899 Y0.0384 F3.15
G01 X2.5906 Y0.0397 F3.15
G01 X2.5913 Y0.0410 F3.15
G01 X2.5919 Y0.0424 F3.15
G01 X2.5924 Y0.0438 F3.15
G01 X2.5929 Y0.0452 F3.15
G01 X2.5933 Y0.0466 F3.15
G01 X2.5936 Y0.0481 F3.15
G01 X2.5938 Y0.0495 F3.15
G01 X2.5940 Y0.0510 F3.15
G01 X2.5941 Y0.0525 F3.15
G01 X2.5942 Y0.0539 F3.15
G00 Z0.0787
G00 X2.6942 Y0.0539
G01 F3.15
G01 Z-0.0945
G01 F3.15
G01 X2.6941 Y0.0554 F3.15
G01 X2.6940 Y0.0569 F3.15
G01 X2.6938 Y0.0584 F3.15
G01 X2.6936 Y0.0598 F3.15
G01 X2.6933 Y0.0613 F3.15
G01 X2.6929 Y0.0627 F3.15
G01 X2.6924 Y0.0641 F3.15
G01 X2.6919 Y0.0655 F3.15
G01 X2.6913 Y0.0668 F3.15
G01 X2.6906 Y0.0681 F3.15
G01 X2.6899 Y0.0694 F3.15
G01 X2.6891 Y0.0707 F3.15
G01 X2.6882 Y0.0719 F3.15
G01 X2.6873 Y0.0731 F3.15
G01 X2.6864 Y0.0742 F3.15
G01 X2.6853 Y0.0753 F3.15
G01 X2.6843 Y0.0763 F3.15
G01 X2.6831 Y0.0772 F3.15
G01 X2.6820 Y0.0782 F3.15
G01 X2.6808 Y0.0790 F3.15
G01 X2.6795 Y0.0798 F3.15
G01 X2.6782 Y0.0805 F3.15
G01 X2.6769 Y0.0812 F3.15
G01 X2.6756 Y0.0818 F3.15
G01 X2.6742 Y0.0823 F3.15
G01 X2.6728 Y0.0828 F3.15
G01 X2.6713 Y0.0832 F3.15
G01 X2.6699 Y0.0835 F3.15
G01 X2.6684 Y0.0838 F3.15
G01 X2.6670 Y0.0839 F3.15
G01 X2.6655 Y0.0841 F3.15
G01 X2.6640 Y0.0841 F3.15
G01 X2.6625 Y0.0841 F3.15
G01 X2.6611 Y0.0839 F3.15
G01 X2.6596 Y0.0838 F3.15
G01 X2.6581 Y0.0835 F3.15
G01 X2.6567 Y0.0832 F3.15
G01 X2.6553 Y0.0828 F3.15
G01 X2.6539 Y0.0823 F3.15
G01 X2.6525 Y0.0818 F3.15
G01 X2.6511 Y0.0812 F3.15
G01 X2.6498 Y0.0805 F3.15
G01 X2.6485 Y0.0798 F3.15
G01 X2.6473 Y0.0790 F3.15
G01 X2.6461 Y0.0782 F3.15
G01 X2.6449 Y0.0772 F3.15
G01 X2.6438 Y0.0763 F3.15
G01 X2.6427 Y0.0753 F3.15
G01 X2.6417 Y0.0742 F3.15
G01 X2.6407 Y0.0731 F3.15
G01 X2.6398 Y0.0719 F3.15
G01 X2.6389 Y0.0707 F3.15
G01 X2.6382 Y0.0694 F3.15
G01 X2.6374 Y0.0681 F3.15
G01 X2.6368 Y0.0668 F3.15
G01 X2.6362 Y0.0655 F3.15
G01 X2.6356 Y0.0641 F3.15
G01 X2.6352 Y0.0627 F3.15
G01 X2.6348 Y0.0613 F3.15
G01 X2.6344 Y0.0598 F3.15
G01 X2.6342 Y0.0584 F3.15
G01 X2.6340 Y0.0569 F3.15
G01 X2.6339 Y0.0554 F3.15
G01 X2.6339 Y0.0539 F3.15
G01 X2.6339 Y0.0525 F3.15
G01 X2.6340 Y0.0510 F3.15
G01 X2.6342 Y0.0495 F3.15
G01 X2.6344 Y0.0481 F3.15
G01 X2.6348 Y0.0466 F3.15
G01 X2.6352 Y0.0452 F3.15
G01 X2.6356 Y0.0438 F3.15
G01 X2.6362 Y0.0424 F3.15
G01 X2.6368 Y0.0410 F3.15
G01 X2.6374 Y0.0397 F3.15
G01 X2.6382 Y0.0384 F3.15
G01 X2.6389 Y0.0372 F3.15
G01 X2.6398 Y0.0360 F3.15
G01 X2.6407 Y0.0348 F3.15
G01 X2.6417 Y0.0337 F3.15
G01 X2.6427 Y0.0326 F3.15
G01 X2.6438 Y0.0316 F3.15
G01 X2.6449 Y0.0306 F3.15
G01 X2.6461 Y0.0297 F3.15
G01 X2.6473 Y0.0289 F3.15
G01 X2.6485 Y0.0281 F3.15
G01 X2.6498 Y0.0273 F3.15
G01 X2.6511 Y0.0267 F3.15
G01 X2.6525 Y0.0261 F3.15
G01 X2.6539 Y0.0255 F3.15
G01 X2.6553 Y0.0251 F3.15
G01 X2.6567 Y0.0247 F3.15
G01 X2.6581 Y0.0244 F3.15
G01 X2.6596 Y0.0241 F3.15
G01 X2.6611 Y0.0239 F3.15
G01 X2.6625 Y0.0238 F3.15
G01 X2.6640 Y0.0238 F3.15
G01 X2.6655 Y0.0238 F3.15
G01 X2.6670 Y0.0239 F3.15
G01 X2.6684 Y0.0241 F3.15
G01 X2.6699 Y0.0244 F3.15
G01 X2.6713 Y0.0247 F3.15
G01 X2.6728 Y0.0251 F3.15
G01 X2.6742 Y0.0255 F3.15
G01 X2.6756 Y0.0261 F3.15
G01 X2.6769 Y0.0267 F3.15
G01 X2.6782 Y0.0273 F3.15
G01 X2.6795 Y0.0281 F3.15
G01 X2.6808 Y0.0289 F3.15
G01 X2.6820 Y0.0297 F3.15
G01 X2.6831 Y0.0306 F3.15
G01 X2.6843 Y0.0316 F3.15
G01 X2.6853 Y0.0326 F3.15
G01 X2.6864 Y0.0337 F3.15
G01 X2.6873 Y0.0348 F3.15
G01 X2.6882 Y0.0360 F3.15
G01 X2.6891 Y0.0372 F3.15
G01 X2.6899 Y0.0384 F3.15
G01 X2.6906 Y0.0397 F3.15
G01 X2.6913 Y0.0410 F3.15
G01 X2.6919 Y0.0424 F3.15
G01 X2.6924 Y0.0438 F3.15
G01 X2.6929 Y0.0452 F3.15
G01 X2.6933 Y0.0466 F3.15
G01 X2.6936 Y0.0481 F3.15
G01 X2.6938 Y0.0495 F3.15
G01 X2.6940 Y0.0510 F3.15
G01 X2.6941 Y0.0525 F3.15
G01 X2.6942 Y0.0539 F3.15
G00 Z0.0787
G00 X2.7942 Y0.0539
G01 F3.15
G01 Z-0.0945
G01 F3.15
G01 X2.7941 Y0.0554 F3.15
G01 X2.7940 Y0.0569 F3.15
G01 X2.7938 Y0.0584 F3.15
G01 X2.7936 Y0.0598 F3.15
G01 X2.7933 Y0.0613 F3.15
G01 X2.7929 Y0.0627 F3.15
G01 X2.7924 Y0.0641 F3.15
G01 X2.7919 Y0.0655 F3.15
G01 X2.7913 Y0.0668 F3.15
G01 X2.7906 Y0.0681 F3.15
G01 X2.7899 Y0.0694 F3.15
G01 X2.7891 Y0.0707 F3.15
G01 X2.7882 Y0.0719 F3.15
G01 X2.7873 Y0.0731 F3.15
G01 X2.7864 Y0.0742 F3.15
G01 X2.7853 Y0.0753 F3.15
G01 X2.7843 Y0.0763 F3.15
G01 X2.7831 Y0.0772 F3.15
G01 X2.7820 Y0.0782 F3.15
G01 X2.7808 Y0.0790 F3.15
G01 X2.7795 Y0.0798 F3.15
G01 X2.7782 Y0.0805 F3.15
G01 X2.7769 Y0.0812 F3.15
G01 X2.7756 Y0.0818 F3.15
G01 X2.7742 Y0.0823 F3.15
G01 X2.7728 Y0.0828 F3.15
G01 X2.7713 Y0.0832 F3.15
G01 X2.7699 Y0.0835 F3.15
G01 X2.7684 Y0.0838 F3.15
G01 X2.7670 Y0.0839 F3.15
G01 X2.7655 Y0.0841 F3.15
G01 X2.7640 Y0.0841 F3.15
G01 X2.7625 Y0.0841 F3.15
G01 X2.7611 Y0.0839 F3.15
G01 X2.7596 Y0.0838 F3.15
G01 X2.7581 Y0.0835 F3.15
G01 X2.7567 Y0.0832 F3.15
G01 X2.7553 Y0.0828 F3.15
G01 X2.7539 Y0.0823 F3.15
G01 X2.7525 Y0.0818 F3.15
G01 X2.7511 Y0.0812 F3.15
G01 X2.7498 Y0.0805 F3.15
G01 X2.7485 Y0.0798 F3.15
G01 X2.7473 Y0.0790 F3.15
G01 X2.7461 Y0.0782 F3.15
G01 X2.7449 Y0.0772 F3.15
G01 X2.7438 Y0.0763 F3.15
G01 X2.7427 Y0.0753 F3.15
G01 X2.7417 Y0.0742 F3.15
G01 X2.7407 Y0.0731 F3.15
G01 X2.7398 Y0.0719 F3.15
G01 X2.7389 Y0.0707 F3.15
G01 X2.7382 Y0.0694 F3.15
G01 X2.7374 Y0.0681 F3.15
G01 X2.7368 Y0.0668 F3.15
G01 X2.7362 Y0.0655 F3.15
G01 X2.7356 Y0.0641 F3.15
G01 X2.7352 Y0.0627 F3.15
G01 X2.7348 Y0.0613 F3.15
G01 X2.7344 Y0.0598 F3.15
G01 X2.7342 Y0.0584 F3.15
G01 X2.7340 Y0.0569 F3.15
G01 X2.7339 Y0.0554 F3.15
G01 X2.7339 Y0.0539 F3.15
G01 X2.7339 Y0.0525 F3.15
G01 X2.7340 Y0.0510 F3.15
G01 X2.7342 Y0.0495 F3.15
G01 X2.7344 Y0.0481 F3.15
G01 X2.7348 Y0.0466 F3.15
G01 X2.7352 Y0.0452 F3.15
G01 X2.7356 Y0.0438 F3.15
G01 X2.7362 Y0.0424 F3.15
G01 X2.7368 Y0.0410 F3.15
G01 X2.7374 Y0.0397 F3.15
G01 X2.7382 Y0.0384 F3.15
G01 X2.7389 Y0.0372 F3.15
G01 X2.7398 Y0.0360 F3.15
G01 X2.7407 Y0.0348 F3.15
G01 X2.7417 Y0.0337 F3.15
G01 X2.7427 Y0.0326 F3.15
G01 X2.7438 Y0.0316 F3.15
G01 X2.7449 Y0.0306 F3.15
G01 X2.7461 Y0.0297 F3.15
G01 X2.7473 Y0.0289 F3.15
G01 X2.7485 Y0.0281 F3.15
G01 X2.7498 Y0.0273 F3.15
G01 X2.7511 Y0.0267 F3.15
G01 X2.7525 Y0.0261 F3.15
G01 X2.7539 Y0.0255 F3.15
G01 X2.7553 Y0.0251 F3.15
G01 X2.7567 Y0.0247 F3.15
G01 X2.7581 Y0.0244 F3.15
G01 X2.7596 Y0.0241 F3.15
G01 X2.7611 Y0.0239 F3.15
G01 X2.7625 Y0.0238 F3.15
G01 X2.7640 Y0.0238 F3.15
G01 X2.7655 Y0.0238 F3.15
G01 X2.7670 Y0.0239 F3.15
G01 X2.7684 Y0.0241 F3.15
G01 X2.7699 Y0.0244 F3.15
G01 X2.7713 Y0.0247 F3.15
G01 X2.7728 Y0.0251 F3.15
G01 X2.7742 Y0.0255 F3.15
G01 X2.7756 Y0.0261 F3.15
G01 X2.7769 Y0.0267 F3.15
G01 X2.7782 Y0.0273 F3.15
G01 X2.7795 Y0.0281 F3.15
G01 X2.7808 Y0.0289 F3.15
G01 X2.7820 Y0.0297 F3.15
G01 X2.7831 Y0.0306 F3.15
G01 X2.7843 Y0.0316 F3.15
G01 X2.7853 Y0.0326 F3.15
G01 X2.7864 Y0.0337 F3.15
G01 X2.7873 Y0.0348 F3.15
G01 X2.7882 Y0.0360 F3.15
G01 X2.7891 Y0.0372 F3.15
G01 X2.7899 Y0.0384 F3.15
G01 X2.7906 Y0.0397 F3.15
G01 X2.7913 Y0.0410 F3.15
G01 X2.7919 Y0.0424 F3.15
G01 X2.7924 Y0.0438 F3.15
G01 X2.7929 Y0.0452 F3.15
G01 X2.7933 Y0.0466 F3.15
G01 X2.7936 Y0.0481 F3.15
G01 X2.7938 Y0.0495 F3.15
G01 X2.7940 Y0.0510 F3.15
G01 X2.7941 Y0.0525 F3.15
G01 X2.7942 Y0.0539 F3.15
G00 Z0.0787
G00 X2.8942 Y0.0539
G01 F3.15
G01 Z-0.0945
G01 F3.15
G01 X2.8941 Y0.0554 F3.15
G01 X2.8940 Y0.0569 F3.15
G01 X2.8938 Y0.0584 F3.15
G01 X2.8936 Y0.0598 F3.15
G01 X2.8933 Y0.0613 F3.15
G01 X2.8929 Y0.0627 F3.15
G01 X2.8924 Y0.0641 F3.15
G01 X2.8919 Y0.0655 F3.15
G01 X2.8913 Y0.0668 F3.15
G01 X2.8906 Y0.0681 F3.15
G01 X2.8899 Y0.0694 F3.15
G01 X2.8891 Y0.0707 F3.15
G01 X2.8882 Y0.0719 F3.15
G01 X2.8873 Y0.0731 F3.15
G01 X2.8864 Y0.0742 F3.15
G01 X2.8853 Y0.0753 F3.15
G01 X2.8843 Y0.0763 F3.15
G01 X2.8831 Y0.0772 F3.15
G01 X2.8820 Y0.0782 F3.15
G01 X2.8808 Y0.0790 F3.15
G01 X2.8795 Y0.0798 F3.15
G01 X2.8782 Y0.0805 F3.15
G01 X2.8769 Y0.0812 F3.15
G01 X2.8756 Y0.0818 F3.15
G01 X2.8742 Y0.0823 F3.15
G01 X2.8728 Y0.0828 F3.15
G01 X2.8713 Y0.0832 F3.15
G01 X2.8699 Y0.0835 F3.15
G01 X2.8684 Y0.0838 F3.15
G01 X2.8670 Y0.0839 F3.15
G01 X2.8655 Y0.0841 F3.15
G01 X2.8640 Y0.0841 F3.15
G01 X2.8625 Y0.0841 F3.15
G01 X2.8611 Y0.0839 F3.15
G01 X2.8596 Y0.0838 F3.15
G01 X2.8581 Y0.0835 F3.15
G01 X2.8567 Y0.0832 F3.15
G01 X2.8553 Y0.0828 F3.15
G01 X2.8539 Y0.0823 F3.15
G01 X2.8525 Y0.0818 F3.15
G01 X2.8511 Y0.0812 F3.15
G01 X2.8498 Y0.0805 F3.15
G01 X2.8485 Y0.0798 F3.15
G01 X2.8473 Y0.0790 F3.15
G01 X2.8461 Y0.0782 F3.15
G01 X2.8449 Y0.0772 F3.15
G01 X2.8438 Y0.0763 F3.15
G01 X2.8427 Y0.0753 F3.15
G01 X2.8417 Y0.0742 F3.15
G01 X2.8407 Y0.0731 F3.15
G01 X2.8398 Y0.0719 F3.15
G01 X2.8389 Y0.0707 F3.15
G01 X2.8382 Y0.0694 F3.15
G01 X2.8374 Y0.0681 F3.15
G01 X2.8368 Y0.0668 F3.15
G01 X2.8362 Y0.0655 F3.15
G01 X2.8356 Y0.0641 F3.15
G01 X2.8352 Y0.0627 F3.15
G01 X2.8348 Y0.0613 F3.15
G01 X2.8344 Y0.0598 F3.15
G01 X2.8342 Y0.0584 F3.15
G01 X2.8340 Y0.0569 F3.15
G01 X2.8339 Y0.0554 F3.15
G01 X2.8339 Y0.0539 F3.15
G01 X2.8339 Y0.0525 F3.15
G01 X2.8340 Y0.0510 F3.15
G01 X2.8342 Y0.0495 F3.15
G01 X2.8344 Y0.0481 F3.15
G01 X2.8348 Y0.0466 F3.15
G01 X2.8352 Y0.0452 F3.15
G01 X2.8356 Y0.0438 F3.15
G01 X2.8362 Y0.0424 F3.15
G01 X2.8368 Y0.0410 F3.15
G01 X2.8374 Y0.0397 F3.15
G01 X2.8382 Y0.0384 F3.15
G01 X2.8389 Y0.0372 F3.15
G01 X2.8398 Y0.0360 F3.15
G01 X2.8407 Y0.0348 F3.15
G01 X2.8417 Y0.0337 F3.15
G01 X2.8427 Y0.0326 F3.15
G01 X2.8438 Y0.0316 F3.15
G01 X2.8449 Y0.0306 F3.15
G01 X2.8461 Y0.0297 F3.15
G01 X2.8473 Y0.0289 F3.15
G01 X2.8485 Y0.0281 F3.15
G01 X2.8498 Y0.0273 F3.15
G01 X2.8511 Y0.0267 F3.15
G01 X2.8525 Y0.0261 F3.15
G01 X2.8539 Y0.0255 F3.15
G01 X2.8553 Y0.0251 F3.15
G01 X2.8567 Y0.0247 F3.15
G01 X2.8581 Y0.0244 F3.15
G01 X2.8596 Y0.0241 F3.15
G01 X2.8611 Y0.0239 F3.15
G01 X2.8625 Y0.0238 F3.15
G01 X2.8640 Y0.0238 F3.15
G01 X2.8655 Y0.0238 F3.15
G01 X2.8670 Y0.0239 F3.15
G01 X2.8684 Y0.0241 F3.15
G01 X2.8699 Y0.0244 F3.15
G01 X2.8713 Y0.0247 F3.15
G01 X2.8728 Y0.0251 F3.15
G01 X2.8742 Y0.0255 F3.15
G01 X2.8756 Y0.0261 F3.15
G01 X2.8769 Y0.0267 F3.15
G01 X2.8782 Y0.0273 F3.15
G01 X2.8795 Y0.0281 F3.15
G01 X2.8808 Y0.0289 F3.15
G01 X2.8820 Y0.0297 F3.15
G01 X2.8831 Y0.0306 F3.15
G01 X2.8843 Y0.0316 F3.15
G01 X2.8853 Y0.0326 F3.15
G01 X2.8864 Y0.0337 F3.15
G01 X2.8873 Y0.0348 F3.15
G01 X2.8882 Y0.0360 F3.15
G01 X2.8891 Y0.0372 F3.15
G01 X2.8899 Y0.0384 F3.15
G01 X2.8906 Y0.0397 F3.15
G01 X2.8913 Y0.0410 F3.15
G01 X2.8919 Y0.0424 F3.15
G01 X2.8924 Y0.0438 F3.15
G01 X2.8929 Y0.0452 F3.15
G01 X2.8933 Y0.0466 F3.15
G01 X2.8936 Y0.0481 F3.15
G01 X2.8938 Y0.0495 F3.15
G01 X2.8940 Y0.0510 F3.15
G01 X2.8941 Y0.0525 F3.15
G01 X2.8942 Y0.0539 F3.15
G00 Z0.0787
G00 X2.9942 Y0.0539
G01 F3.15
G01 Z-0.0945
G01 F3.15
G01 X2.9941 Y0.0554 F3.15
G01 X2.9940 Y0.0569 F3.15
G01 X2.9938 Y0.0584 F3.15
G01 X2.9936 Y0.0598 F3.15
G01 X2.9933 Y0.0613 F3.15
G01 X2.9929 Y0.0627 F3.15
G01 X2.9924 Y0.0641 F3.15
G01 X2.9919 Y0.0655 F3.15
G01 X2.9913 Y0.0668 F3.15
G01 X2.9906 Y0.0681 F3.15
G01 X2.9899 Y0.0694 F3.15
G01 X2.9891 Y0.0707 F3.15
G01 X2.9882 Y0.0719 F3.15
G01 X2.9873 Y0.0731 F3.15
G01 X2.9864 Y0.0742 F3.15
G01 X2.9853 Y0.0753 F3.15
G01 X2.9843 Y0.0763 F3.15
G01 X2.9831 Y0.0772 F3.15
G01 X2.9820 Y0.0782 F3.15
