(G-CODE GENERATED BY FLATCAM v8.98 - www.flatcam.org - Version Date: 2019/10/16)

(Name: Drill)
(Type: G-code from Excellon)
(Units: IN)

(Created on Monday, 21 October 2019 at 22:27)

(Feedrate: 3.1496 in/min)
(Feedrate rapids 31.4961 in/min)

(Z_Cut: -0.0591 in)
(Z_Move: 0.0787 in)
(Z Toolchange: 0.5 in)
(X,Y Toolchange: 0.0000, 0.0000 in)
(Z Start: None in)
(Z End: 0.5 in)
(Steps per circle: 128)
(Postprocessor Excellon: grbl_11)
(X range:    0.1360 ...    5.0820  in)
(Y range:    0.0359 ...    0.9719  in)

(Spindle Speed: None RPM)


G20
G90
G94
G17

G01 F3.15
G00 Z0.0787

M03
G00 X1.9640 Y0.0589
G01 Z-0.0591
G01 Z0
G00 Z0.0787
G00 X1.5640 Y0.9539
G01 Z-0.0591
G01 Z0
G00 Z0.0787
G00 X0.5640 Y0.9539
G01 Z-0.0591
G01 Z0
G00 Z0.0787
G00 X0.2640 Y0.9539
G01 Z-0.0591
G01 Z0
G00 Z0.0787
G00 X0.1640 Y0.9539
G01 Z-0.0591
G01 Z0
G00 Z0.0787
G00 X0.3640 Y0.9539
G01 Z-0.0591
G01 Z0
G00 Z0.0787
G00 X0.4640 Y0.9539
G01 Z-0.0591
G01 Z0
G00 Z0.0787
G00 X0.6640 Y0.9539
G01 Z-0.0591
G01 Z0
G00 Z0.0787
G00 X0.7640 Y0.9539
G01 Z-0.0591
G01 Z0
G00 Z0.0787
G00 X0.8640 Y0.9539
G01 Z-0.0591
G01 Z0
G00 Z0.0787
G00 X0.9640 Y0.9539
G01 Z-0.0591
G01 Z0
G00 Z0.0787
G00 X1.0640 Y0.9539
G01 Z-0.0591
G01 Z0
G00 Z0.0787
G00 X1.1640 Y0.9539
G01 Z-0.0591
G01 Z0
G00 Z0.0787
G00 X1.2590 Y0.9539
G01 Z-0.0591
G01 Z0
G00 Z0.0787
G00 X1.3640 Y0.9539
G01 Z-0.0591
G01 Z0
G00 Z0.0787
G00 X1.4640 Y0.9539
G01 Z-0.0591
G01 Z0
G00 Z0.0787
G00 X1.6640 Y0.9539
G01 Z-0.0591
G01 Z0
G00 Z0.0787
G00 X1.7640 Y0.9539
G01 Z-0.0591
G01 Z0
G00 Z0.0787
G00 X1.8640 Y0.9539
G01 Z-0.0591
G01 Z0
G00 Z0.0787
G00 X1.9590 Y0.9539
G01 Z-0.0591
G01 Z0
G00 Z0.0787
G00 X2.0640 Y0.9539
G01 Z-0.0591
G01 Z0
G00 Z0.0787
G00 X2.1640 Y0.9539
G01 Z-0.0591
G01 Z0
G00 Z0.0787
G00 X2.2640 Y0.9539
G01 Z-0.0591
G01 Z0
G00 Z0.0787
G00 X2.3640 Y0.9539
G01 Z-0.0591
G01 Z0
G00 Z0.0787
G00 X2.4640 Y0.9539
G01 Z-0.0591
G01 Z0
G00 Z0.0787
G00 X2.5640 Y0.9539
G01 Z-0.0591
G01 Z0
G00 Z0.0787
G00 X3.5640 Y0.9539
G01 Z-0.0591
G01 Z0
G00 Z0.0787
G00 X4.4640 Y0.9539
G01 Z-0.0591
G01 Z0
G00 Z0.0787
G00 X5.0640 Y0.9539
G01 Z-0.0591
G01 Z0
G00 Z0.0787
G00 X4.9640 Y0.9539
G01 Z-0.0591
G01 Z0
G00 Z0.0787
G00 X4.8640 Y0.9539
G01 Z-0.0591
G01 Z0
G00 Z0.0787
G00 X4.7640 Y0.9539
G01 Z-0.0591
G01 Z0
G00 Z0.0787
G00 X4.6640 Y0.9539
G01 Z-0.0591
G01 Z0
G00 Z0.0787
G00 X4.5640 Y0.9539
G01 Z-0.0591
G01 Z0
G00 Z0.0787
G00 X4.3640 Y0.9539
G01 Z-0.0591
G01 Z0
G00 Z0.0787
G00 X4.2640 Y0.9539
G01 Z-0.0591
G01 Z0
G00 Z0.0787
G00 X4.1640 Y0.9539
G01 Z-0.0591
G01 Z0
G00 Z0.0787
G00 X4.0640 Y0.9539
G01 Z-0.0591
G01 Z0
G00 Z0.0787
G00 X3.9640 Y0.9539
G01 Z-0.0591
G01 Z0
G00 Z0.0787
G00 X3.8590 Y0.9539
G01 Z-0.0591
G01 Z0
G00 Z0.0787
G00 X3.7640 Y0.9539
G01 Z-0.0591
G01 Z0
G00 Z0.0787
G00 X3.6640 Y0.9539
G01 Z-0.0591
G01 Z0
G00 Z0.0787
G00 X3.4640 Y0.9539
G01 Z-0.0591
G01 Z0
G00 Z0.0787
G00 X3.3640 Y0.9539
G01 Z-0.0591
G01 Z0
G00 Z0.0787
G00 X3.2640 Y0.9539
G01 Z-0.0591
G01 Z0
G00 Z0.0787
G00 X3.1690 Y0.9539
G01 Z-0.0591
G01 Z0
G00 Z0.0787
G00 X3.0640 Y0.9539
G01 Z-0.0591
G01 Z0
G00 Z0.0787
G00 X2.9640 Y0.9539
G01 Z-0.0591
G01 Z0
G00 Z0.0787
G00 X2.8640 Y0.9539
G01 Z-0.0591
G01 Z0
G00 Z0.0787
G00 X2.7640 Y0.9539
G01 Z-0.0591
G01 Z0
G00 Z0.0787
G00 X2.6640 Y0.9539
G01 Z-0.0591
G01 Z0
G00 Z0.0787
G00 X2.5640 Y0.0539
G01 Z-0.0591
G01 Z0
G00 Z0.0787
G00 X3.5640 Y0.0539
G01 Z-0.0591
G01 Z0
G00 Z0.0787
G00 X3.4640 Y0.0539
G01 Z-0.0591
G01 Z0
G00 Z0.0787
G00 X3.3640 Y0.0539
G01 Z-0.0591
G01 Z0
G00 Z0.0787
G00 X3.2640 Y0.0539
G01 Z-0.0591
G01 Z0
G00 Z0.0787
G00 X2.6640 Y0.0539
G01 Z-0.0591
G01 Z0
G00 Z0.0787
G00 X2.7640 Y0.0539
G01 Z-0.0591
G01 Z0
G00 Z0.0787
G00 X2.8640 Y0.0539
G01 Z-0.0591
G01 Z0
G00 Z0.0787
G00 X2.9640 Y0.0539
G01 Z-0.0591
G01 Z0
G00 Z0.0787
G00 X3.1640 Y0.0539
G01 Z-0.0591
G01 Z0
G00 Z0.0787
G00 X4.0640 Y0.0539
G01 Z-0.0591
G01 Z0
G00 Z0.0787
G00 X3.9640 Y0.0539
G01 Z-0.0591
G01 Z0
G00 Z0.0787
G00 X3.8640 Y0.0539
G01 Z-0.0591
G01 Z0
G00 Z0.0787
G00 X3.7640 Y0.0539
G01 Z-0.0591
G01 Z0
G00 Z0.0787
G00 X4.1640 Y0.0539
G01 Z-0.0591
G01 Z0
G00 Z0.0787
G00 X4.2640 Y0.0539
G01 Z-0.0591
G01 Z0
G00 Z0.0787
G00 X4.3640 Y0.0539
G01 Z-0.0591
G01 Z0
G00 Z0.0787
G00 X4.4640 Y0.0539
G01 Z-0.0591
G01 Z0
G00 Z0.0787
G00 X4.5640 Y0.0539
G01 Z-0.0591
G01 Z0
G00 Z0.0787
G00 X4.7640 Y0.0539
G01 Z-0.0591
G01 Z0
G00 Z0.0787
G00 X4.8640 Y0.0539
G01 Z-0.0591
G01 Z0
G00 Z0.0787
G00 X4.9640 Y0.0539
G01 Z-0.0591
G01 Z0
G00 Z0.0787
G00 X5.0640 Y0.0539
G01 Z-0.0591
G01 Z0
G00 Z0.0787
G00 X4.6640 Y0.0539
G01 Z-0.0591
G01 Z0
G00 Z0.0787
G00 X3.6640 Y0.0539
G01 Z-0.0591
G01 Z0
G00 Z0.0787
G00 X3.0640 Y0.0539
G01 Z-0.0591
G01 Z0
G00 Z0.0787
G00 X2.0640 Y0.0539
G01 Z-0.0591
G01 Z0
G00 Z0.0787
G00 X2.1640 Y0.0539
G01 Z-0.0591
G01 Z0
G00 Z0.0787
G00 X2.2640 Y0.0539
G01 Z-0.0591
G01 Z0
G00 Z0.0787
G00 X2.3640 Y0.0539
G01 Z-0.0591
G01 Z0
G00 Z0.0787
G00 X2.4640 Y0.0539
G01 Z-0.0591
G01 Z0
G00 Z0.0787
G00 X1.6640 Y0.0589
G01 Z-0.0591
G01 Z0
G00 Z0.0787
G00 X1.0640 Y0.0589
G01 Z-0.0591
G01 Z0
G00 Z0.0787
G00 X0.9590 Y0.0589
G01 Z-0.0591
G01 Z0
G00 Z0.0787
G00 X0.8590 Y0.0589
G01 Z-0.0591
G01 Z0
G00 Z0.0787
G00 X0.7590 Y0.0589
G01 Z-0.0591
G01 Z0
G00 Z0.0787
G00 X0.6590 Y0.0589
G01 Z-0.0591
G01 Z0
G00 Z0.0787
G00 X0.1540 Y0.0589
G01 Z-0.0591
G01 Z0
G00 Z0.0787
G00 X0.2540 Y0.0589
G01 Z-0.0591
G01 Z0
G00 Z0.0787
G00 X0.3540 Y0.0589
G01 Z-0.0591
G01 Z0
G00 Z0.0787
G00 X0.4540 Y0.0589
G01 Z-0.0591
G01 Z0
G00 Z0.0787
G00 X0.5590 Y0.0589
G01 Z-0.0591
G01 Z0
G00 Z0.0787
G00 X1.4640 Y0.0589
G01 Z-0.0591
G01 Z0
G00 Z0.0787
G00 X1.5640 Y0.0589
G01 Z-0.0591
G01 Z0
G00 Z0.0787
G00 X1.3590 Y0.0589
G01 Z-0.0591
G01 Z0
G00 Z0.0787
G00 X1.2640 Y0.0589
G01 Z-0.0591
G01 Z0
G00 Z0.0787
G00 X1.1590 Y0.0589
G01 Z-0.0591
G01 Z0
G00 Z0.0787
G00 X1.7640 Y0.0589
G01 Z-0.0591
G01 Z0
G00 Z0.0787
G00 X1.8640 Y0.0589
G01 Z-0.0591
G01 Z0
G00 Z0.0787
M05
G00 Z0.50
G00 X0.0 Y0.0

M02