(G-CODE GENERATED BY FLATCAM v8.98 - www.flatcam.org - Version Date: 2019/10/16)

(Name: TopLayer)
(Type: G-code from Geometry)
(Units: IN)

(Created on Monday, 21 October 2019 at 22:25)

(TOOL DIAMETER: 0.0003 in)

(Feedrate: 3.1496 in/min)
(Feedrate_Z: 3.1496 in/min)
(Feedrate rapids 3.1496 in/min)

(Z_Cut: -0.0945 in)
(Z_Move: 0.0787 in)
(Z Toolchange: 0.5 in)
(X,Y Toolchange: 0.0000, 0.0000 in)
(Z Start: None in)
(Z End: 0.5 in)
(Steps per circle: 128)
(Postprocessor Geometry: grbl_11)

(X range:    0.1066 ...    5.0942  in)
(Y range:    0.0073 ...    0.9972  in)

(Spindle Speed: None RPM)


G20
G90
G94
G17

G01 F3.15
G00 Z0.0787

M03
G00 X0.1729 Y0.0825
G01 F3.15
G01 Z-0.0945
G01 F3.15
G01 X0.1720 Y0.0832 F3.15
G01 X0.1708 Y0.0840 F3.15
G01 X0.1695 Y0.0848 F3.15
G01 X0.1682 Y0.0855 F3.15
G01 X0.1669 Y0.0862 F3.15
G01 X0.1656 Y0.0868 F3.15
G01 X0.1642 Y0.0873 F3.15
G01 X0.1628 Y0.0878 F3.15
G01 X0.1613 Y0.0882 F3.15
G01 X0.1599 Y0.0885 F3.15
G01 X0.1584 Y0.0888 F3.15
G01 X0.1570 Y0.0889 F3.15
G01 X0.1555 Y0.0891 F3.15
G01 X0.1540 Y0.0891 F3.15
G01 X0.1525 Y0.0891 F3.15
G01 X0.1511 Y0.0889 F3.15
G01 X0.1496 Y0.0888 F3.15
G01 X0.1481 Y0.0885 F3.15
G01 X0.1467 Y0.0882 F3.15
G01 X0.1453 Y0.0878 F3.15
G01 X0.1439 Y0.0873 F3.15
G01 X0.1425 Y0.0868 F3.15
G01 X0.1411 Y0.0862 F3.15
G01 X0.1398 Y0.0855 F3.15
G01 X0.1385 Y0.0848 F3.15
G01 X0.1373 Y0.0840 F3.15
G01 X0.1361 Y0.0832 F3.15
G01 X0.1349 Y0.0822 F3.15
G01 X0.1338 Y0.0813 F3.15
G01 X0.1327 Y0.0803 F3.15
G01 X0.1317 Y0.0792 F3.15
G01 X0.1307 Y0.0781 F3.15
G01 X0.1298 Y0.0769 F3.15
G01 X0.1289 Y0.0757 F3.15
G01 X0.1282 Y0.0744 F3.15
G01 X0.1274 Y0.0731 F3.15
G01 X0.1268 Y0.0718 F3.15
G01 X0.1262 Y0.0705 F3.15
G01 X0.1256 Y0.0691 F3.15
G01 X0.1252 Y0.0677 F3.15
G01 X0.1248 Y0.0663 F3.15
G01 X0.1244 Y0.0648 F3.15
G01 X0.1242 Y0.0634 F3.15
G01 X0.1240 Y0.0619 F3.15
G01 X0.1239 Y0.0604 F3.15
G01 X0.1239 Y0.0589 F3.15
G01 X0.1239 Y0.0575 F3.15
G01 X0.1240 Y0.0560 F3.15
G01 X0.1242 Y0.0545 F3.15
G01 X0.1244 Y0.0531 F3.15
G01 X0.1248 Y0.0516 F3.15
G01 X0.1252 Y0.0502 F3.15
G01 X0.1256 Y0.0488 F3.15
G01 X0.1262 Y0.0474 F3.15
G01 X0.1268 Y0.0460 F3.15
G01 X0.1274 Y0.0447 F3.15
G01 X0.1282 Y0.0434 F3.15
G01 X0.1289 Y0.0422 F3.15
G01 X0.1298 Y0.0410 F3.15
G01 X0.1307 Y0.0398 F3.15
G01 X0.1317 Y0.0387 F3.15
G01 X0.1327 Y0.0376 F3.15
G01 X0.1338 Y0.0366 F3.15
G01 X0.1349 Y0.0356 F3.15
G01 X0.1361 Y0.0347 F3.15
G01 X0.1373 Y0.0339 F3.15
G01 X0.1385 Y0.0331 F3.15
G01 X0.1398 Y0.0323 F3.15
G01 X0.1411 Y0.0317 F3.15
G01 X0.1425 Y0.0311 F3.15
G01 X0.1439 Y0.0305 F3.15
G01 X0.1453 Y0.0301 F3.15
G01 X0.1467 Y0.0297 F3.15
G01 X0.1481 Y0.0294 F3.15
G01 X0.1496 Y0.0291 F3.15
G01 X0.1511 Y0.0289 F3.15
G01 X0.1525 Y0.0288 F3.15
G01 X0.1540 Y0.0288 F3.15
G01 X0.1555 Y0.0288 F3.15
G01 X0.1570 Y0.0289 F3.15
G01 X0.1584 Y0.0291 F3.15
G01 X0.1599 Y0.0294 F3.15
G01 X0.1613 Y0.0297 F3.15
G01 X0.1628 Y0.0301 F3.15
G01 X0.1642 Y0.0305 F3.15
G01 X0.1656 Y0.0311 F3.15
G01 X0.1669 Y0.0317 F3.15
G01 X0.1682 Y0.0323 F3.15
G01 X0.1695 Y0.0331 F3.15
G01 X0.1708 Y0.0339 F3.15
G01 X0.1720 Y0.0347 F3.15
G01 X0.1731 Y0.0356 F3.15
G01 X0.1743 Y0.0366 F3.15
G01 X0.1753 Y0.0376 F3.15
G01 X0.1764 Y0.0387 F3.15
G01 X0.1773 Y0.0398 F3.15
G01 X0.1782 Y0.0410 F3.15
G01 X0.1791 Y0.0422 F3.15
G01 X0.1799 Y0.0434 F3.15
G01 X0.1806 Y0.0447 F3.15
G01 X0.1813 Y0.0460 F3.15
G01 X0.1819 Y0.0474 F3.15
G01 X0.1824 Y0.0488 F3.15
G01 X0.1829 Y0.0502 F3.15
G01 X0.1833 Y0.0516 F3.15
G01 X0.1836 Y0.0531 F3.15
G01 X0.1838 Y0.0545 F3.15
G01 X0.1840 Y0.0560 F3.15
G01 X0.1841 Y0.0575 F3.15
G01 X0.1842 Y0.0589 F3.15
G01 X0.1841 Y0.0604 F3.15
G01 X0.1840 Y0.0619 F3.15
G01 X0.1838 Y0.0634 F3.15
G01 X0.1836 Y0.0648 F3.15
G01 X0.1833 Y0.0663 F3.15
G01 X0.1829 Y0.0677 F3.15
G01 X0.1824 Y0.0691 F3.15
G01 X0.1819 Y0.0705 F3.15
G01 X0.1813 Y0.0718 F3.15
G01 X0.1806 Y0.0731 F3.15
G01 X0.1799 Y0.0744 F3.15
G01 X0.1791 Y0.0757 F3.15
G01 X0.1782 Y0.0769 F3.15
G01 X0.1775 Y0.0778 F3.15
G01 X0.5558 Y0.4561 F3.15
G01 X2.2240 Y0.4561 F3.15
G01 X2.2121 Y0.4442 F3.15
G01 X2.2117 Y0.4437 F3.15
G01 X2.2114 Y0.4433 F3.15
G01 X2.2112 Y0.4428 F3.15
G01 X2.2110 Y0.4423 F3.15
G01 X2.2108 Y0.4417 F3.15
G01 X2.2107 Y0.4412 F3.15
G01 X2.2107 Y0.4409 F3.15
G01 X2.2106 Y0.4404 F3.15
G01 X2.2107 Y0.4398 F3.15
G01 X2.2107 Y0.4395 F3.15
G01 X2.2108 Y0.4390 F3.15
G01 X2.2110 Y0.4384 F3.15
G01 X2.2111 Y0.4382 F3.15
G01 X2.2113 Y0.4377 F3.15
G01 X2.2116 Y0.4372 F3.15
G01 X2.2117 Y0.4370 F3.15
G01 X2.2121 Y0.4365 F3.15
G01 X2.2125 Y0.4362 F3.15
G01 X2.2127 Y0.4360 F3.15
G01 X2.2132 Y0.4356 F3.15
G01 X2.2136 Y0.4354 F3.15
G01 X2.2141 Y0.4351 F3.15
G01 X2.2144 Y0.4350 F3.15
G01 X2.2149 Y0.4349 F3.15
G01 X2.2152 Y0.4348 F3.15
G01 X2.2157 Y0.4347 F3.15
G01 X2.2163 Y0.4347 F3.15
G01 X2.2169 Y0.4347 F3.15
G01 X2.2174 Y0.4348 F3.15
G01 X2.2179 Y0.4349 F3.15
G01 X2.2185 Y0.4351 F3.15
G01 X2.2190 Y0.4354 F3.15
G01 X2.2192 Y0.4355 F3.15
G01 X2.2197 Y0.4358 F3.15
G01 X2.2201 Y0.4362 F3.15
G01 X2.2585 Y0.4745 F3.15
G01 X2.2586 Y0.4747 F3.15
G01 X2.2590 Y0.4751 F3.15
G01 X2.2593 Y0.4756 F3.15
G01 X2.2596 Y0.4761 F3.15
G01 X2.2598 Y0.4766 F3.15
G01 X2.2599 Y0.4769 F3.15
G01 X2.2600 Y0.4774 F3.15
G01 X2.2601 Y0.4779 F3.15
G01 X2.2601 Y0.4782 F3.15
G01 X2.2601 Y0.4785 F3.15
G01 X2.2601 Y0.4791 F3.15
G01 X2.2600 Y0.4796 F3.15
G01 X2.2599 Y0.4802 F3.15
G01 X2.2597 Y0.4807 F3.15
G01 X2.2596 Y0.4809 F3.15
G01 X2.2593 Y0.4814 F3.15
G01 X2.2590 Y0.4819 F3.15
G01 X2.2588 Y0.4821 F3.15
G01 X2.2585 Y0.4825 F3.15
G01 X2.2580 Y0.4829 F3.15
G01 X2.2578 Y0.4831 F3.15
G01 X2.2574 Y0.4834 F3.15
G01 X2.2569 Y0.4836 F3.15
G01 X2.2566 Y0.4837 F3.15
G01 X2.2561 Y0.4839 F3.15
G01 X2.2556 Y0.4841 F3.15
G01 X2.2553 Y0.4841 F3.15
G01 X2.2547 Y0.4842 F3.15
G01 X2.2542 Y0.4842 F3.15
G01 X2.2536 Y0.4841 F3.15
G01 X2.2531 Y0.4840 F3.15
G01 X2.2528 Y0.4839 F3.15
G01 X2.2523 Y0.4837 F3.15
G01 X2.2518 Y0.4835 F3.15
G01 X2.2515 Y0.4834 F3.15
G01 X2.2511 Y0.4831 F3.15
G01 X2.2506 Y0.4827 F3.15
G01 X2.2504 Y0.4825 F3.15
G01 X2.2306 Y0.4627 F3.15
G01 X0.5544 Y0.4627 F3.15
G01 X0.5541 Y0.4627 F3.15
G01 X0.5538 Y0.4626 F3.15
G01 X0.5533 Y0.4625 F3.15
G01 X0.5529 Y0.4623 F3.15
G01 X0.5524 Y0.4620 F3.15
G01 X0.5521 Y0.4617 F3.15
G01 X0.1729 Y0.0825 F3.15
G00 Z0.0787
G00 X0.2729 Y0.0825
G01 F3.15
G01 Z-0.0945
G01 F3.15
G01 X0.2720 Y0.0832 F3.15
G01 X0.2708 Y0.0840 F3.15
G01 X0.2695 Y0.0848 F3.15
G01 X0.2682 Y0.0855 F3.15
G01 X0.2669 Y0.0862 F3.15
G01 X0.2656 Y0.0868 F3.15
G01 X0.2642 Y0.0873 F3.15
G01 X0.2628 Y0.0878 F3.15
G01 X0.2613 Y0.0882 F3.15
G01 X0.2599 Y0.0885 F3.15
G01 X0.2584 Y0.0888 F3.15
G01 X0.2570 Y0.0889 F3.15
G01 X0.2555 Y0.0891 F3.15
G01 X0.2540 Y0.0891 F3.15
G01 X0.2525 Y0.0891 F3.15
G01 X0.2511 Y0.0889 F3.15
G01 X0.2496 Y0.0888 F3.15
G01 X0.2481 Y0.0885 F3.15
G01 X0.2467 Y0.0882 F3.15
G01 X0.2453 Y0.0878 F3.15
G01 X0.2439 Y0.0873 F3.15
G01 X0.2425 Y0.0868 F3.15
G01 X0.2411 Y0.0862 F3.15
G01 X0.2398 Y0.0855 F3.15
G01 X0.2385 Y0.0848 F3.15
G01 X0.2373 Y0.0840 F3.15
G01 X0.2361 Y0.0832 F3.15
G01 X0.2349 Y0.0822 F3.15
G01 X0.2338 Y0.0813 F3.15
G01 X0.2327 Y0.0803 F3.15
G01 X0.2317 Y0.0792 F3.15
G01 X0.2307 Y0.0781 F3.15
G01 X0.2298 Y0.0769 F3.15
G01 X0.2289 Y0.0757 F3.15
G01 X0.2282 Y0.0744 F3.15
G01 X0.2274 Y0.0731 F3.15
G01 X0.2268 Y0.0718 F3.15
G01 X0.2262 Y0.0705 F3.15
G01 X0.2256 Y0.0691 F3.15
G01 X0.2252 Y0.0677 F3.15
G01 X0.2248 Y0.0663 F3.15
G01 X0.2244 Y0.0648 F3.15
G01 X0.2242 Y0.0634 F3.15
G01 X0.2240 Y0.0619 F3.15
G01 X0.2239 Y0.0604 F3.15
G01 X0.2239 Y0.0589 F3.15
G01 X0.2239 Y0.0575 F3.15
G01 X0.2240 Y0.0560 F3.15
G01 X0.2242 Y0.0545 F3.15
G01 X0.2244 Y0.0531 F3.15
G01 X0.2248 Y0.0516 F3.15
G01 X0.2252 Y0.0502 F3.15
G01 X0.2256 Y0.0488 F3.15
G01 X0.2262 Y0.0474 F3.15
G01 X0.2268 Y0.0460 F3.15
G01 X0.2274 Y0.0447 F3.15
G01 X0.2282 Y0.0434 F3.15
G01 X0.2289 Y0.0422 F3.15
G01 X0.2298 Y0.0410 F3.15
G01 X0.2307 Y0.0398 F3.15
G01 X0.2317 Y0.0387 F3.15
G01 X0.2327 Y0.0376 F3.15
G01 X0.2338 Y0.0366 F3.15
G01 X0.2349 Y0.0356 F3.15
G01 X0.2361 Y0.0347 F3.15
G01 X0.2373 Y0.0339 F3.15
G01 X0.2385 Y0.0331 F3.15
G01 X0.2398 Y0.0323 F3.15
G01 X0.2411 Y0.0317 F3.15
G01 X0.2425 Y0.0311 F3.15
G01 X0.2439 Y0.0305 F3.15
G01 X0.2453 Y0.0301 F3.15
G01 X0.2467 Y0.0297 F3.15
G01 X0.2481 Y0.0294 F3.15
G01 X0.2496 Y0.0291 F3.15
G01 X0.2511 Y0.0289 F3.15
G01 X0.2525 Y0.0288 F3.15
G01 X0.2540 Y0.0288 F3.15
G01 X0.2555 Y0.0288 F3.15
G01 X0.2570 Y0.0289 F3.15
G01 X0.2584 Y0.0291 F3.15
G01 X0.2599 Y0.0294 F3.15
G01 X0.2613 Y0.0297 F3.15
G01 X0.2628 Y0.0301 F3.15
G01 X0.2642 Y0.0305 F3.15
G01 X0.2656 Y0.0311 F3.15
G01 X0.2669 Y0.0317 F3.15
G01 X0.2682 Y0.0323 F3.15
G01 X0.2695 Y0.0331 F3.15
G01 X0.2708 Y0.0339 F3.15
G01 X0.2720 Y0.0347 F3.15
G01 X0.2731 Y0.0356 F3.15
G01 X0.2743 Y0.0366 F3.15
G01 X0.2753 Y0.0376 F3.15
G01 X0.2764 Y0.0387 F3.15
G01 X0.2773 Y0.0398 F3.15
G01 X0.2782 Y0.0410 F3.15
G01 X0.2791 Y0.0422 F3.15
G01 X0.2799 Y0.0434 F3.15
G01 X0.2806 Y0.0447 F3.15
G01 X0.2813 Y0.0460 F3.15
G01 X0.2819 Y0.0474 F3.15
G01 X0.2824 Y0.0488 F3.15
G01 X0.2829 Y0.0502 F3.15
G01 X0.2833 Y0.0516 F3.15
G01 X0.2836 Y0.0531 F3.15
G01 X0.2838 Y0.0545 F3.15
G01 X0.2840 Y0.0560 F3.15
G01 X0.2841 Y0.0575 F3.15
G01 X0.2842 Y0.0589 F3.15
G01 X0.2841 Y0.0604 F3.15
G01 X0.2840 Y0.0619 F3.15
G01 X0.2838 Y0.0634 F3.15
G01 X0.2836 Y0.0648 F3.15
G01 X0.2833 Y0.0663 F3.15
G01 X0.2829 Y0.0677 F3.15
G01 X0.2824 Y0.0691 F3.15
G01 X0.2819 Y0.0705 F3.15
G01 X0.2813 Y0.0718 F3.15
G01 X0.2806 Y0.0731 F3.15
G01 X0.2799 Y0.0744 F3.15
G01 X0.2791 Y0.0757 F3.15
G01 X0.2782 Y0.0769 F3.15
G01 X0.2775 Y0.0778 F3.15
G01 X0.5023 Y0.3026 F3.15
G01 X2.1099 Y0.3026 F3.15
G01 X2.1102 Y0.3026 F3.15
G01 X2.1105 Y0.3026 F3.15
G01 X2.1108 Y0.3027 F3.15
G01 X2.1113 Y0.3029 F3.15
G01 X2.1117 Y0.3031 F3.15
G01 X2.1120 Y0.3033 F3.15
G01 X2.1122 Y0.3035 F3.15
G01 X2.2295 Y0.4208 F3.15
G01 X2.2300 Y0.4208 F3.15
G01 X2.2302 Y0.4208 F3.15
G01 X2.2308 Y0.4208 F3.15
G01 X2.2313 Y0.4209 F3.15
G01 X2.2316 Y0.4209 F3.15
G01 X2.2321 Y0.4211 F3.15
G01 X2.2327 Y0.4213 F3.15
G01 X2.2332 Y0.4216 F3.15
G01 X2.2336 Y0.4219 F3.15
G01 X2.2338 Y0.4220 F3.15
G01 X2.2342 Y0.4224 F3.15
G01 X2.2726 Y0.4608 F3.15
G01 X2.2729 Y0.4612 F3.15
G01 X2.2731 Y0.4614 F3.15
G01 X2.2734 Y0.4619 F3.15
G01 X2.2736 Y0.4624 F3.15
G01 X2.2738 Y0.4629 F3.15
G01 X2.2739 Y0.4635 F3.15
G01 X2.2740 Y0.4637 F3.15
G01 X2.2740 Y0.4643 F3.15
G01 X2.2741 Y0.4646 F3.15
G01 X2.2740 Y0.4651 F3.15
G01 X2.2739 Y0.4657 F3.15
G01 X2.2739 Y0.4659 F3.15
G01 X2.2737 Y0.4665 F3.15
G01 X2.2735 Y0.4670 F3.15
G01 X2.2732 Y0.4675 F3.15
G01 X2.2731 Y0.4677 F3.15
G01 X2.2728 Y0.4682 F3.15
G01 X2.2726 Y0.4684 F3.15
G01 X2.2724 Y0.4686 F3.15
G01 X2.2720 Y0.4689 F3.15
G01 X2.2715 Y0.4693 F3.15
G01 X2.2711 Y0.4696 F3.15
G01 X2.2708 Y0.4697 F3.15
G01 X2.2706 Y0.4698 F3.15
G01 X2.2700 Y0.4700 F3.15
G01 X2.2698 Y0.4701 F3.15
G01 X2.2692 Y0.4702 F3.15
G01 X2.2687 Y0.4702 F3.15
G01 X2.2681 Y0.4702 F3.15
G01 X2.2678 Y0.4702 F3.15
G01 X2.2676 Y0.4702 F3.15
G01 X2.2670 Y0.4701 F3.15
G01 X2.2665 Y0.4699 F3.15
G01 X2.2660 Y0.4697 F3.15
G01 X2.2657 Y0.4696 F3.15
G01 X2.2655 Y0.4694 F3.15
G01 X2.2650 Y0.4691 F3.15
G01 X2.2646 Y0.4688 F3.15
G01 X2.2260 Y0.4302 F3.15
G01 X2.2257 Y0.4298 F3.15
G01 X2.2254 Y0.4293 F3.15
G01 X2.2252 Y0.4291 F3.15
G01 X2.2250 Y0.4286 F3.15
G01 X2.2248 Y0.4281 F3.15
G01 X2.2247 Y0.4278 F3.15
G01 X2.2246 Y0.4272 F3.15
G01 X2.2246 Y0.4270 F3.15
G01 X2.2246 Y0.4264 F3.15
G01 X2.2246 Y0.4259 F3.15
G01 X2.2247 Y0.4253 F3.15
G01 X2.1085 Y0.3092 F3.15
G01 X0.5009 Y0.3092 F3.15
G01 X0.5006 Y0.3092 F3.15
G01 X0.5003 Y0.3091 F3.15
G01 X0.4998 Y0.3090 F3.15
G01 X0.4993 Y0.3088 F3.15
G01 X0.4989 Y0.3085 F3.15
G01 X0.4986 Y0.3082 F3.15
G01 X0.2729 Y0.0825 F3.15
G00 Z0.0787
G00 X0.3729 Y0.0825
G01 F3.15
G01 Z-0.0945
G01 F3.15
G01 X0.3720 Y0.0832 F3.15
G01 X0.3708 Y0.0840 F3.15
G01 X0.3695 Y0.0848 F3.15
G01 X0.3682 Y0.0855 F3.15
G01 X0.3669 Y0.0862 F3.15
G01 X0.3656 Y0.0868 F3.15
G01 X0.3642 Y0.0873 F3.15
G01 X0.3628 Y0.0878 F3.15
G01 X0.3613 Y0.0882 F3.15
G01 X0.3599 Y0.0885 F3.15
G01 X0.3584 Y0.0888 F3.15
G01 X0.3570 Y0.0889 F3.15
G01 X0.3555 Y0.0891 F3.15
G01 X0.3540 Y0.0891 F3.15
G01 X0.3525 Y0.0891 F3.15
G01 X0.3511 Y0.0889 F3.15
G01 X0.3496 Y0.0888 F3.15
G01 X0.3481 Y0.0885 F3.15
G01 X0.3467 Y0.0882 F3.15
G01 X0.3453 Y0.0878 F3.15
G01 X0.3439 Y0.0873 F3.15
G01 X0.3425 Y0.0868 F3.15
G01 X0.3411 Y0.0862 F3.15
G01 X0.3398 Y0.0855 F3.15
G01 X0.3385 Y0.0848 F3.15
G01 X0.3373 Y0.0840 F3.15
G01 X0.3361 Y0.0832 F3.15
G01 X0.3349 Y0.0822 F3.15
G01 X0.3338 Y0.0813 F3.15
G01 X0.3327 Y0.0803 F3.15
G01 X0.3317 Y0.0792 F3.15
G01 X0.3307 Y0.0781 F3.15
G01 X0.3298 Y0.0769 F3.15
G01 X0.3289 Y0.0757 F3.15
G01 X0.3282 Y0.0744 F3.15
G01 X0.3274 Y0.0731 F3.15
G01 X0.3268 Y0.0718 F3.15
G01 X0.3262 Y0.0705 F3.15
G01 X0.3256 Y0.0691 F3.15
G01 X0.3252 Y0.0677 F3.15
G01 X0.3248 Y0.0663 F3.15
G01 X0.3244 Y0.0648 F3.15
G01 X0.3242 Y0.0634 F3.15
G01 X0.3240 Y0.0619 F3.15
G01 X0.3239 Y0.0604 F3.15
G01 X0.3239 Y0.0589 F3.15
G01 X0.3239 Y0.0575 F3.15
G01 X0.3240 Y0.0560 F3.15
G01 X0.3242 Y0.0545 F3.15
G01 X0.3244 Y0.0531 F3.15
G01 X0.3248 Y0.0516 F3.15
G01 X0.3252 Y0.0502 F3.15
G01 X0.3256 Y0.0488 F3.15
G01 X0.3262 Y0.0474 F3.15
G01 X0.3268 Y0.0460 F3.15
G01 X0.3274 Y0.0447 F3.15
G01 X0.3282 Y0.0434 F3.15
G01 X0.3289 Y0.0422 F3.15
G01 X0.3298 Y0.0410 F3.15
G01 X0.3307 Y0.0398 F3.15
G01 X0.3317 Y0.0387 F3.15
G01 X0.3327 Y0.0376 F3.15
G01 X0.3338 Y0.0366 F3.15
G01 X0.3349 Y0.0356 F3.15
G01 X0.3361 Y0.0347 F3.15
G01 X0.3373 Y0.0339 F3.15
G01 X0.3385 Y0.0331 F3.15
G01 X0.3398 Y0.0323 F3.15
G01 X0.3411 Y0.0317 F3.15
G01 X0.3425 Y0.0311 F3.15
G01 X0.3439 Y0.0305 F3.15
G01 X0.3453 Y0.0301 F3.15
G01 X0.3467 Y0.0297 F3.15
G01 X0.3481 Y0.0294 F3.15
G01 X0.3496 Y0.0291 F3.15
G01 X0.3511 Y0.0289 F3.15
G01 X0.3525 Y0.0288 F3.15
G01 X0.3540 Y0.0288 F3.15
G01 X0.3555 Y0.0288 F3.15
G01 X0.3570 Y0.0289 F3.15
G01 X0.3584 Y0.0291 F3.15
G01 X0.3599 Y0.0294 F3.15
G01 X0.3613 Y0.0297 F3.15
G01 X0.3628 Y0.0301 F3.15
G01 X0.3642 Y0.0305 F3.15
G01 X0.3656 Y0.0311 F3.15
G01 X0.3669 Y0.0317 F3.15
G01 X0.3682 Y0.0323 F3.15
G01 X0.3695 Y0.0331 F3.15
G01 X0.3708 Y0.0339 F3.15
G01 X0.3720 Y0.0347 F3.15
G01 X0.3731 Y0.0356 F3.15
G01 X0.3743 Y0.0366 F3.15
G01 X0.3753 Y0.0376 F3.15
G01 X0.3764 Y0.0387 F3.15
G01 X0.3773 Y0.0398 F3.15
G01 X0.3782 Y0.0410 F3.15
G01 X0.3791 Y0.0422 F3.15
G01 X0.3799 Y0.0434 F3.15
G01 X0.3806 Y0.0447 F3.15
G01 X0.3813 Y0.0460 F3.15
G01 X0.3819 Y0.0474 F3.15
G01 X0.3824 Y0.0488 F3.15
G01 X0.3829 Y0.0502 F3.15
G01 X0.3833 Y0.0516 F3.15
G01 X0.3836 Y0.0531 F3.15
G01 X0.3838 Y0.0545 F3.15
G01 X0.3840 Y0.0560 F3.15
G01 X0.3841 Y0.0575 F3.15
G01 X0.3842 Y0.0589 F3.15
G01 X0.3841 Y0.0604 F3.15
G01 X0.3840 Y0.0619 F3.15
G01 X0.3838 Y0.0634 F3.15
G01 X0.3836 Y0.0648 F3.15
G01 X0.3833 Y0.0663 F3.15
G01 X0.3829 Y0.0677 F3.15
G01 X0.3824 Y0.0691 F3.15
G01 X0.3819 Y0.0705 F3.15
G01 X0.3813 Y0.0718 F3.15
G01 X0.3806 Y0.0731 F3.15
G01 X0.3799 Y0.0744 F3.15
G01 X0.3791 Y0.0757 F3.15
G01 X0.3782 Y0.0769 F3.15
G01 X0.3775 Y0.0778 F3.15
G01 X0.5896 Y0.2898 F3.15
G01 X2.1250 Y0.2898 F3.15
G01 X2.1253 Y0.2899 F3.15
G01 X2.1258 Y0.2899 F3.15
G01 X2.1261 Y0.2900 F3.15
G01 X2.1264 Y0.2902 F3.15
G01 X2.1268 Y0.2904 F3.15
G01 X2.1271 Y0.2906 F3.15
G01 X2.1273 Y0.2908 F3.15
G01 X2.2434 Y0.4069 F3.15
G01 X2.2439 Y0.4069 F3.15
G01 X2.2442 Y0.4069 F3.15
G01 X2.2447 Y0.4069 F3.15
G01 X2.2453 Y0.4070 F3.15
G01 X2.2456 Y0.4070 F3.15
G01 X2.2461 Y0.4072 F3.15
G01 X2.2466 Y0.4074 F3.15
G01 X2.2471 Y0.4077 F3.15
G01 X2.2475 Y0.4080 F3.15
G01 X2.2478 Y0.4081 F3.15
G01 X2.2482 Y0.4085 F3.15
G01 X2.2865 Y0.4468 F3.15
G01 X2.2868 Y0.4473 F3.15
G01 X2.2871 Y0.4477 F3.15
G01 X2.2873 Y0.4480 F3.15
G01 X2.2875 Y0.4485 F3.15
G01 X2.2877 Y0.4490 F3.15
G01 X2.2878 Y0.4495 F3.15
G01 X2.2879 Y0.4498 F3.15
G01 X2.2879 Y0.4504 F3.15
G01 X2.2879 Y0.4506 F3.15
G01 X2.2879 Y0.4512 F3.15
G01 X2.2878 Y0.4517 F3.15
G01 X2.2878 Y0.4520 F3.15
G01 X2.2876 Y0.4525 F3.15
G01 X2.2874 Y0.4531 F3.15
G01 X2.2871 Y0.4535 F3.15
G01 X2.2870 Y0.4538 F3.15
G01 X2.2867 Y0.4542 F3.15
G01 X2.2865 Y0.4544 F3.15
G01 X2.2863 Y0.4546 F3.15
G01 X2.2859 Y0.4550 F3.15
G01 X2.2854 Y0.4553 F3.15
G01 X2.2850 Y0.4556 F3.15
G01 X2.2847 Y0.4558 F3.15
G01 X2.2844 Y0.4559 F3.15
G01 X2.2839 Y0.4560 F3.15
G01 X2.2837 Y0.4561 F3.15
G01 X2.2831 Y0.4562 F3.15
G01 X2.2826 Y0.4563 F3.15
G01 X2.2820 Y0.4563 F3.15
G01 X2.2817 Y0.4563 F3.15
G01 X2.2814 Y0.4562 F3.15
G01 X2.2809 Y0.4561 F3.15
G01 X2.2804 Y0.4560 F3.15
G01 X2.2799 Y0.4558 F3.15
G01 X2.2796 Y0.4556 F3.15
G01 X2.2794 Y0.4555 F3.15
G01 X2.2789 Y0.4552 F3.15
G01 X2.2785 Y0.4548 F3.15
G01 X2.2400 Y0.4163 F3.15
G01 X2.2396 Y0.4159 F3.15
G01 X2.2393 Y0.4154 F3.15
G01 X2.2392 Y0.4152 F3.15
G01 X2.2389 Y0.4147 F3.15
G01 X2.2388 Y0.4142 F3.15
G01 X2.2386 Y0.4136 F3.15
G01 X2.2386 Y0.4134 F3.15
G01 X2.2385 Y0.4128 F3.15
G01 X2.2385 Y0.4122 F3.15
G01 X2.2385 Y0.4120 F3.15
G01 X2.2386 Y0.4114 F3.15
G01 X2.1236 Y0.2965 F3.15
G01 X0.5882 Y0.2965 F3.15
G01 X0.5879 Y0.2964 F3.15
G01 X0.5875 Y0.2964 F3.15
G01 X0.5871 Y0.2963 F3.15
G01 X0.5866 Y0.2961 F3.15
G01 X0.5862 Y0.2958 F3.15
G01 X0.5859 Y0.2955 F3.15
G01 X0.3729 Y0.0825 F3.15
G00 Z0.0787
G00 X0.4305 Y0.0401
G01 F3.15
G01 Z-0.0945
G01 F3.15
G01 X0.4042 Y0.0139 F3.15
G01 X0.1472 Y0.0139 F3.15
G01 X0.1132 Y0.0478 F3.15
G01 X0.1132 Y0.0721 F3.15
G01 X0.5367 Y0.4956 F3.15
G01 X2.2623 Y0.4956 F3.15
G01 X2.2980 Y0.4600 F3.15
G01 X2.2980 Y0.4429 F3.15
G01 X2.2973 Y0.4423 F3.15
G01 X2.2968 Y0.4424 F3.15
G01 X2.2962 Y0.4424 F3.15
G01 X2.2959 Y0.4424 F3.15
G01 X2.2954 Y0.4423 F3.15
G01 X2.2951 Y0.4423 F3.15
G01 X2.2948 Y0.4422 F3.15
G01 X2.2943 Y0.4421 F3.15
G01 X2.2938 Y0.4419 F3.15
G01 X2.2933 Y0.4416 F3.15
G01 X2.2928 Y0.4413 F3.15
G01 X2.2924 Y0.4409 F3.15
G01 X2.2541 Y0.4026 F3.15
G01 X2.2537 Y0.4022 F3.15
G01 X2.2534 Y0.4017 F3.15
G01 X2.2532 Y0.4015 F3.15
G01 X2.2531 Y0.4012 F3.15
G01 X2.2528 Y0.4008 F3.15
G01 X2.2527 Y0.4005 F3.15
G01 X2.2526 Y0.4000 F3.15
G01 X2.2525 Y0.3997 F3.15
G01 X2.2524 Y0.3991 F3.15
G01 X2.2524 Y0.3986 F3.15
G01 X2.2524 Y0.3980 F3.15
G01 X2.2525 Y0.3977 F3.15
G01 X2.2526 Y0.3972 F3.15
G01 X2.2527 Y0.3969 F3.15
G01 X2.2527 Y0.3967 F3.15
G01 X2.2529 Y0.3962 F3.15
G01 X2.2532 Y0.3957 F3.15
G01 X2.2534 Y0.3954 F3.15
G01 X2.2535 Y0.3952 F3.15
G01 X2.2539 Y0.3948 F3.15
G01 X2.2543 Y0.3944 F3.15
G01 X2.2547 Y0.3940 F3.15
G01 X2.2549 Y0.3939 F3.15
G01 X2.2554 Y0.3936 F3.15
G01 X2.2556 Y0.3935 F3.15
G01 X2.2559 Y0.3933 F3.15
G01 X2.2564 Y0.3932 F3.15
G01 X2.2567 Y0.3931 F3.15
G01 X2.2572 Y0.3930 F3.15
G01 X2.2575 Y0.3929 F3.15
G01 X2.2581 Y0.3929 F3.15
G01 X2.2586 Y0.3929 F3.15
G01 X2.2589 Y0.3930 F3.15
G01 X2.2594 Y0.3931 F3.15
G01 X2.2600 Y0.3933 F3.15
G01 X2.2605 Y0.3935 F3.15
G01 X2.2610 Y0.3937 F3.15
G01 X2.2614 Y0.3940 F3.15
G01 X2.2619 Y0.3944 F3.15
G01 X2.3002 Y0.4327 F3.15
G01 X2.3006 Y0.4331 F3.15
G01 X2.3009 Y0.4336 F3.15
G01 X2.3012 Y0.4341 F3.15
G01 X2.3015 Y0.4346 F3.15
G01 X2.3016 Y0.4351 F3.15
G01 X2.3017 Y0.4354 F3.15
G01 X2.3018 Y0.4359 F3.15
G01 X2.3019 Y0.4365 F3.15
G01 X2.3019 Y0.4370 F3.15
G01 X2.3018 Y0.4374 F3.15
G01 X2.3036 Y0.4392 F3.15
G01 X2.3040 Y0.4396 F3.15
G01 X2.3041 Y0.4399 F3.15
G01 X2.3043 Y0.4403 F3.15
G01 X2.3045 Y0.4408 F3.15
G01 X2.3046 Y0.4411 F3.15
G01 X2.3046 Y0.4416 F3.15
G01 X2.3046 Y0.4613 F3.15
G01 X2.3046 Y0.4617 F3.15
G01 X2.3045 Y0.4621 F3.15
G01 X2.3044 Y0.4626 F3.15
G01 X2.3042 Y0.4629 F3.15
G01 X2.3040 Y0.4633 F3.15
G01 X2.3036 Y0.4637 F3.15
G01 X2.2660 Y0.5013 F3.15
G01 X2.2658 Y0.5015 F3.15
G01 X2.2655 Y0.5017 F3.15
G01 X2.2653 Y0.5018 F3.15
G01 X2.2650 Y0.5020 F3.15
G01 X2.2647 Y0.5021 F3.15
G01 X2.2643 Y0.5022 F3.15
G01 X2.2640 Y0.5022 F3.15
G01 X2.2637 Y0.5022 F3.15
G01 X0.5353 Y0.5022 F3.15
G01 X0.5350 Y0.5022 F3.15
G01 X0.5345 Y0.5021 F3.15
G01 X0.5341 Y0.5020 F3.15
G01 X0.5338 Y0.5018 F3.15
G01 X0.5333 Y0.5016 F3.15
G01 X0.5330 Y0.5013 F3.15
G01 X0.1075 Y0.0758 F3.15
G01 X0.1072 Y0.0754 F3.15
G01 X0.1071 Y0.0752 F3.15
G01 X0.1069 Y0.0749 F3.15
G01 X0.1067 Y0.0744 F3.15
G01 X0.1066 Y0.0741 F3.15
G01 X0.1066 Y0.0738 F3.15
G01 X0.1066 Y0.0735 F3.15
G01 X0.1066 Y0.0465 F3.15
G01 X0.1066 Y0.0460 F3.15
G01 X0.1067 Y0.0455 F3.15
G01 X0.1068 Y0.0452 F3.15
G01 X0.1071 Y0.0448 F3.15
G01 X0.1072 Y0.0445 F3.15
G01 X0.1075 Y0.0441 F3.15
G01 X0.1435 Y0.0082 F3.15
G01 X0.1437 Y0.0080 F3.15
G01 X0.1440 Y0.0078 F3.15
G01 X0.1444 Y0.0076 F3.15
G01 X0.1448 Y0.0074 F3.15
G01 X0.1451 Y0.0073 F3.15
G01 X0.1455 Y0.0073 F3.15
G01 X0.1458 Y0.0073 F3.15
G01 X0.4056 Y0.0073 F3.15
G01 X0.4059 Y0.0073 F3.15
G01 X0.4062 Y0.0073 F3.15
G01 X0.4067 Y0.0074 F3.15
G01 X0.4071 Y0.0076 F3.15
G01 X0.4076 Y0.0079 F3.15
G01 X0.4079 Y0.0082 F3.15
G01 X0.4352 Y0.0354 F3.15
G01 X0.4361 Y0.0347 F3.15
G01 X0.4373 Y0.0339 F3.15
G01 X0.4385 Y0.0331 F3.15
G01 X0.4398 Y0.0323 F3.15
G01 X0.4411 Y0.0317 F3.15
G01 X0.4425 Y0.0311 F3.15
G01 X0.4439 Y0.0305 F3.15
G01 X0.4453 Y0.0301 F3.15
G01 X0.4467 Y0.0297 F3.15
G01 X0.4481 Y0.0294 F3.15
G01 X0.4496 Y0.0291 F3.15
G01 X0.4511 Y0.0289 F3.15
G01 X0.4525 Y0.0288 F3.15
G01 X0.4540 Y0.0288 F3.15
G01 X0.4555 Y0.0288 F3.15
G01 X0.4570 Y0.0289 F3.15
G01 X0.4584 Y0.0291 F3.15
G01 X0.4599 Y0.0294 F3.15
G01 X0.4613 Y0.0297 F3.15
G01 X0.4628 Y0.0301 F3.15
G01 X0.4642 Y0.0305 F3.15
G01 X0.4656 Y0.0311 F3.15
G01 X0.4669 Y0.0317 F3.15
G01 X0.4682 Y0.0323 F3.15
G01 X0.4695 Y0.0331 F3.15
G01 X0.4708 Y0.0339 F3.15
G01 X0.4720 Y0.0347 F3.15
G01 X0.4731 Y0.0356 F3.15
G01 X0.4743 Y0.0366 F3.15
G01 X0.4753 Y0.0376 F3.15
G01 X0.4764 Y0.0387 F3.15
G01 X0.4773 Y0.0398 F3.15
G01 X0.4782 Y0.0410 F3.15
G01 X0.4791 Y0.0422 F3.15
G01 X0.4799 Y0.0434 F3.15
G01 X0.4806 Y0.0447 F3.15
G01 X0.4813 Y0.0460 F3.15
G01 X0.4819 Y0.0474 F3.15
G01 X0.4824 Y0.0488 F3.15
G01 X0.4829 Y0.0502 F3.15
G01 X0.4833 Y0.0516 F3.15
G01 X0.4836 Y0.0531 F3.15
G01 X0.4838 Y0.0545 F3.15
G01 X0.4840 Y0.0560 F3.15
G01 X0.4841 Y0.0575 F3.15
G01 X0.4842 Y0.0589 F3.15
G01 X0.4841 Y0.0604 F3.15
G01 X0.4840 Y0.0619 F3.15
G01 X0.4838 Y0.0634 F3.15
G01 X0.4836 Y0.0648 F3.15
G01 X0.4833 Y0.0663 F3.15
G01 X0.4829 Y0.0677 F3.15
G01 X0.4824 Y0.0691 F3.15
G01 X0.4819 Y0.0705 F3.15
G01 X0.4813 Y0.0718 F3.15
G01 X0.4806 Y0.0731 F3.15
G01 X0.4799 Y0.0744 F3.15
G01 X0.4791 Y0.0757 F3.15
G01 X0.4782 Y0.0769 F3.15
G01 X0.4773 Y0.0781 F3.15
G01 X0.4764 Y0.0792 F3.15
G01 X0.4753 Y0.0803 F3.15
G01 X0.4743 Y0.0813 F3.15
G01 X0.4731 Y0.0822 F3.15
G01 X0.4720 Y0.0832 F3.15
G01 X0.4708 Y0.0840 F3.15
G01 X0.4695 Y0.0848 F3.15
G01 X0.4682 Y0.0855 F3.15
G01 X0.4669 Y0.0862 F3.15
G01 X0.4656 Y0.0868 F3.15
G01 X0.4642 Y0.0873 F3.15
G01 X0.4628 Y0.0878 F3.15
G01 X0.4613 Y0.0882 F3.15
G01 X0.4599 Y0.0885 F3.15
G01 X0.4584 Y0.0888 F3.15
G01 X0.4570 Y0.0889 F3.15
G01 X0.4555 Y0.0891 F3.15
G01 X0.4540 Y0.0891 F3.15
G01 X0.4525 Y0.0891 F3.15
G01 X0.4511 Y0.0889 F3.15
G01 X0.4496 Y0.0888 F3.15
G01 X0.4481 Y0.0885 F3.15
G01 X0.4467 Y0.0882 F3.15
G01 X0.4453 Y0.0878 F3.15
G01 X0.4439 Y0.0873 F3.15
G01 X0.4425 Y0.0868 F3.15
G01 X0.4411 Y0.0862 F3.15
G01 X0.4398 Y0.0855 F3.15
G01 X0.4385 Y0.0848 F3.15
G01 X0.4373 Y0.0840 F3.15
G01 X0.4361 Y0.0832 F3.15
G01 X0.4349 Y0.0822 F3.15
G01 X0.4338 Y0.0813 F3.15
G01 X0.4327 Y0.0803 F3.15
G01 X0.4317 Y0.0792 F3.15
G01 X0.4307 Y0.0781 F3.15
G01 X0.4298 Y0.0769 F3.15
G01 X0.4289 Y0.0757 F3.15
G01 X0.4282 Y0.0744 F3.15
G01 X0.4274 Y0.0731 F3.15
G01 X0.4268 Y0.0718 F3.15
G01 X0.4262 Y0.0705 F3.15
G01 X0.4256 Y0.0691 F3.15
G01 X0.4252 Y0.0677 F3.15
G01 X0.4248 Y0.0663 F3.15
G01 X0.4244 Y0.0648 F3.15
G01 X0.4242 Y0.0634 F3.15
G01 X0.4240 Y0.0619 F3.15
G01 X0.4239 Y0.0604 F3.15
G01 X0.4239 Y0.0589 F3.15
G01 X0.4239 Y0.0575 F3.15
G01 X0.4240 Y0.0560 F3.15
G01 X0.4242 Y0.0545 F3.15
G01 X0.4244 Y0.0531 F3.15
G01 X0.4248 Y0.0516 F3.15
G01 X0.4252 Y0.0502 F3.15
G01 X0.4256 Y0.0488 F3.15
G01 X0.4262 Y0.0474 F3.15
G01 X0.4268 Y0.0460 F3.15
G01 X0.4274 Y0.0447 F3.15
G01 X0.4282 Y0.0434 F3.15
G01 X0.4289 Y0.0422 F3.15
G01 X0.4298 Y0.0410 F3.15
G01 X0.4305 Y0.0401 F3.15
G00 Z0.0787
G00 X0.5779 Y0.0825
G01 F3.15
G01 Z-0.0945
G01 F3.15
G01 X0.5770 Y0.0832 F3.15
G01 X0.5758 Y0.0840 F3.15
G01 X0.5745 Y0.0848 F3.15
G01 X0.5732 Y0.0855 F3.15
G01 X0.5719 Y0.0862 F3.15
G01 X0.5706 Y0.0868 F3.15
G01 X0.5692 Y0.0873 F3.15
G01 X0.5678 Y0.0878 F3.15
G01 X0.5663 Y0.0882 F3.15
G01 X0.5649 Y0.0885 F3.15
G01 X0.5634 Y0.0888 F3.15
G01 X0.5620 Y0.0889 F3.15
G01 X0.5605 Y0.0891 F3.15
G01 X0.5590 Y0.0891 F3.15
G01 X0.5575 Y0.0891 F3.15
G01 X0.5561 Y0.0889 F3.15
G01 X0.5546 Y0.0888 F3.15
G01 X0.5531 Y0.0885 F3.15
G01 X0.5517 Y0.0882 F3.15
G01 X0.5503 Y0.0878 F3.15
G01 X0.5489 Y0.0873 F3.15
G01 X0.5475 Y0.0868 F3.15
G01 X0.5461 Y0.0862 F3.15
G01 X0.5448 Y0.0855 F3.15
G01 X0.5435 Y0.0848 F3.15
G01 X0.5423 Y0.0840 F3.15
G01 X0.5411 Y0.0832 F3.15
G01 X0.5399 Y0.0822 F3.15
G01 X0.5388 Y0.0813 F3.15
G01 X0.5377 Y0.0803 F3.15
G01 X0.5367 Y0.0792 F3.15
G01 X0.5357 Y0.0781 F3.15
G01 X0.5348 Y0.0769 F3.15
G01 X0.5339 Y0.0757 F3.15
G01 X0.5332 Y0.0744 F3.15
G01 X0.5324 Y0.0731 F3.15
G01 X0.5318 Y0.0718 F3.15
G01 X0.5312 Y0.0705 F3.15
G01 X0.5306 Y0.0691 F3.15
G01 X0.5302 Y0.0677 F3.15
G01 X0.5298 Y0.0663 F3.15
G01 X0.5294 Y0.0648 F3.15
G01 X0.5292 Y0.0634 F3.15
G01 X0.5290 Y0.0619 F3.15
G01 X0.5289 Y0.0604 F3.15
G01 X0.5289 Y0.0589 F3.15
G01 X0.5289 Y0.0575 F3.15
G01 X0.5290 Y0.0560 F3.15
G01 X0.5292 Y0.0545 F3.15
G01 X0.5294 Y0.0531 F3.15
G01 X0.5298 Y0.0516 F3.15
G01 X0.5302 Y0.0502 F3.15
G01 X0.5306 Y0.0488 F3.15
G01 X0.5312 Y0.0474 F3.15
G01 X0.5318 Y0.0460 F3.15
G01 X0.5324 Y0.0447 F3.15
G01 X0.5332 Y0.0434 F3.15
G01 X0.5339 Y0.0422 F3.15
G01 X0.5348 Y0.0410 F3.15
G01 X0.5357 Y0.0398 F3.15
G01 X0.5367 Y0.0387 F3.15
G01 X0.5377 Y0.0376 F3.15
G01 X0.5388 Y0.0366 F3.15
G01 X0.5399 Y0.0356 F3.15
G01 X0.5411 Y0.0347 F3.15
G01 X0.5423 Y0.0339 F3.15
G01 X0.5435 Y0.0331 F3.15
G01 X0.5448 Y0.0323 F3.15
G01 X0.5461 Y0.0317 F3.15
G01 X0.5475 Y0.0311 F3.15
G01 X0.5489 Y0.0305 F3.15
G01 X0.5503 Y0.0301 F3.15
G01 X0.5517 Y0.0297 F3.15
G01 X0.5531 Y0.0294 F3.15
G01 X0.5546 Y0.0291 F3.15
G01 X0.5561 Y0.0289 F3.15
G01 X0.5575 Y0.0288 F3.15
G01 X0.5590 Y0.0288 F3.15
G01 X0.5605 Y0.0288 F3.15
G01 X0.5620 Y0.0289 F3.15
G01 X0.5634 Y0.0291 F3.15
G01 X0.5649 Y0.0294 F3.15
G01 X0.5663 Y0.0297 F3.15
G01 X0.5678 Y0.0301 F3.15
G01 X0.5692 Y0.0305 F3.15
G01 X0.5706 Y0.0311 F3.15
G01 X0.5719 Y0.0317 F3.15
G01 X0.5732 Y0.0323 F3.15
G01 X0.5745 Y0.0331 F3.15
G01 X0.5758 Y0.0339 F3.15
G01 X0.5770 Y0.0347 F3.15
G01 X0.5781 Y0.0356 F3.15
G01 X0.5793 Y0.0366 F3.15
G01 X0.5803 Y0.0376 F3.15
G01 X0.5814 Y0.0387 F3.15
G01 X0.5823 Y0.0398 F3.15
G01 X0.5832 Y0.0410 F3.15
G01 X0.5841 Y0.0422 F3.15
G01 X0.5849 Y0.0434 F3.15
G01 X0.5856 Y0.0447 F3.15
G01 X0.5863 Y0.0460 F3.15
G01 X0.5869 Y0.0474 F3.15
G01 X0.5874 Y0.0488 F3.15
G01 X0.5879 Y0.0502 F3.15
G01 X0.5883 Y0.0516 F3.15
G01 X0.5886 Y0.0531 F3.15
G01 X0.5888 Y0.0545 F3.15
G01 X0.5890 Y0.0560 F3.15
G01 X0.5891 Y0.0575 F3.15
G01 X0.5892 Y0.0589 F3.15
G01 X0.5891 Y0.0604 F3.15
G01 X0.5890 Y0.0619 F3.15
G01 X0.5888 Y0.0634 F3.15
G01 X0.5886 Y0.0648 F3.15
G01 X0.5883 Y0.0663 F3.15
G01 X0.5879 Y0.0677 F3.15
G01 X0.5874 Y0.0691 F3.15
G01 X0.5869 Y0.0705 F3.15
G01 X0.5863 Y0.0718 F3.15
G01 X0.5856 Y0.0731 F3.15
G01 X0.5849 Y0.0744 F3.15
G01 X0.5841 Y0.0757 F3.15
G01 X0.5832 Y0.0769 F3.15
G01 X0.5825 Y0.0778 F3.15
G01 X0.7819 Y0.2772 F3.15
G01 X2.1401 Y0.2772 F3.15
G01 X2.1404 Y0.2772 F3.15
G01 X2.1409 Y0.2773 F3.15
G01 X2.1412 Y0.2774 F3.15
G01 X2.1415 Y0.2775 F3.15
G01 X2.1419 Y0.2777 F3.15
G01 X2.1423 Y0.2780 F3.15
G01 X2.1619 Y0.2976 F3.15
G01 X2.1885 Y0.2976 F3.15
G01 X2.1890 Y0.2976 F3.15
G01 X2.1895 Y0.2978 F3.15
G01 X2.1898 Y0.2979 F3.15
G01 X2.1901 Y0.2980 F3.15
G01 X2.1905 Y0.2983 F3.15
G01 X2.1907 Y0.2985 F3.15
G01 X2.2713 Y0.3791 F3.15
G01 X2.2717 Y0.3790 F3.15
G01 X2.2720 Y0.3790 F3.15
G01 X2.2726 Y0.3790 F3.15
G01 X2.2731 Y0.3791 F3.15
G01 X2.2737 Y0.3793 F3.15
G01 X2.2742 Y0.3795 F3.15
G01 X2.2747 Y0.3797 F3.15
G01 X2.2749 Y0.3798 F3.15
G01 X2.2754 Y0.3801 F3.15
G01 X2.2758 Y0.3805 F3.15
G01 X2.3141 Y0.4188 F3.15
G01 X2.3145 Y0.4192 F3.15
G01 X2.3148 Y0.4196 F3.15
G01 X2.3150 Y0.4199 F3.15
G01 X2.3152 Y0.4204 F3.15
G01 X2.3155 Y0.4209 F3.15
G01 X2.3155 Y0.4212 F3.15
G01 X2.3156 Y0.4214 F3.15
G01 X2.3157 Y0.4220 F3.15
G01 X2.3158 Y0.4225 F3.15
G01 X2.3158 Y0.4228 F3.15
G01 X2.3158 Y0.4233 F3.15
G01 X2.3157 Y0.4239 F3.15
G01 X2.3155 Y0.4244 F3.15
G01 X2.3155 Y0.4247 F3.15
G01 X2.3154 Y0.4250 F3.15
G01 X2.3151 Y0.4255 F3.15
G01 X2.3148 Y0.4259 F3.15
G01 X2.3145 Y0.4264 F3.15
G01 X2.3143 Y0.4266 F3.15
G01 X2.3141 Y0.4268 F3.15
G01 X2.3137 Y0.4272 F3.15
G01 X2.3133 Y0.4275 F3.15
G01 X2.3128 Y0.4278 F3.15
G01 X2.3125 Y0.4279 F3.15
G01 X2.3123 Y0.4280 F3.15
G01 X2.3118 Y0.4282 F3.15
G01 X2.3115 Y0.4283 F3.15
G01 X2.3110 Y0.4284 F3.15
G01 X2.3104 Y0.4285 F3.15
G01 X2.3098 Y0.4285 F3.15
G01 X2.3096 Y0.4284 F3.15
G01 X2.3093 Y0.4284 F3.15
G01 X2.3087 Y0.4283 F3.15
G01 X2.3082 Y0.4281 F3.15
G01 X2.3077 Y0.4279 F3.15
G01 X2.3074 Y0.4278 F3.15
G01 X2.3072 Y0.4277 F3.15
G01 X2.3067 Y0.4273 F3.15
G01 X2.3063 Y0.4270 F3.15
G01 X2.2678 Y0.3885 F3.15
G01 X2.2675 Y0.3881 F3.15
G01 X2.2673 Y0.3878 F3.15
G01 X2.2670 Y0.3874 F3.15
G01 X2.2668 Y0.3869 F3.15
G01 X2.2666 Y0.3863 F3.15
G01 X2.2665 Y0.3858 F3.15
G01 X2.2664 Y0.3855 F3.15
G01 X2.2663 Y0.3850 F3.15
G01 X2.2664 Y0.3844 F3.15
G01 X2.2664 Y0.3841 F3.15
G01 X2.2664 Y0.3836 F3.15
G01 X2.1870 Y0.3042 F3.15
G01 X2.1605 Y0.3042 F3.15
G01 X2.1602 Y0.3042 F3.15
G01 X2.1599 Y0.3041 F3.15
G01 X2.1596 Y0.3040 F3.15
G01 X2.1593 Y0.3039 F3.15
G01 X2.1590 Y0.3038 F3.15
G01 X2.1587 Y0.3036 F3.15
G01 X2.1584 Y0.3034 F3.15
G01 X2.1582 Y0.3032 F3.15
G01 X2.1387 Y0.2838 F3.15
G01 X0.7805 Y0.2838 F3.15
G01 X0.7802 Y0.2838 F3.15
G01 X0.7799 Y0.2837 F3.15
G01 X0.7794 Y0.2836 F3.15
G01 X0.7790 Y0.2834 F3.15
G01 X0.7785 Y0.2831 F3.15
G01 X0.7782 Y0.2828 F3.15
G01 X0.5779 Y0.0825 F3.15
G00 Z0.0787
G00 X0.6779 Y0.0825
G01 F3.15
G01 Z-0.0945
G01 F3.15
G01 X0.6770 Y0.0832 F3.15
G01 X0.6758 Y0.0840 F3.15
G01 X0.6745 Y0.0848 F3.15
G01 X0.6732 Y0.0855 F3.15
G01 X0.6719 Y0.0862 F3.15
G01 X0.6706 Y0.0868 F3.15
G01 X0.6692 Y0.0873 F3.15
G01 X0.6678 Y0.0878 F3.15
G01 X0.6663 Y0.0882 F3.15
G01 X0.6649 Y0.0885 F3.15
G01 X0.6634 Y0.0888 F3.15
G01 X0.6620 Y0.0889 F3.15
G01 X0.6605 Y0.0891 F3.15
G01 X0.6590 Y0.0891 F3.15
G01 X0.6575 Y0.0891 F3.15
G01 X0.6561 Y0.0889 F3.15
G01 X0.6546 Y0.0888 F3.15
G01 X0.6531 Y0.0885 F3.15
G01 X0.6517 Y0.0882 F3.15
G01 X0.6503 Y0.0878 F3.15
G01 X0.6489 Y0.0873 F3.15
G01 X0.6475 Y0.0868 F3.15
G01 X0.6461 Y0.0862 F3.15
G01 X0.6448 Y0.0855 F3.15
G01 X0.6435 Y0.0848 F3.15
G01 X0.6423 Y0.0840 F3.15
G01 X0.6411 Y0.0832 F3.15
G01 X0.6399 Y0.0822 F3.15
G01 X0.6388 Y0.0813 F3.15
G01 X0.6377 Y0.0803 F3.15
G01 X0.6367 Y0.0792 F3.15
G01 X0.6357 Y0.0781 F3.15
G01 X0.6348 Y0.0769 F3.15
G01 X0.6339 Y0.0757 F3.15
G01 X0.6332 Y0.0744 F3.15
G01 X0.6324 Y0.0731 F3.15
G01 X0.6318 Y0.0718 F3.15
G01 X0.6312 Y0.0705 F3.15
G01 X0.6306 Y0.0691 F3.15
G01 X0.6302 Y0.0677 F3.15
G01 X0.6298 Y0.0663 F3.15
G01 X0.6294 Y0.0648 F3.15
G01 X0.6292 Y0.0634 F3.15
G01 X0.6290 Y0.0619 F3.15
G01 X0.6289 Y0.0604 F3.15
G01 X0.6289 Y0.0589 F3.15
G01 X0.6289 Y0.0575 F3.15
G01 X0.6290 Y0.0560 F3.15
G01 X0.6292 Y0.0545 F3.15
G01 X0.6294 Y0.0531 F3.15
G01 X0.6298 Y0.0516 F3.15
G01 X0.6302 Y0.0502 F3.15
G01 X0.6306 Y0.0488 F3.15
G01 X0.6312 Y0.0474 F3.15
G01 X0.6318 Y0.0460 F3.15
G01 X0.6324 Y0.0447 F3.15
G01 X0.6332 Y0.0434 F3.15
G01 X0.6339 Y0.0422 F3.15
G01 X0.6348 Y0.0410 F3.15
G01 X0.6357 Y0.0398 F3.15
G01 X0.6367 Y0.0387 F3.15
G01 X0.6377 Y0.0376 F3.15
G01 X0.6388 Y0.0366 F3.15
G01 X0.6399 Y0.0356 F3.15
G01 X0.6411 Y0.0347 F3.15
G01 X0.6423 Y0.0339 F3.15
G01 X0.6435 Y0.0331 F3.15
G01 X0.6448 Y0.0323 F3.15
G01 X0.6461 Y0.0317 F3.15
G01 X0.6475 Y0.0311 F3.15
G01 X0.6489 Y0.0305 F3.15
G01 X0.6503 Y0.0301 F3.15
G01 X0.6517 Y0.0297 F3.15
G01 X0.6531 Y0.0294 F3.15
G01 X0.6546 Y0.0291 F3.15
G01 X0.6561 Y0.0289 F3.15
G01 X0.6575 Y0.0288 F3.15
G01 X0.6590 Y0.0288 F3.15
G01 X0.6605 Y0.0288 F3.15
G01 X0.6620 Y0.0289 F3.15
G01 X0.6634 Y0.0291 F3.15
G01 X0.6649 Y0.0294 F3.15
G01 X0.6663 Y0.0297 F3.15
G01 X0.6678 Y0.0301 F3.15
G01 X0.6692 Y0.0305 F3.15
G01 X0.6706 Y0.0311 F3.15
G01 X0.6719 Y0.0317 F3.15
G01 X0.6732 Y0.0323 F3.15
G01 X0.6745 Y0.0331 F3.15
G01 X0.6758 Y0.0339 F3.15
G01 X0.6770 Y0.0347 F3.15
G01 X0.6781 Y0.0356 F3.15
G01 X0.6793 Y0.0366 F3.15
G01 X0.6803 Y0.0376 F3.15
G01 X0.6814 Y0.0387 F3.15
G01 X0.6823 Y0.0398 F3.15
G01 X0.6832 Y0.0410 F3.15
G01 X0.6841 Y0.0422 F3.15
G01 X0.6849 Y0.0434 F3.15
G01 X0.6856 Y0.0447 F3.15
G01 X0.6863 Y0.0460 F3.15
G01 X0.6869 Y0.0474 F3.15
G01 X0.6874 Y0.0488 F3.15
G01 X0.6879 Y0.0502 F3.15
G01 X0.6883 Y0.0516 F3.15
G01 X0.6886 Y0.0531 F3.15
G01 X0.6888 Y0.0545 F3.15
G01 X0.6890 Y0.0560 F3.15
G01 X0.6891 Y0.0575 F3.15
G01 X0.6892 Y0.0589 F3.15
G01 X0.6891 Y0.0604 F3.15
G01 X0.6890 Y0.0619 F3.15
G01 X0.6888 Y0.0634 F3.15
G01 X0.6886 Y0.0648 F3.15
G01 X0.6883 Y0.0663 F3.15
G01 X0.6879 Y0.0677 F3.15
G01 X0.6874 Y0.0691 F3.15
G01 X0.6869 Y0.0705 F3.15
G01 X0.6863 Y0.0718 F3.15
G01 X0.6856 Y0.0731 F3.15
G01 X0.6849 Y0.0744 F3.15
G01 X0.6841 Y0.0757 F3.15
G01 X0.6832 Y0.0769 F3.15
G01 X0.6825 Y0.0778 F3.15
G01 X0.8692 Y0.2643 F3.15
G01 X2.1505 Y0.2643 F3.15
G01 X2.1508 Y0.2644 F3.15
G01 X2.1513 Y0.2644 F3.15
G01 X2.1518 Y0.2646 F3.15
G01 X2.1521 Y0.2647 F3.15
G01 X2.1523 Y0.2649 F3.15
G01 X2.1527 Y0.2652 F3.15
G01 X2.1653 Y0.2778 F3.15
G01 X2.1964 Y0.2778 F3.15
G01 X2.1967 Y0.2778 F3.15
G01 X2.1970 Y0.2778 F3.15
G01 X2.1975 Y0.2780 F3.15
G01 X2.1979 Y0.2782 F3.15
G01 X2.1982 Y0.2783 F3.15
G01 X2.1985 Y0.2785 F3.15
G01 X2.1987 Y0.2787 F3.15
G01 X2.2851 Y0.3651 F3.15
G01 X2.2856 Y0.3651 F3.15
G01 X2.2859 Y0.3651 F3.15
G01 X2.2865 Y0.3651 F3.15
G01 X2.2870 Y0.3652 F3.15
G01 X2.2875 Y0.3653 F3.15
G01 X2.2881 Y0.3655 F3.15
G01 X2.2886 Y0.3658 F3.15
G01 X2.2888 Y0.3659 F3.15
G01 X2.2893 Y0.3662 F3.15
G01 X2.2897 Y0.3666 F3.15
G01 X2.3281 Y0.4049 F3.15
G01 X2.3284 Y0.4053 F3.15
G01 X2.3288 Y0.4057 F3.15
G01 X2.3289 Y0.4060 F3.15
G01 X2.3292 Y0.4065 F3.15
G01 X2.3294 Y0.4070 F3.15
G01 X2.3295 Y0.4073 F3.15
G01 X2.3296 Y0.4078 F3.15
G01 X2.3297 Y0.4083 F3.15
G01 X2.3297 Y0.4086 F3.15
G01 X2.3297 Y0.4092 F3.15
G01 X2.3297 Y0.4097 F3.15
G01 X2.3296 Y0.4100 F3.15
G01 X2.3295 Y0.4103 F3.15
G01 X2.3294 Y0.4108 F3.15
G01 X2.3292 Y0.4113 F3.15
G01 X2.3289 Y0.4118 F3.15
G01 X2.3288 Y0.4120 F3.15
G01 X2.3286 Y0.4123 F3.15
G01 X2.3283 Y0.4127 F3.15
G01 X2.3281 Y0.4129 F3.15
G01 X2.3277 Y0.4133 F3.15
G01 X2.3272 Y0.4136 F3.15
G01 X2.3267 Y0.4139 F3.15
G01 X2.3265 Y0.4140 F3.15
G01 X2.3262 Y0.4141 F3.15
G01 X2.3257 Y0.4143 F3.15
G01 X2.3254 Y0.4144 F3.15
G01 X2.3249 Y0.4145 F3.15
G01 X2.3243 Y0.4146 F3.15
G01 X2.3238 Y0.4146 F3.15
G01 X2.3235 Y0.4145 F3.15
G01 X2.3232 Y0.4145 F3.15
G01 X2.3227 Y0.4144 F3.15
G01 X2.3221 Y0.4142 F3.15
G01 X2.3216 Y0.4140 F3.15
G01 X2.3214 Y0.4139 F3.15
G01 X2.3211 Y0.4138 F3.15
G01 X2.3207 Y0.4134 F3.15
G01 X2.3202 Y0.4131 F3.15
G01 X2.2817 Y0.3746 F3.15
G01 X2.2814 Y0.3741 F3.15
G01 X2.2810 Y0.3737 F3.15
G01 X2.2809 Y0.3734 F3.15
G01 X2.2807 Y0.3729 F3.15
G01 X2.2805 Y0.3724 F3.15
G01 X2.2804 Y0.3719 F3.15
G01 X2.2803 Y0.3716 F3.15
G01 X2.2802 Y0.3710 F3.15
G01 X2.2802 Y0.3705 F3.15
G01 X2.2803 Y0.3702 F3.15
G01 X2.2803 Y0.3697 F3.15
G01 X2.1950 Y0.2844 F3.15
G01 X2.1639 Y0.2844 F3.15
G01 X2.1634 Y0.2843 F3.15
G01 X2.1629 Y0.2842 F3.15
G01 X2.1625 Y0.2840 F3.15
G01 X2.1622 Y0.2839 F3.15
G01 X2.1619 Y0.2837 F3.15
G01 X2.1616 Y0.2834 F3.15
G01 X2.1491 Y0.2709 F3.15
G01 X0.8678 Y0.2709 F3.15
G01 X0.8675 Y0.2709 F3.15
G01 X0.8672 Y0.2709 F3.15
G01 X0.8667 Y0.2707 F3.15
G01 X0.8662 Y0.2705 F3.15
G01 X0.8658 Y0.2703 F3.15
G01 X0.8655 Y0.2700 F3.15
G01 X0.6779 Y0.0825 F3.15
G00 Z0.0787
G00 X0.7779 Y0.0354
G01 F3.15
G01 Z-0.0945
G01 F3.15
G01 X0.8051 Y0.0082 F3.15
G01 X0.8053 Y0.0080 F3.15
G01 X0.8056 Y0.0078 F3.15
G01 X0.8058 Y0.0076 F3.15
G01 X0.8061 Y0.0075 F3.15
G01 X0.8064 Y0.0074 F3.15
G01 X0.8068 Y0.0073 F3.15
G01 X0.8071 Y0.0073 F3.15
G01 X0.8074 Y0.0073 F3.15
G01 X2.5768 Y0.0073 F3.15
G01 X2.5771 Y0.0073 F3.15
G01 X2.5774 Y0.0073 F3.15
G01 X2.5777 Y0.0074 F3.15
G01 X2.5780 Y0.0076 F3.15
G01 X2.5785 Y0.0078 F3.15
G01 X2.5787 Y0.0080 F3.15
G01 X2.5789 Y0.0082 F3.15
G01 X2.6079 Y0.0372 F3.15
G01 X2.6082 Y0.0376 F3.15
G01 X2.6085 Y0.0380 F3.15
G01 X2.6087 Y0.0385 F3.15
G01 X2.6088 Y0.0389 F3.15
G01 X2.6089 Y0.0392 F3.15
G01 X2.6089 Y0.0396 F3.15
G01 X2.6089 Y0.1571 F3.15
G01 X2.6089 Y0.1575 F3.15
G01 X2.6088 Y0.1578 F3.15
G01 X2.6087 Y0.1581 F3.15
G01 X2.6086 Y0.1584 F3.15
G01 X2.6083 Y0.1588 F3.15
G01 X2.6081 Y0.1591 F3.15
G01 X2.6079 Y0.1593 F3.15
G01 X2.3636 Y0.4036 F3.15
G01 X2.3632 Y0.4039 F3.15
G01 X2.3629 Y0.4041 F3.15
G01 X2.3626 Y0.4042 F3.15
G01 X2.3622 Y0.4043 F3.15
G01 X2.3619 Y0.4044 F3.15
G01 X2.3615 Y0.4044 F3.15
G01 X2.3442 Y0.4044 F3.15
G01 X2.3438 Y0.4044 F3.15
G01 X2.3433 Y0.4042 F3.15
G01 X2.3429 Y0.4041 F3.15
G01 X2.3424 Y0.4038 F3.15
G01 X2.3421 Y0.4035 F3.15
G01 X2.3391 Y0.4005 F3.15
G01 X2.3385 Y0.4006 F3.15
G01 X2.3380 Y0.4006 F3.15
G01 X2.3374 Y0.4006 F3.15
G01 X2.3372 Y0.4006 F3.15
G01 X2.3366 Y0.4005 F3.15
G01 X2.3361 Y0.4003 F3.15
G01 X2.3358 Y0.4002 F3.15
G01 X2.3353 Y0.4000 F3.15
G01 X2.3348 Y0.3997 F3.15
G01 X2.3344 Y0.3993 F3.15
G01 X2.3342 Y0.3992 F3.15
G01 X2.2956 Y0.3606 F3.15
G01 X2.2953 Y0.3602 F3.15
G01 X2.2950 Y0.3597 F3.15
G01 X2.2947 Y0.3592 F3.15
G01 X2.2945 Y0.3587 F3.15
G01 X2.2943 Y0.3582 F3.15
G01 X2.2942 Y0.3576 F3.15
G01 X2.2942 Y0.3571 F3.15
G01 X2.2942 Y0.3568 F3.15
G01 X2.2942 Y0.3563 F3.15
G01 X2.2943 Y0.3557 F3.15
G01 X2.2944 Y0.3552 F3.15
G01 X2.2946 Y0.3546 F3.15
G01 X2.2948 Y0.3541 F3.15
G01 X2.2951 Y0.3537 F3.15
G01 X2.2955 Y0.3532 F3.15
G01 X2.2958 Y0.3528 F3.15
G01 X2.2962 Y0.3524 F3.15
G01 X2.2967 Y0.3521 F3.15
G01 X2.2972 Y0.3518 F3.15
G01 X2.2977 Y0.3516 F3.15
G01 X2.2982 Y0.3514 F3.15
G01 X2.2987 Y0.3513 F3.15
G01 X2.2993 Y0.3512 F3.15
G01 X2.2998 Y0.3511 F3.15
G01 X2.3004 Y0.3512 F3.15
G01 X2.3007 Y0.3512 F3.15
G01 X2.3012 Y0.3513 F3.15
G01 X2.3018 Y0.3515 F3.15
G01 X2.3023 Y0.3517 F3.15
G01 X2.3028 Y0.3520 F3.15
G01 X2.3032 Y0.3523 F3.15
G01 X2.3036 Y0.3526 F3.15
G01 X2.3422 Y0.3912 F3.15
G01 X2.3425 Y0.3916 F3.15
G01 X2.3429 Y0.3921 F3.15
G01 X2.3431 Y0.3925 F3.15
G01 X2.3432 Y0.3928 F3.15
G01 X2.3434 Y0.3933 F3.15
G01 X2.3435 Y0.3939 F3.15
G01 X2.3436 Y0.3944 F3.15
G01 X2.3437 Y0.3950 F3.15
G01 X2.3436 Y0.3952 F3.15
G01 X2.3436 Y0.3957 F3.15
G01 X2.3458 Y0.3978 F3.15
G01 X2.3600 Y0.3978 F3.15
G01 X2.6023 Y0.1556 F3.15
G01 X2.6023 Y0.0409 F3.15
G01 X2.5752 Y0.0139 F3.15
G01 X0.8088 Y0.0139 F3.15
G01 X0.7825 Y0.0401 F3.15
G01 X0.7832 Y0.0410 F3.15
G01 X0.7841 Y0.0422 F3.15
G01 X0.7849 Y0.0434 F3.15
G01 X0.7856 Y0.0447 F3.15
G01 X0.7863 Y0.0460 F3.15
G01 X0.7869 Y0.0474 F3.15
G01 X0.7874 Y0.0488 F3.15
G01 X0.7879 Y0.0502 F3.15
G01 X0.7883 Y0.0516 F3.15
G01 X0.7886 Y0.0531 F3.15
G01 X0.7888 Y0.0545 F3.15
G01 X0.7890 Y0.0560 F3.15
G01 X0.7891 Y0.0575 F3.15
G01 X0.7892 Y0.0589 F3.15
G01 X0.7891 Y0.0604 F3.15
G01 X0.7890 Y0.0619 F3.15
G01 X0.7888 Y0.0634 F3.15
G01 X0.7886 Y0.0648 F3.15
G01 X0.7883 Y0.0663 F3.15
G01 X0.7879 Y0.0677 F3.15
G01 X0.7874 Y0.0691 F3.15
G01 X0.7869 Y0.0705 F3.15
G01 X0.7863 Y0.0718 F3.15
G01 X0.7856 Y0.0731 F3.15
G01 X0.7849 Y0.0744 F3.15
G01 X0.7841 Y0.0757 F3.15
G01 X0.7832 Y0.0769 F3.15
G01 X0.7823 Y0.0781 F3.15
G01 X0.7814 Y0.0792 F3.15
G01 X0.7803 Y0.0803 F3.15
G01 X0.7793 Y0.0813 F3.15
G01 X0.7781 Y0.0822 F3.15
G01 X0.7770 Y0.0832 F3.15
G01 X0.7758 Y0.0840 F3.15
G01 X0.7745 Y0.0848 F3.15
G01 X0.7732 Y0.0855 F3.15
G01 X0.7719 Y0.0862 F3.15
G01 X0.7706 Y0.0868 F3.15
G01 X0.7692 Y0.0873 F3.15
G01 X0.7678 Y0.0878 F3.15
G01 X0.7663 Y0.0882 F3.15
G01 X0.7649 Y0.0885 F3.15
G01 X0.7634 Y0.0888 F3.15
G01 X0.7620 Y0.0889 F3.15
G01 X0.7605 Y0.0891 F3.15
G01 X0.7590 Y0.0891 F3.15
G01 X0.7575 Y0.0891 F3.15
G01 X0.7561 Y0.0889 F3.15
G01 X0.7546 Y0.0888 F3.15
G01 X0.7531 Y0.0885 F3.15
G01 X0.7517 Y0.0882 F3.15
G01 X0.7503 Y0.0878 F3.15
G01 X0.7489 Y0.0873 F3.15
G01 X0.7475 Y0.0868 F3.15
G01 X0.7461 Y0.0862 F3.15
G01 X0.7448 Y0.0855 F3.15
G01 X0.7435 Y0.0848 F3.15
G01 X0.7423 Y0.0840 F3.15
G01 X0.7411 Y0.0832 F3.15
G01 X0.7399 Y0.0822 F3.15
G01 X0.7388 Y0.0813 F3.15
G01 X0.7377 Y0.0803 F3.15
G01 X0.7367 Y0.0792 F3.15
G01 X0.7357 Y0.0781 F3.15
G01 X0.7348 Y0.0769 F3.15
G01 X0.7339 Y0.0757 F3.15
G01 X0.7332 Y0.0744 F3.15
G01 X0.7324 Y0.0731 F3.15
G01 X0.7318 Y0.0718 F3.15
G01 X0.7312 Y0.0705 F3.15
G01 X0.7306 Y0.0691 F3.15
G01 X0.7302 Y0.0677 F3.15
G01 X0.7298 Y0.0663 F3.15
G01 X0.7294 Y0.0648 F3.15
G01 X0.7292 Y0.0634 F3.15
G01 X0.7290 Y0.0619 F3.15
G01 X0.7289 Y0.0604 F3.15
G01 X0.7289 Y0.0589 F3.15
G01 X0.7289 Y0.0575 F3.15
G01 X0.7290 Y0.0560 F3.15
G01 X0.7292 Y0.0545 F3.15
G01 X0.7294 Y0.0531 F3.15
G01 X0.7298 Y0.0516 F3.15
G01 X0.7302 Y0.0502 F3.15
G01 X0.7306 Y0.0488 F3.15
G01 X0.7312 Y0.0474 F3.15
G01 X0.7318 Y0.0460 F3.15
G01 X0.7324 Y0.0447 F3.15
G01 X0.7332 Y0.0434 F3.15
G01 X0.7339 Y0.0422 F3.15
G01 X0.7348 Y0.0410 F3.15
G01 X0.7357 Y0.0398 F3.15
G01 X0.7367 Y0.0387 F3.15
G01 X0.7377 Y0.0376 F3.15
G01 X0.7388 Y0.0366 F3.15
G01 X0.7399 Y0.0356 F3.15
G01 X0.7411 Y0.0347 F3.15
G01 X0.7423 Y0.0339 F3.15
G01 X0.7435 Y0.0331 F3.15
G01 X0.7448 Y0.0323 F3.15
G01 X0.7461 Y0.0317 F3.15
G01 X0.7475 Y0.0311 F3.15
G01 X0.7489 Y0.0305 F3.15
G01 X0.7503 Y0.0301 F3.15
G01 X0.7517 Y0.0297 F3.15
G01 X0.7531 Y0.0294 F3.15
G01 X0.7546 Y0.0291 F3.15
G01 X0.7561 Y0.0289 F3.15
G01 X0.7575 Y0.0288 F3.15
G01 X0.7590 Y0.0288 F3.15
G01 X0.7605 Y0.0288 F3.15
G01 X0.7620 Y0.0289 F3.15
G01 X0.7634 Y0.0291 F3.15
G01 X0.7649 Y0.0294 F3.15
G01 X0.7663 Y0.0297 F3.15
G01 X0.7678 Y0.0301 F3.15
G01 X0.7692 Y0.0305 F3.15
G01 X0.7706 Y0.0311 F3.15
G01 X0.7719 Y0.0317 F3.15
G01 X0.7732 Y0.0323 F3.15
G01 X0.7745 Y0.0331 F3.15
G01 X0.7758 Y0.0339 F3.15
G01 X0.7770 Y0.0347 F3.15
G01 X0.7779 Y0.0354 F3.15
G00 Z0.0787
G00 X0.8779 Y0.0825
G01 F3.15
G01 Z-0.0945
G01 F3.15
G01 X0.8770 Y0.0832 F3.15
G01 X0.8758 Y0.0840 F3.15
G01 X0.8745 Y0.0848 F3.15
G01 X0.8732 Y0.0855 F3.15
G01 X0.8719 Y0.0862 F3.15
G01 X0.8706 Y0.0868 F3.15
G01 X0.8692 Y0.0873 F3.15
G01 X0.8678 Y0.0878 F3.15
G01 X0.8663 Y0.0882 F3.15
G01 X0.8649 Y0.0885 F3.15
G01 X0.8634 Y0.0888 F3.15
G01 X0.8620 Y0.0889 F3.15
G01 X0.8605 Y0.0891 F3.15
G01 X0.8590 Y0.0891 F3.15
G01 X0.8575 Y0.0891 F3.15
G01 X0.8561 Y0.0889 F3.15
G01 X0.8546 Y0.0888 F3.15
G01 X0.8531 Y0.0885 F3.15
G01 X0.8517 Y0.0882 F3.15
G01 X0.8503 Y0.0878 F3.15
G01 X0.8489 Y0.0873 F3.15
G01 X0.8475 Y0.0868 F3.15
G01 X0.8461 Y0.0862 F3.15
G01 X0.8448 Y0.0855 F3.15
G01 X0.8435 Y0.0848 F3.15
G01 X0.8423 Y0.0840 F3.15
G01 X0.8411 Y0.0832 F3.15
G01 X0.8399 Y0.0822 F3.15
G01 X0.8388 Y0.0813 F3.15
G01 X0.8377 Y0.0803 F3.15
G01 X0.8367 Y0.0792 F3.15
G01 X0.8357 Y0.0781 F3.15
G01 X0.8348 Y0.0769 F3.15
G01 X0.8339 Y0.0757 F3.15
G01 X0.8332 Y0.0744 F3.15
G01 X0.8324 Y0.0731 F3.15
G01 X0.8318 Y0.0718 F3.15
G01 X0.8312 Y0.0705 F3.15
G01 X0.8306 Y0.0691 F3.15
G01 X0.8302 Y0.0677 F3.15
G01 X0.8298 Y0.0663 F3.15
G01 X0.8294 Y0.0648 F3.15
G01 X0.8292 Y0.0634 F3.15
G01 X0.8290 Y0.0619 F3.15
G01 X0.8289 Y0.0604 F3.15
G01 X0.8289 Y0.0589 F3.15
G01 X0.8289 Y0.0575 F3.15
G01 X0.8290 Y0.0560 F3.15
G01 X0.8292 Y0.0545 F3.15
G01 X0.8294 Y0.0531 F3.15
G01 X0.8298 Y0.0516 F3.15
G01 X0.8302 Y0.0502 F3.15
G01 X0.8306 Y0.0488 F3.15
G01 X0.8312 Y0.0474 F3.15
G01 X0.8318 Y0.0460 F3.15
G01 X0.8324 Y0.0447 F3.15
G01 X0.8332 Y0.0434 F3.15
G01 X0.8339 Y0.0422 F3.15
G01 X0.8348 Y0.0410 F3.15
G01 X0.8357 Y0.0398 F3.15
G01 X0.8367 Y0.0387 F3.15
G01 X0.8377 Y0.0376 F3.15
G01 X0.8388 Y0.0366 F3.15
G01 X0.8399 Y0.0356 F3.15
G01 X0.8411 Y0.0347 F3.15
G01 X0.8423 Y0.0339 F3.15
G01 X0.8435 Y0.0331 F3.15
G01 X0.8448 Y0.0323 F3.15
G01 X0.8461 Y0.0317 F3.15
G01 X0.8475 Y0.0311 F3.15
G01 X0.8489 Y0.0305 F3.15
G01 X0.8503 Y0.0301 F3.15
G01 X0.8517 Y0.0297 F3.15
G01 X0.8531 Y0.0294 F3.15
G01 X0.8546 Y0.0291 F3.15
G01 X0.8561 Y0.0289 F3.15
G01 X0.8575 Y0.0288 F3.15
G01 X0.8590 Y0.0288 F3.15
G01 X0.8605 Y0.0288 F3.15
G01 X0.8620 Y0.0289 F3.15
G01 X0.8634 Y0.0291 F3.15
G01 X0.8649 Y0.0294 F3.15
G01 X0.8663 Y0.0297 F3.15
G01 X0.8678 Y0.0301 F3.15
G01 X0.8692 Y0.0305 F3.15
G01 X0.8706 Y0.0311 F3.15
G01 X0.8719 Y0.0317 F3.15
G01 X0.8732 Y0.0323 F3.15
G01 X0.8745 Y0.0331 F3.15
G01 X0.8758 Y0.0339 F3.15
G01 X0.8770 Y0.0347 F3.15
G01 X0.8781 Y0.0356 F3.15
G01 X0.8793 Y0.0366 F3.15
G01 X0.8803 Y0.0376 F3.15
G01 X0.8814 Y0.0387 F3.15
G01 X0.8823 Y0.0398 F3.15
G01 X0.8832 Y0.0410 F3.15
G01 X0.8841 Y0.0422 F3.15
G01 X0.8849 Y0.0434 F3.15
G01 X0.8856 Y0.0447 F3.15
G01 X0.8863 Y0.0460 F3.15
G01 X0.8869 Y0.0474 F3.15
G01 X0.8874 Y0.0488 F3.15
G01 X0.8879 Y0.0502 F3.15
G01 X0.8883 Y0.0516 F3.15
G01 X0.8886 Y0.0531 F3.15
G01 X0.8888 Y0.0545 F3.15
G01 X0.8890 Y0.0560 F3.15
G01 X0.8891 Y0.0575 F3.15
G01 X0.8892 Y0.0589 F3.15
G01 X0.8891 Y0.0604 F3.15
G01 X0.8890 Y0.0619 F3.15
G01 X0.8888 Y0.0634 F3.15
G01 X0.8886 Y0.0648 F3.15
G01 X0.8883 Y0.0663 F3.15
G01 X0.8879 Y0.0677 F3.15
G01 X0.8874 Y0.0691 F3.15
G01 X0.8869 Y0.0705 F3.15
G01 X0.8863 Y0.0718 F3.15
G01 X0.8856 Y0.0731 F3.15
G01 X0.8849 Y0.0744 F3.15
G01 X0.8841 Y0.0757 F3.15
G01 X0.8832 Y0.0769 F3.15
G01 X0.8825 Y0.0778 F3.15
G01 X1.0564 Y0.2517 F3.15
G01 X2.1558 Y0.2517 F3.15
G01 X2.1561 Y0.2517 F3.15
G01 X2.1566 Y0.2518 F3.15
G01 X2.1571 Y0.2519 F3.15
G01 X2.1573 Y0.2521 F3.15
G01 X2.1576 Y0.2522 F3.15
G01 X2.1580 Y0.2525 F3.15
G01 X2.1705 Y0.2650 F3.15
G01 X2.2394 Y0.2650 F3.15
G01 X2.2399 Y0.2651 F3.15
G01 X2.2404 Y0.2652 F3.15
G01 X2.2408 Y0.2654 F3.15
G01 X2.2412 Y0.2656 F3.15
G01 X2.2415 Y0.2658 F3.15
G01 X2.2417 Y0.2660 F3.15
G01 X2.3130 Y0.3373 F3.15
G01 X2.3135 Y0.3373 F3.15
G01 X2.3137 Y0.3372 F3.15
G01 X2.3143 Y0.3373 F3.15
G01 X2.3148 Y0.3374 F3.15
G01 X2.3154 Y0.3375 F3.15
G01 X2.3159 Y0.3377 F3.15
G01 X2.3164 Y0.3379 F3.15
G01 X2.3166 Y0.3381 F3.15
G01 X2.3171 Y0.3384 F3.15
G01 X2.3175 Y0.3387 F3.15
G01 X2.3559 Y0.3771 F3.15
G01 X2.3563 Y0.3775 F3.15
G01 X2.3566 Y0.3779 F3.15
G01 X2.3567 Y0.3782 F3.15
G01 X2.3570 Y0.3786 F3.15
G01 X2.3572 Y0.3792 F3.15
G01 X2.3573 Y0.3794 F3.15
G01 X2.3574 Y0.3800 F3.15
G01 X2.3575 Y0.3805 F3.15
G01 X2.3575 Y0.3808 F3.15
G01 X2.3576 Y0.3811 F3.15
G01 X2.3575 Y0.3816 F3.15
G01 X2.3574 Y0.3822 F3.15
G01 X2.3574 Y0.3824 F3.15
G01 X2.3572 Y0.3830 F3.15
G01 X2.3570 Y0.3835 F3.15
G01 X2.3568 Y0.3840 F3.15
G01 X2.3566 Y0.3842 F3.15
G01 X2.3564 Y0.3844 F3.15
G01 X2.3561 Y0.3849 F3.15
G01 X2.3557 Y0.3853 F3.15
G01 X2.3553 Y0.3856 F3.15
G01 X2.3550 Y0.3858 F3.15
G01 X2.3548 Y0.3859 F3.15
G01 X2.3543 Y0.3862 F3.15
G01 X2.3538 Y0.3864 F3.15
G01 X2.3533 Y0.3866 F3.15
G01 X2.3530 Y0.3866 F3.15
G01 X2.3527 Y0.3867 F3.15
G01 X2.3522 Y0.3867 F3.15
G01 X2.3516 Y0.3867 F3.15
G01 X2.3511 Y0.3867 F3.15
G01 X2.3508 Y0.3866 F3.15
G01 X2.3505 Y0.3866 F3.15
G01 X2.3500 Y0.3864 F3.15
G01 X2.3495 Y0.3862 F3.15
G01 X2.3490 Y0.3859 F3.15
G01 X2.3487 Y0.3858 F3.15
G01 X2.3485 Y0.3856 F3.15
G01 X2.3481 Y0.3853 F3.15
G01 X2.3095 Y0.3467 F3.15
G01 X2.3092 Y0.3463 F3.15
G01 X2.3089 Y0.3458 F3.15
G01 X2.3087 Y0.3456 F3.15
G01 X2.3085 Y0.3451 F3.15
G01 X2.3084 Y0.3448 F3.15
G01 X2.3082 Y0.3443 F3.15
G01 X2.3081 Y0.3437 F3.15
G01 X2.3081 Y0.3435 F3.15
G01 X2.3081 Y0.3429 F3.15
G01 X2.3081 Y0.3424 F3.15
G01 X2.3082 Y0.3418 F3.15
G01 X2.2380 Y0.2716 F3.15
G01 X2.1691 Y0.2716 F3.15
G01 X2.1686 Y0.2716 F3.15
G01 X2.1681 Y0.2715 F3.15
G01 X2.1677 Y0.2713 F3.15
G01 X2.1673 Y0.2711 F3.15
G01 X2.1669 Y0.2708 F3.15
G01 X2.1544 Y0.2583 F3.15
G01 X1.0550 Y0.2583 F3.15
G01 X1.0547 Y0.2582 F3.15
G01 X1.0544 Y0.2582 F3.15
G01 X1.0539 Y0.2581 F3.15
G01 X1.0534 Y0.2579 F3.15
G01 X1.0530 Y0.2576 F3.15
G01 X1.0527 Y0.2573 F3.15
G01 X0.8779 Y0.0825 F3.15
G00 Z0.0787
G00 X0.9779 Y0.0825
G01 F3.15
G01 Z-0.0945
G01 F3.15
G01 X0.9770 Y0.0832 F3.15
G01 X0.9758 Y0.0840 F3.15
G01 X0.9745 Y0.0848 F3.15
G01 X0.9732 Y0.0855 F3.15
G01 X0.9719 Y0.0862 F3.15
G01 X0.9706 Y0.0868 F3.15
G01 X0.9692 Y0.0873 F3.15
G01 X0.9678 Y0.0878 F3.15
G01 X0.9663 Y0.0882 F3.15
G01 X0.9649 Y0.0885 F3.15
G01 X0.9634 Y0.0888 F3.15
G01 X0.9620 Y0.0889 F3.15
G01 X0.9605 Y0.0891 F3.15
G01 X0.9590 Y0.0891 F3.15
G01 X0.9575 Y0.0891 F3.15
G01 X0.9561 Y0.0889 F3.15
G01 X0.9546 Y0.0888 F3.15
G01 X0.9531 Y0.0885 F3.15
G01 X0.9517 Y0.0882 F3.15
G01 X0.9503 Y0.0878 F3.15
G01 X0.9489 Y0.0873 F3.15
G01 X0.9475 Y0.0868 F3.15
G01 X0.9461 Y0.0862 F3.15
G01 X0.9448 Y0.0855 F3.15
G01 X0.9435 Y0.0848 F3.15
G01 X0.9423 Y0.0840 F3.15
G01 X0.9411 Y0.0832 F3.15
G01 X0.9399 Y0.0822 F3.15
G01 X0.9388 Y0.0813 F3.15
G01 X0.9377 Y0.0803 F3.15
G01 X0.9367 Y0.0792 F3.15
G01 X0.9357 Y0.0781 F3.15
G01 X0.9348 Y0.0769 F3.15
G01 X0.9339 Y0.0757 F3.15
G01 X0.9332 Y0.0744 F3.15
G01 X0.9324 Y0.0731 F3.15
G01 X0.9318 Y0.0718 F3.15
G01 X0.9312 Y0.0705 F3.15
G01 X0.9306 Y0.0691 F3.15
G01 X0.9302 Y0.0677 F3.15
G01 X0.9298 Y0.0663 F3.15
G01 X0.9294 Y0.0648 F3.15
G01 X0.9292 Y0.0634 F3.15
G01 X0.9290 Y0.0619 F3.15
G01 X0.9289 Y0.0604 F3.15
G01 X0.9289 Y0.0589 F3.15
G01 X0.9289 Y0.0575 F3.15
G01 X0.9290 Y0.0560 F3.15
G01 X0.9292 Y0.0545 F3.15
G01 X0.9294 Y0.0531 F3.15
G01 X0.9298 Y0.0516 F3.15
G01 X0.9302 Y0.0502 F3.15
G01 X0.9306 Y0.0488 F3.15
G01 X0.9312 Y0.0474 F3.15
G01 X0.9318 Y0.0460 F3.15
G01 X0.9324 Y0.0447 F3.15
G01 X0.9332 Y0.0434 F3.15
G01 X0.9339 Y0.0422 F3.15
G01 X0.9348 Y0.0410 F3.15
G01 X0.9357 Y0.0398 F3.15
G01 X0.9367 Y0.0387 F3.15
G01 X0.9377 Y0.0376 F3.15
G01 X0.9388 Y0.0366 F3.15
G01 X0.9399 Y0.0356 F3.15
G01 X0.9411 Y0.0347 F3.15
G01 X0.9423 Y0.0339 F3.15
G01 X0.9435 Y0.0331 F3.15
G01 X0.9448 Y0.0323 F3.15
G01 X0.9461 Y0.0317 F3.15
G01 X0.9475 Y0.0311 F3.15
G01 X0.9489 Y0.0305 F3.15
G01 X0.9503 Y0.0301 F3.15
G01 X0.9517 Y0.0297 F3.15
G01 X0.9531 Y0.0294 F3.15
G01 X0.9546 Y0.0291 F3.15
G01 X0.9561 Y0.0289 F3.15
G01 X0.9575 Y0.0288 F3.15
G01 X0.9590 Y0.0288 F3.15
G01 X0.9605 Y0.0288 F3.15
G01 X0.9620 Y0.0289 F3.15
G01 X0.9634 Y0.0291 F3.15
G01 X0.9649 Y0.0294 F3.15
G01 X0.9663 Y0.0297 F3.15
G01 X0.9678 Y0.0301 F3.15
G01 X0.9692 Y0.0305 F3.15
G01 X0.9706 Y0.0311 F3.15
G01 X0.9719 Y0.0317 F3.15
G01 X0.9732 Y0.0323 F3.15
G01 X0.9745 Y0.0331 F3.15
G01 X0.9758 Y0.0339 F3.15
G01 X0.9770 Y0.0347 F3.15
G01 X0.9781 Y0.0356 F3.15
G01 X0.9793 Y0.0366 F3.15
G01 X0.9803 Y0.0376 F3.15
G01 X0.9814 Y0.0387 F3.15
G01 X0.9823 Y0.0398 F3.15
G01 X0.9832 Y0.0410 F3.15
G01 X0.9841 Y0.0422 F3.15
G01 X0.9849 Y0.0434 F3.15
G01 X0.9856 Y0.0447 F3.15
G01 X0.9863 Y0.0460 F3.15
G01 X0.9869 Y0.0474 F3.15
G01 X0.9874 Y0.0488 F3.15
G01 X0.9879 Y0.0502 F3.15
G01 X0.9883 Y0.0516 F3.15
G01 X0.9886 Y0.0531 F3.15
G01 X0.9888 Y0.0545 F3.15
G01 X0.9890 Y0.0560 F3.15
G01 X0.9891 Y0.0575 F3.15
G01 X0.9892 Y0.0589 F3.15
G01 X0.9891 Y0.0604 F3.15
G01 X0.9890 Y0.0619 F3.15
G01 X0.9888 Y0.0634 F3.15
G01 X0.9886 Y0.0648 F3.15
G01 X0.9883 Y0.0663 F3.15
G01 X0.9879 Y0.0677 F3.15
G01 X0.9874 Y0.0691 F3.15
G01 X0.9869 Y0.0705 F3.15
G01 X0.9863 Y0.0718 F3.15
G01 X0.9856 Y0.0731 F3.15
G01 X0.9849 Y0.0744 F3.15
G01 X0.9841 Y0.0757 F3.15
G01 X0.9832 Y0.0769 F3.15
G01 X0.9825 Y0.0778 F3.15
G01 X1.1437 Y0.2389 F3.15
G01 X2.1610 Y0.2389 F3.15
G01 X2.1613 Y0.2390 F3.15
G01 X2.1618 Y0.2390 F3.15
G01 X2.1623 Y0.2392 F3.15
G01 X2.1625 Y0.2393 F3.15
G01 X2.1628 Y0.2395 F3.15
G01 X2.1632 Y0.2398 F3.15
G01 X2.1758 Y0.2524 F3.15
G01 X2.2545 Y0.2524 F3.15
G01 X2.2550 Y0.2524 F3.15
G01 X2.2553 Y0.2525 F3.15
G01 X2.2558 Y0.2526 F3.15
G01 X2.2562 Y0.2528 F3.15
G01 X2.2565 Y0.2530 F3.15
G01 X2.2568 Y0.2533 F3.15
G01 X2.3269 Y0.3234 F3.15
G01 X2.3274 Y0.3233 F3.15
G01 X2.3277 Y0.3233 F3.15
G01 X2.3282 Y0.3233 F3.15
G01 X2.3288 Y0.3234 F3.15
G01 X2.3293 Y0.3236 F3.15
G01 X2.3298 Y0.3237 F3.15
G01 X2.3303 Y0.3240 F3.15
G01 X2.3306 Y0.3241 F3.15
G01 X2.3311 Y0.3244 F3.15
G01 X2.3315 Y0.3248 F3.15
G01 X2.3698 Y0.3631 F3.15
G01 X2.3702 Y0.3635 F3.15
G01 X2.3705 Y0.3640 F3.15
G01 X2.3707 Y0.3642 F3.15
G01 X2.3709 Y0.3647 F3.15
G01 X2.3712 Y0.3652 F3.15
G01 X2.3712 Y0.3655 F3.15
G01 X2.3714 Y0.3660 F3.15
G01 X2.3715 Y0.3666 F3.15
G01 X2.3715 Y0.3668 F3.15
G01 X2.3715 Y0.3671 F3.15
G01 X2.3715 Y0.3677 F3.15
G01 X2.3714 Y0.3682 F3.15
G01 X2.3712 Y0.3688 F3.15
G01 X2.3712 Y0.3690 F3.15
G01 X2.3711 Y0.3693 F3.15
G01 X2.3708 Y0.3698 F3.15
G01 X2.3705 Y0.3703 F3.15
G01 X2.3702 Y0.3707 F3.15
G01 X2.3700 Y0.3709 F3.15
G01 X2.3698 Y0.3711 F3.15
G01 X2.3694 Y0.3715 F3.15
G01 X2.3690 Y0.3718 F3.15
G01 X2.3685 Y0.3721 F3.15
G01 X2.3682 Y0.3722 F3.15
G01 X2.3680 Y0.3724 F3.15
G01 X2.3675 Y0.3725 F3.15
G01 X2.3669 Y0.3727 F3.15
G01 X2.3664 Y0.3728 F3.15
G01 X2.3661 Y0.3728 F3.15
G01 X2.3658 Y0.3728 F3.15
G01 X2.3653 Y0.3728 F3.15
G01 X2.3647 Y0.3727 F3.15
G01 X2.3642 Y0.3725 F3.15
G01 X2.3639 Y0.3725 F3.15
G01 X2.3637 Y0.3724 F3.15
G01 X2.3632 Y0.3721 F3.15
G01 X2.3627 Y0.3718 F3.15
G01 X2.3622 Y0.3715 F3.15
G01 X2.3620 Y0.3713 F3.15
G01 X2.3235 Y0.3328 F3.15
G01 X2.3231 Y0.3323 F3.15
G01 X2.3228 Y0.3319 F3.15
G01 X2.3227 Y0.3316 F3.15
G01 X2.3224 Y0.3311 F3.15
G01 X2.3223 Y0.3306 F3.15
G01 X2.3222 Y0.3303 F3.15
G01 X2.3221 Y0.3298 F3.15
G01 X2.3220 Y0.3293 F3.15
G01 X2.3220 Y0.3287 F3.15
G01 X2.3220 Y0.3284 F3.15
G01 X2.3221 Y0.3279 F3.15
G01 X2.2531 Y0.2590 F3.15
G01 X2.1744 Y0.2590 F3.15
G01 X2.1739 Y0.2589 F3.15
G01 X2.1735 Y0.2588 F3.15
G01 X2.1730 Y0.2587 F3.15
G01 X2.1726 Y0.2584 F3.15
G01 X2.1722 Y0.2581 F3.15
G01 X2.1596 Y0.2455 F3.15
G01 X1.1423 Y0.2455 F3.15
G01 X1.1420 Y0.2455 F3.15
G01 X1.1416 Y0.2455 F3.15
G01 X1.1412 Y0.2454 F3.15
G01 X1.1407 Y0.2452 F3.15
G01 X1.1403 Y0.2449 F3.15
G01 X1.1399 Y0.2446 F3.15
G01 X0.9779 Y0.0825 F3.15
G00 Z0.0787
G00 X1.0829 Y0.0825
G01 F3.15
G01 Z-0.0945
G01 F3.15
G01 X1.0820 Y0.0832 F3.15
G01 X1.0808 Y0.0840 F3.15
G01 X1.0795 Y0.0848 F3.15
G01 X1.0782 Y0.0855 F3.15
G01 X1.0769 Y0.0862 F3.15
G01 X1.0756 Y0.0868 F3.15
G01 X1.0742 Y0.0873 F3.15
G01 X1.0728 Y0.0878 F3.15
G01 X1.0713 Y0.0882 F3.15
G01 X1.0699 Y0.0885 F3.15
G01 X1.0684 Y0.0888 F3.15
G01 X1.0670 Y0.0889 F3.15
G01 X1.0655 Y0.0891 F3.15
G01 X1.0640 Y0.0891 F3.15
G01 X1.0625 Y0.0891 F3.15
G01 X1.0611 Y0.0889 F3.15
G01 X1.0596 Y0.0888 F3.15
G01 X1.0581 Y0.0885 F3.15
G01 X1.0567 Y0.0882 F3.15
G01 X1.0553 Y0.0878 F3.15
G01 X1.0539 Y0.0873 F3.15
G01 X1.0525 Y0.0868 F3.15
G01 X1.0511 Y0.0862 F3.15
G01 X1.0498 Y0.0855 F3.15
G01 X1.0485 Y0.0848 F3.15
G01 X1.0473 Y0.0840 F3.15
G01 X1.0461 Y0.0832 F3.15
G01 X1.0449 Y0.0822 F3.15
G01 X1.0438 Y0.0813 F3.15
G01 X1.0427 Y0.0803 F3.15
G01 X1.0417 Y0.0792 F3.15
G01 X1.0407 Y0.0781 F3.15
G01 X1.0398 Y0.0769 F3.15
G01 X1.0389 Y0.0757 F3.15
G01 X1.0382 Y0.0744 F3.15
G01 X1.0374 Y0.0731 F3.15
G01 X1.0368 Y0.0718 F3.15
G01 X1.0362 Y0.0705 F3.15
G01 X1.0356 Y0.0691 F3.15
G01 X1.0352 Y0.0677 F3.15
G01 X1.0348 Y0.0663 F3.15
G01 X1.0344 Y0.0648 F3.15
G01 X1.0342 Y0.0634 F3.15
G01 X1.0340 Y0.0619 F3.15
G01 X1.0339 Y0.0604 F3.15
G01 X1.0339 Y0.0589 F3.15
G01 X1.0339 Y0.0575 F3.15
G01 X1.0340 Y0.0560 F3.15
G01 X1.0342 Y0.0545 F3.15
G01 X1.0344 Y0.0531 F3.15
G01 X1.0348 Y0.0516 F3.15
G01 X1.0352 Y0.0502 F3.15
G01 X1.0356 Y0.0488 F3.15
G01 X1.0362 Y0.0474 F3.15
G01 X1.0368 Y0.0460 F3.15
G01 X1.0374 Y0.0447 F3.15
G01 X1.0382 Y0.0434 F3.15
G01 X1.0389 Y0.0422 F3.15
G01 X1.0398 Y0.0410 F3.15
G01 X1.0407 Y0.0398 F3.15
G01 X1.0417 Y0.0387 F3.15
G01 X1.0427 Y0.0376 F3.15
G01 X1.0438 Y0.0366 F3.15
G01 X1.0449 Y0.0356 F3.15
G01 X1.0461 Y0.0347 F3.15
G01 X1.0473 Y0.0339 F3.15
G01 X1.0485 Y0.0331 F3.15
G01 X1.0498 Y0.0323 F3.15
G01 X1.0511 Y0.0317 F3.15
G01 X1.0525 Y0.0311 F3.15
G01 X1.0539 Y0.0305 F3.15
G01 X1.0553 Y0.0301 F3.15
G01 X1.0567 Y0.0297 F3.15
G01 X1.0581 Y0.0294 F3.15
G01 X1.0596 Y0.0291 F3.15
G01 X1.0611 Y0.0289 F3.15
G01 X1.0625 Y0.0288 F3.15
G01 X1.0640 Y0.0288 F3.15
G01 X1.0655 Y0.0288 F3.15
G01 X1.0670 Y0.0289 F3.15
G01 X1.0684 Y0.0291 F3.15
G01 X1.0699 Y0.0294 F3.15
G01 X1.0713 Y0.0297 F3.15
G01 X1.0728 Y0.0301 F3.15
G01 X1.0742 Y0.0305 F3.15
G01 X1.0756 Y0.0311 F3.15
G01 X1.0769 Y0.0317 F3.15
G01 X1.0782 Y0.0323 F3.15
G01 X1.0795 Y0.0331 F3.15
G01 X1.0808 Y0.0339 F3.15
G01 X1.0820 Y0.0347 F3.15
G01 X1.0831 Y0.0356 F3.15
G01 X1.0843 Y0.0366 F3.15
G01 X1.0853 Y0.0376 F3.15
G01 X1.0864 Y0.0387 F3.15
G01 X1.0873 Y0.0398 F3.15
G01 X1.0882 Y0.0410 F3.15
G01 X1.0891 Y0.0422 F3.15
G01 X1.0899 Y0.0434 F3.15
G01 X1.0906 Y0.0447 F3.15
G01 X1.0913 Y0.0460 F3.15
G01 X1.0919 Y0.0474 F3.15
G01 X1.0924 Y0.0488 F3.15
G01 X1.0929 Y0.0502 F3.15
G01 X1.0933 Y0.0516 F3.15
G01 X1.0936 Y0.0531 F3.15
G01 X1.0938 Y0.0545 F3.15
G01 X1.0940 Y0.0560 F3.15
G01 X1.0941 Y0.0575 F3.15
G01 X1.0942 Y0.0589 F3.15
G01 X1.0941 Y0.0604 F3.15
G01 X1.0940 Y0.0619 F3.15
G01 X1.0938 Y0.0634 F3.15
G01 X1.0936 Y0.0648 F3.15
G01 X1.0933 Y0.0663 F3.15
G01 X1.0929 Y0.0677 F3.15
G01 X1.0924 Y0.0691 F3.15
G01 X1.0919 Y0.0705 F3.15
G01 X1.0913 Y0.0718 F3.15
G01 X1.0906 Y0.0731 F3.15
G01 X1.0899 Y0.0744 F3.15
G01 X1.0891 Y0.0757 F3.15
G01 X1.0882 Y0.0769 F3.15
G01 X1.0875 Y0.0778 F3.15
G01 X1.2360 Y0.2263 F3.15
G01 X2.1663 Y0.2263 F3.15
G01 X2.1666 Y0.2263 F3.15
G01 X2.1669 Y0.2263 F3.15
G01 X2.1674 Y0.2265 F3.15
G01 X2.1677 Y0.2266 F3.15
G01 X2.1680 Y0.2267 F3.15
G01 X2.1684 Y0.2270 F3.15
G01 X2.1686 Y0.2272 F3.15
G01 X2.1759 Y0.2345 F3.15
G01 X2.2645 Y0.2345 F3.15
G01 X2.2648 Y0.2345 F3.15
G01 X2.2651 Y0.2345 F3.15
G01 X2.2654 Y0.2346 F3.15
G01 X2.2659 Y0.2348 F3.15
G01 X2.2663 Y0.2350 F3.15
G01 X2.2666 Y0.2352 F3.15
G01 X2.2668 Y0.2354 F3.15
G01 X2.3409 Y0.3095 F3.15
G01 X2.3413 Y0.3094 F3.15
G01 X2.3416 Y0.3094 F3.15
G01 X2.3422 Y0.3094 F3.15
G01 X2.3427 Y0.3095 F3.15
G01 X2.3433 Y0.3097 F3.15
G01 X2.3435 Y0.3097 F3.15
G01 X2.3440 Y0.3100 F3.15
G01 X2.3445 Y0.3102 F3.15
G01 X2.3450 Y0.3105 F3.15
G01 X2.3452 Y0.3107 F3.15
G01 X2.3456 Y0.3111 F3.15
G01 X2.3839 Y0.3494 F3.15
G01 X2.3843 Y0.3499 F3.15
G01 X2.3846 Y0.3503 F3.15
G01 X2.3847 Y0.3506 F3.15
G01 X2.3850 Y0.3511 F3.15
G01 X2.3851 Y0.3516 F3.15
G01 X2.3853 Y0.3521 F3.15
G01 X2.3853 Y0.3524 F3.15
G01 X2.3854 Y0.3530 F3.15
G01 X2.3854 Y0.3535 F3.15
G01 X2.3853 Y0.3541 F3.15
G01 X2.3853 Y0.3543 F3.15
G01 X2.3852 Y0.3546 F3.15
G01 X2.3851 Y0.3551 F3.15
G01 X2.3848 Y0.3557 F3.15
G01 X2.3846 Y0.3561 F3.15
G01 X2.3844 Y0.3564 F3.15
G01 X2.3843 Y0.3566 F3.15
G01 X2.3839 Y0.3570 F3.15
G01 X2.3835 Y0.3574 F3.15
G01 X2.3831 Y0.3578 F3.15
G01 X2.3829 Y0.3579 F3.15
G01 X2.3826 Y0.3581 F3.15
G01 X2.3821 Y0.3583 F3.15
G01 X2.3816 Y0.3586 F3.15
G01 X2.3811 Y0.3587 F3.15
G01 X2.3808 Y0.3588 F3.15
G01 X2.3805 Y0.3588 F3.15
G01 X2.3800 Y0.3589 F3.15
G01 X2.3794 Y0.3589 F3.15
G01 X2.3789 Y0.3588 F3.15
G01 X2.3786 Y0.3588 F3.15
G01 X2.3783 Y0.3587 F3.15
G01 X2.3778 Y0.3586 F3.15
G01 X2.3773 Y0.3583 F3.15
G01 X2.3768 Y0.3581 F3.15
G01 X2.3766 Y0.3579 F3.15
G01 X2.3761 Y0.3576 F3.15
G01 X2.3759 Y0.3574 F3.15
G01 X2.3374 Y0.3189 F3.15
G01 X2.3371 Y0.3184 F3.15
G01 X2.3368 Y0.3180 F3.15
G01 X2.3366 Y0.3177 F3.15
G01 X2.3364 Y0.3172 F3.15
G01 X2.3362 Y0.3167 F3.15
G01 X2.3361 Y0.3164 F3.15
G01 X2.3360 Y0.3159 F3.15
G01 X2.3360 Y0.3154 F3.15
G01 X2.3360 Y0.3148 F3.15
G01 X2.3360 Y0.3145 F3.15
G01 X2.3361 Y0.3140 F3.15
G01 X2.2631 Y0.2411 F3.15
G01 X2.1745 Y0.2411 F3.15
G01 X2.1742 Y0.2410 F3.15
G01 X2.1737 Y0.2410 F3.15
G01 X2.1732 Y0.2408 F3.15
G01 X2.1729 Y0.2407 F3.15
G01 X2.1727 Y0.2405 F3.15
G01 X2.1723 Y0.2402 F3.15
G01 X2.1649 Y0.2329 F3.15
G01 X1.2346 Y0.2329 F3.15
G01 X1.2343 Y0.2329 F3.15
G01 X1.2340 Y0.2328 F3.15
G01 X1.2335 Y0.2327 F3.15
G01 X1.2330 Y0.2325 F3.15
G01 X1.2326 Y0.2322 F3.15
G01 X1.2323 Y0.2319 F3.15
G01 X1.0829 Y0.0825 F3.15
G00 Z0.0787
G00 X1.1779 Y0.0825
G01 F3.15
G01 Z-0.0945
G01 F3.15
G01 X1.1770 Y0.0832 F3.15
G01 X1.1758 Y0.0840 F3.15
G01 X1.1745 Y0.0848 F3.15
G01 X1.1732 Y0.0855 F3.15
G01 X1.1719 Y0.0862 F3.15
G01 X1.1706 Y0.0868 F3.15
G01 X1.1692 Y0.0873 F3.15
G01 X1.1678 Y0.0878 F3.15
G01 X1.1663 Y0.0882 F3.15
G01 X1.1649 Y0.0885 F3.15
G01 X1.1634 Y0.0888 F3.15
G01 X1.1620 Y0.0889 F3.15
G01 X1.1605 Y0.0891 F3.15
G01 X1.1590 Y0.0891 F3.15
G01 X1.1575 Y0.0891 F3.15
G01 X1.1561 Y0.0889 F3.15
G01 X1.1546 Y0.0888 F3.15
G01 X1.1531 Y0.0885 F3.15
G01 X1.1517 Y0.0882 F3.15
G01 X1.1503 Y0.0878 F3.15
G01 X1.1489 Y0.0873 F3.15
G01 X1.1475 Y0.0868 F3.15
G01 X1.1461 Y0.0862 F3.15
G01 X1.1448 Y0.0855 F3.15
G01 X1.1435 Y0.0848 F3.15
G01 X1.1423 Y0.0840 F3.15
G01 X1.1411 Y0.0832 F3.15
G01 X1.1399 Y0.0822 F3.15
G01 X1.1388 Y0.0813 F3.15
G01 X1.1377 Y0.0803 F3.15
G01 X1.1367 Y0.0792 F3.15
G01 X1.1357 Y0.0781 F3.15
G01 X1.1348 Y0.0769 F3.15
G01 X1.1339 Y0.0757 F3.15
G01 X1.1332 Y0.0744 F3.15
G01 X1.1324 Y0.0731 F3.15
G01 X1.1318 Y0.0718 F3.15
G01 X1.1312 Y0.0705 F3.15
G01 X1.1306 Y0.0691 F3.15
G01 X1.1302 Y0.0677 F3.15
G01 X1.1298 Y0.0663 F3.15
G01 X1.1294 Y0.0648 F3.15
G01 X1.1292 Y0.0634 F3.15
G01 X1.1290 Y0.0619 F3.15
G01 X1.1289 Y0.0604 F3.15
G01 X1.1289 Y0.0589 F3.15
G01 X1.1289 Y0.0575 F3.15
G01 X1.1290 Y0.0560 F3.15
G01 X1.1292 Y0.0545 F3.15
G01 X1.1294 Y0.0531 F3.15
G01 X1.1298 Y0.0516 F3.15
G01 X1.1302 Y0.0502 F3.15
G01 X1.1306 Y0.0488 F3.15
G01 X1.1312 Y0.0474 F3.15
G01 X1.1318 Y0.0460 F3.15
G01 X1.1324 Y0.0447 F3.15
G01 X1.1332 Y0.0434 F3.15
G01 X1.1339 Y0.0422 F3.15
G01 X1.1348 Y0.0410 F3.15
G01 X1.1357 Y0.0398 F3.15
G01 X1.1367 Y0.0387 F3.15
G01 X1.1377 Y0.0376 F3.15
G01 X1.1388 Y0.0366 F3.15
G01 X1.1399 Y0.0356 F3.15
G01 X1.1411 Y0.0347 F3.15
G01 X1.1423 Y0.0339 F3.15
G01 X1.1435 Y0.0331 F3.15
G01 X1.1448 Y0.0323 F3.15
G01 X1.1461 Y0.0317 F3.15
G01 X1.1475 Y0.0311 F3.15
G01 X1.1489 Y0.0305 F3.15
G01 X1.1503 Y0.0301 F3.15
G01 X1.1517 Y0.0297 F3.15
G01 X1.1531 Y0.0294 F3.15
G01 X1.1546 Y0.0291 F3.15
G01 X1.1561 Y0.0289 F3.15
G01 X1.1575 Y0.0288 F3.15
G01 X1.1590 Y0.0288 F3.15
G01 X1.1605 Y0.0288 F3.15
G01 X1.1620 Y0.0289 F3.15
G01 X1.1634 Y0.0291 F3.15
G01 X1.1649 Y0.0294 F3.15
G01 X1.1663 Y0.0297 F3.15
G01 X1.1678 Y0.0301 F3.15
G01 X1.1692 Y0.0305 F3.15
G01 X1.1706 Y0.0311 F3.15
G01 X1.1719 Y0.0317 F3.15
G01 X1.1732 Y0.0323 F3.15
G01 X1.1745 Y0.0331 F3.15
G01 X1.1758 Y0.0339 F3.15
G01 X1.1770 Y0.0347 F3.15
G01 X1.1781 Y0.0356 F3.15
G01 X1.1793 Y0.0366 F3.15
G01 X1.1803 Y0.0376 F3.15
G01 X1.1814 Y0.0387 F3.15
G01 X1.1823 Y0.0398 F3.15
G01 X1.1832 Y0.0410 F3.15
G01 X1.1841 Y0.0422 F3.15
G01 X1.1849 Y0.0434 F3.15
G01 X1.1856 Y0.0447 F3.15
G01 X1.1863 Y0.0460 F3.15
G01 X1.1869 Y0.0474 F3.15
G01 X1.1874 Y0.0488 F3.15
G01 X1.1879 Y0.0502 F3.15
G01 X1.1883 Y0.0516 F3.15
G01 X1.1886 Y0.0531 F3.15
G01 X1.1888 Y0.0545 F3.15
G01 X1.1890 Y0.0560 F3.15
G01 X1.1891 Y0.0575 F3.15
G01 X1.1892 Y0.0589 F3.15
G01 X1.1891 Y0.0604 F3.15
G01 X1.1890 Y0.0619 F3.15
G01 X1.1888 Y0.0634 F3.15
G01 X1.1886 Y0.0648 F3.15
G01 X1.1883 Y0.0663 F3.15
G01 X1.1879 Y0.0677 F3.15
G01 X1.1874 Y0.0691 F3.15
G01 X1.1869 Y0.0705 F3.15
G01 X1.1863 Y0.0718 F3.15
G01 X1.1856 Y0.0731 F3.15
G01 X1.1849 Y0.0744 F3.15
G01 X1.1841 Y0.0757 F3.15
G01 X1.1832 Y0.0769 F3.15
G01 X1.1825 Y0.0778 F3.15
G01 X1.3183 Y0.2135 F3.15
G01 X2.1716 Y0.2135 F3.15
G01 X2.1719 Y0.2136 F3.15
G01 X2.1723 Y0.2136 F3.15
G01 X2.1727 Y0.2137 F3.15
G01 X2.1730 Y0.2139 F3.15
G01 X2.1733 Y0.2140 F3.15
G01 X2.1737 Y0.2143 F3.15
G01 X2.1739 Y0.2145 F3.15
G01 X2.1812 Y0.2217 F3.15
G01 X2.2797 Y0.2217 F3.15
G01 X2.2800 Y0.2218 F3.15
G01 X2.2803 Y0.2218 F3.15
G01 X2.2806 Y0.2219 F3.15
G01 X2.2811 Y0.2221 F3.15
G01 X2.2815 Y0.2223 F3.15
G01 X2.2818 Y0.2225 F3.15
G01 X2.2820 Y0.2227 F3.15
G01 X2.3548 Y0.2955 F3.15
G01 X2.3552 Y0.2955 F3.15
G01 X2.3555 Y0.2955 F3.15
G01 X2.3561 Y0.2955 F3.15
G01 X2.3566 Y0.2956 F3.15
G01 X2.3572 Y0.2957 F3.15
G01 X2.3574 Y0.2958 F3.15
G01 X2.3579 Y0.2960 F3.15
G01 X2.3584 Y0.2963 F3.15
G01 X2.3589 Y0.2966 F3.15
G01 X2.3591 Y0.2968 F3.15
G01 X2.3595 Y0.2971 F3.15
G01 X2.3979 Y0.3355 F3.15
G01 X2.3982 Y0.3359 F3.15
G01 X2.3985 Y0.3364 F3.15
G01 X2.3987 Y0.3366 F3.15
G01 X2.3989 Y0.3371 F3.15
G01 X2.3991 Y0.3377 F3.15
G01 X2.3992 Y0.3379 F3.15
G01 X2.3993 Y0.3385 F3.15
G01 X2.3993 Y0.3390 F3.15
G01 X2.3993 Y0.3393 F3.15
G01 X2.3993 Y0.3398 F3.15
G01 X2.3992 Y0.3404 F3.15
G01 X2.3991 Y0.3409 F3.15
G01 X2.3990 Y0.3412 F3.15
G01 X2.3989 Y0.3415 F3.15
G01 X2.3987 Y0.3420 F3.15
G01 X2.3984 Y0.3424 F3.15
G01 X2.3980 Y0.3429 F3.15
G01 X2.3979 Y0.3431 F3.15
G01 X2.3977 Y0.3433 F3.15
G01 X2.3973 Y0.3437 F3.15
G01 X2.3968 Y0.3440 F3.15
G01 X2.3963 Y0.3443 F3.15
G01 X2.3961 Y0.3444 F3.15
G01 X2.3958 Y0.3445 F3.15
G01 X2.3953 Y0.3447 F3.15
G01 X2.3948 Y0.3448 F3.15
G01 X2.3942 Y0.3449 F3.15
G01 X2.3939 Y0.3449 F3.15
G01 X2.3937 Y0.3450 F3.15
G01 X2.3931 Y0.3449 F3.15
G01 X2.3926 Y0.3448 F3.15
G01 X2.3920 Y0.3447 F3.15
G01 X2.3918 Y0.3446 F3.15
G01 X2.3915 Y0.3445 F3.15
G01 X2.3910 Y0.3443 F3.15
G01 X2.3905 Y0.3440 F3.15
G01 X2.3901 Y0.3437 F3.15
G01 X2.3899 Y0.3435 F3.15
G01 X2.3513 Y0.3049 F3.15
G01 X2.3510 Y0.3045 F3.15
G01 X2.3508 Y0.3043 F3.15
G01 X2.3505 Y0.3038 F3.15
G01 X2.3503 Y0.3033 F3.15
G01 X2.3501 Y0.3028 F3.15
G01 X2.3500 Y0.3023 F3.15
G01 X2.3499 Y0.3020 F3.15
G01 X2.3499 Y0.3014 F3.15
G01 X2.3499 Y0.3009 F3.15
G01 X2.3499 Y0.3006 F3.15
G01 X2.3500 Y0.3001 F3.15
G01 X2.2783 Y0.2283 F3.15
G01 X2.1798 Y0.2283 F3.15
G01 X2.1795 Y0.2283 F3.15
G01 X2.1790 Y0.2282 F3.15
G01 X2.1785 Y0.2281 F3.15
G01 X2.1782 Y0.2280 F3.15
G01 X2.1780 Y0.2278 F3.15
G01 X2.1776 Y0.2275 F3.15
G01 X2.1702 Y0.2202 F3.15
G01 X1.3169 Y0.2202 F3.15
G01 X1.3166 Y0.2201 F3.15
G01 X1.3162 Y0.2201 F3.15
G01 X1.3158 Y0.2200 F3.15
G01 X1.3153 Y0.2198 F3.15
G01 X1.3149 Y0.2195 F3.15
G01 X1.3146 Y0.2192 F3.15
G01 X1.1779 Y0.0825 F3.15
G00 Z0.0787
G00 X1.2829 Y0.0825
G01 F3.15
G01 Z-0.0945
G01 F3.15
G01 X1.2820 Y0.0832 F3.15
G01 X1.2808 Y0.0840 F3.15
G01 X1.2795 Y0.0848 F3.15
G01 X1.2782 Y0.0855 F3.15
G01 X1.2769 Y0.0862 F3.15
G01 X1.2756 Y0.0868 F3.15
G01 X1.2742 Y0.0873 F3.15
G01 X1.2728 Y0.0878 F3.15
G01 X1.2713 Y0.0882 F3.15
G01 X1.2699 Y0.0885 F3.15
G01 X1.2684 Y0.0888 F3.15
G01 X1.2670 Y0.0889 F3.15
G01 X1.2655 Y0.0891 F3.15
G01 X1.2640 Y0.0891 F3.15
G01 X1.2625 Y0.0891 F3.15
G01 X1.2611 Y0.0889 F3.15
G01 X1.2596 Y0.0888 F3.15
G01 X1.2581 Y0.0885 F3.15
G01 X1.2567 Y0.0882 F3.15
G01 X1.2553 Y0.0878 F3.15
G01 X1.2539 Y0.0873 F3.15
G01 X1.2525 Y0.0868 F3.15
G01 X1.2511 Y0.0862 F3.15
G01 X1.2498 Y0.0855 F3.15
G01 X1.2485 Y0.0848 F3.15
G01 X1.2473 Y0.0840 F3.15
G01 X1.2461 Y0.0832 F3.15
G01 X1.2449 Y0.0822 F3.15
G01 X1.2438 Y0.0813 F3.15
G01 X1.2427 Y0.0803 F3.15
G01 X1.2417 Y0.0792 F3.15
G01 X1.2407 Y0.0781 F3.15
G01 X1.2398 Y0.0769 F3.15
G01 X1.2389 Y0.0757 F3.15
G01 X1.2382 Y0.0744 F3.15
G01 X1.2374 Y0.0731 F3.15
G01 X1.2368 Y0.0718 F3.15
G01 X1.2362 Y0.0705 F3.15
G01 X1.2356 Y0.0691 F3.15
G01 X1.2352 Y0.0677 F3.15
G01 X1.2348 Y0.0663 F3.15
G01 X1.2344 Y0.0648 F3.15
G01 X1.2342 Y0.0634 F3.15
G01 X1.2340 Y0.0619 F3.15
G01 X1.2339 Y0.0604 F3.15
G01 X1.2339 Y0.0589 F3.15
G01 X1.2339 Y0.0575 F3.15
G01 X1.2340 Y0.0560 F3.15
G01 X1.2342 Y0.0545 F3.15
G01 X1.2344 Y0.0531 F3.15
G01 X1.2348 Y0.0516 F3.15
G01 X1.2352 Y0.0502 F3.15
G01 X1.2356 Y0.0488 F3.15
G01 X1.2362 Y0.0474 F3.15
G01 X1.2368 Y0.0460 F3.15
G01 X1.2374 Y0.0447 F3.15
G01 X1.2382 Y0.0434 F3.15
G01 X1.2389 Y0.0422 F3.15
G01 X1.2398 Y0.0410 F3.15
G01 X1.2407 Y0.0398 F3.15
G01 X1.2417 Y0.0387 F3.15
G01 X1.2427 Y0.0376 F3.15
G01 X1.2438 Y0.0366 F3.15
G01 X1.2449 Y0.0356 F3.15
G01 X1.2461 Y0.0347 F3.15
G01 X1.2473 Y0.0339 F3.15
G01 X1.2485 Y0.0331 F3.15
G01 X1.2498 Y0.0323 F3.15
G01 X1.2511 Y0.0317 F3.15
G01 X1.2525 Y0.0311 F3.15
G01 X1.2539 Y0.0305 F3.15
G01 X1.2553 Y0.0301 F3.15
G01 X1.2567 Y0.0297 F3.15
G01 X1.2581 Y0.0294 F3.15
G01 X1.2596 Y0.0291 F3.15
G01 X1.2611 Y0.0289 F3.15
G01 X1.2625 Y0.0288 F3.15
G01 X1.2640 Y0.0288 F3.15
G01 X1.2655 Y0.0288 F3.15
G01 X1.2670 Y0.0289 F3.15
G01 X1.2684 Y0.0291 F3.15
G01 X1.2699 Y0.0294 F3.15
G01 X1.2713 Y0.0297 F3.15
G01 X1.2728 Y0.0301 F3.15
G01 X1.2742 Y0.0305 F3.15
G01 X1.2756 Y0.0311 F3.15
G01 X1.2769 Y0.0317 F3.15
G01 X1.2782 Y0.0323 F3.15
G01 X1.2795 Y0.0331 F3.15
G01 X1.2808 Y0.0339 F3.15
G01 X1.2820 Y0.0347 F3.15
G01 X1.2831 Y0.0356 F3.15
G01 X1.2843 Y0.0366 F3.15
G01 X1.2853 Y0.0376 F3.15
G01 X1.2864 Y0.0387 F3.15
G01 X1.2873 Y0.0398 F3.15
G01 X1.2882 Y0.0410 F3.15
G01 X1.2891 Y0.0422 F3.15
G01 X1.2899 Y0.0434 F3.15
G01 X1.2906 Y0.0447 F3.15
G01 X1.2913 Y0.0460 F3.15
G01 X1.2919 Y0.0474 F3.15
G01 X1.2924 Y0.0488 F3.15
G01 X1.2929 Y0.0502 F3.15
G01 X1.2933 Y0.0516 F3.15
G01 X1.2936 Y0.0531 F3.15
G01 X1.2938 Y0.0545 F3.15
G01 X1.2940 Y0.0560 F3.15
G01 X1.2941 Y0.0575 F3.15
G01 X1.2942 Y0.0589 F3.15
G01 X1.2941 Y0.0604 F3.15
G01 X1.2940 Y0.0619 F3.15
G01 X1.2938 Y0.0634 F3.15
G01 X1.2936 Y0.0648 F3.15
G01 X1.2933 Y0.0663 F3.15
G01 X1.2929 Y0.0677 F3.15
G01 X1.2924 Y0.0691 F3.15
G01 X1.2919 Y0.0705 F3.15
G01 X1.2913 Y0.0718 F3.15
G01 X1.2906 Y0.0731 F3.15
G01 X1.2899 Y0.0744 F3.15
G01 X1.2891 Y0.0757 F3.15
G01 X1.2882 Y0.0769 F3.15
G01 X1.2875 Y0.0778 F3.15
G01 X1.4106 Y0.2009 F3.15
G01 X2.1768 Y0.2009 F3.15
G01 X2.1771 Y0.2009 F3.15
G01 X2.1775 Y0.2009 F3.15
G01 X2.1779 Y0.2011 F3.15
G01 X2.1782 Y0.2012 F3.15
G01 X2.1785 Y0.2013 F3.15
G01 X2.1789 Y0.2016 F3.15
G01 X2.1791 Y0.2018 F3.15
G01 X2.1864 Y0.2091 F3.15
G01 X2.2867 Y0.2091 F3.15
G01 X2.2872 Y0.2091 F3.15
G01 X2.2877 Y0.2092 F3.15
G01 X2.2881 Y0.2094 F3.15
G01 X2.2884 Y0.2095 F3.15
G01 X2.2887 Y0.2097 F3.15
G01 X2.2890 Y0.2100 F3.15
G01 X2.3147 Y0.2356 F3.15
G01 X2.3214 Y0.2356 F3.15
G01 X2.3217 Y0.2357 F3.15
G01 X2.3222 Y0.2357 F3.15
G01 X2.3225 Y0.2358 F3.15
G01 X2.3228 Y0.2360 F3.15
G01 X2.3232 Y0.2362 F3.15
G01 X2.3236 Y0.2365 F3.15
G01 X2.3687 Y0.2816 F3.15
G01 X2.3692 Y0.2816 F3.15
G01 X2.3694 Y0.2816 F3.15
G01 X2.3700 Y0.2816 F3.15
G01 X2.3706 Y0.2817 F3.15
G01 X2.3711 Y0.2818 F3.15
G01 X2.3716 Y0.2820 F3.15
G01 X2.3719 Y0.2821 F3.15
G01 X2.3724 Y0.2824 F3.15
G01 X2.3728 Y0.2827 F3.15
G01 X2.3733 Y0.2830 F3.15
G01 X2.4116 Y0.3213 F3.15
G01 X2.4119 Y0.3218 F3.15
G01 X2.4123 Y0.3222 F3.15
G01 X2.4124 Y0.3224 F3.15
G01 X2.4127 Y0.3229 F3.15
G01 X2.4129 Y0.3234 F3.15
G01 X2.4130 Y0.3237 F3.15
G01 X2.4131 Y0.3240 F3.15
G01 X2.4132 Y0.3245 F3.15
G01 X2.4132 Y0.3251 F3.15
G01 X2.4132 Y0.3254 F3.15
G01 X2.4132 Y0.3259 F3.15
G01 X2.4131 Y0.3265 F3.15
G01 X2.4130 Y0.3270 F3.15
G01 X2.4129 Y0.3273 F3.15
G01 X2.4127 Y0.3278 F3.15
G01 X2.4124 Y0.3283 F3.15
G01 X2.4123 Y0.3285 F3.15
G01 X2.4121 Y0.3287 F3.15
G01 X2.4118 Y0.3292 F3.15
G01 X2.4114 Y0.3296 F3.15
G01 X2.4109 Y0.3299 F3.15
G01 X2.4107 Y0.3301 F3.15
G01 X2.4105 Y0.3302 F3.15
G01 X2.4100 Y0.3305 F3.15
G01 X2.4095 Y0.3307 F3.15
G01 X2.4089 Y0.3308 F3.15
G01 X2.4087 Y0.3309 F3.15
G01 X2.4084 Y0.3310 F3.15
G01 X2.4078 Y0.3310 F3.15
G01 X2.4073 Y0.3310 F3.15
G01 X2.4067 Y0.3310 F3.15
G01 X2.4065 Y0.3309 F3.15
G01 X2.4062 Y0.3308 F3.15
G01 X2.4057 Y0.3307 F3.15
G01 X2.4051 Y0.3305 F3.15
G01 X2.4046 Y0.3302 F3.15
G01 X2.4044 Y0.3301 F3.15
G01 X2.4042 Y0.3299 F3.15
G01 X2.4038 Y0.3296 F3.15
G01 X2.3653 Y0.2910 F3.15
G01 X2.3649 Y0.2906 F3.15
G01 X2.3646 Y0.2902 F3.15
G01 X2.3645 Y0.2899 F3.15
G01 X2.3642 Y0.2894 F3.15
G01 X2.3640 Y0.2889 F3.15
G01 X2.3640 Y0.2886 F3.15
G01 X2.3638 Y0.2881 F3.15
G01 X2.3638 Y0.2878 F3.15
G01 X2.3638 Y0.2872 F3.15
G01 X2.3638 Y0.2867 F3.15
G01 X2.3639 Y0.2861 F3.15
G01 X2.3200 Y0.2422 F3.15
G01 X2.3133 Y0.2422 F3.15
G01 X2.3130 Y0.2422 F3.15
G01 X2.3125 Y0.2421 F3.15
G01 X2.3120 Y0.2420 F3.15
G01 X2.3116 Y0.2418 F3.15
G01 X2.3113 Y0.2416 F3.15
G01 X2.3110 Y0.2413 F3.15
G01 X2.2853 Y0.2157 F3.15
G01 X2.1850 Y0.2157 F3.15
G01 X2.1847 Y0.2156 F3.15
G01 X2.1842 Y0.2156 F3.15
G01 X2.1837 Y0.2154 F3.15
G01 X2.1834 Y0.2153 F3.15
G01 X2.1832 Y0.2151 F3.15
G01 X2.1828 Y0.2148 F3.15
G01 X2.1754 Y0.2075 F3.15
G01 X1.4092 Y0.2075 F3.15
G01 X1.4089 Y0.2075 F3.15
G01 X1.4086 Y0.2074 F3.15
G01 X1.4081 Y0.2073 F3.15
G01 X1.4077 Y0.2071 F3.15
G01 X1.4072 Y0.2068 F3.15
G01 X1.4069 Y0.2065 F3.15
G01 X1.2829 Y0.0825 F3.15
G00 Z0.0787
G00 X1.3779 Y0.0825
G01 F3.15
G01 Z-0.0945
G01 F3.15
G01 X1.3770 Y0.0832 F3.15
G01 X1.3758 Y0.0840 F3.15
G01 X1.3745 Y0.0848 F3.15
G01 X1.3732 Y0.0855 F3.15
G01 X1.3719 Y0.0862 F3.15
G01 X1.3706 Y0.0868 F3.15
G01 X1.3692 Y0.0873 F3.15
G01 X1.3678 Y0.0878 F3.15
G01 X1.3663 Y0.0882 F3.15
G01 X1.3649 Y0.0885 F3.15
G01 X1.3634 Y0.0888 F3.15
G01 X1.3620 Y0.0889 F3.15
G01 X1.3605 Y0.0891 F3.15
G01 X1.3590 Y0.0891 F3.15
G01 X1.3575 Y0.0891 F3.15
G01 X1.3561 Y0.0889 F3.15
G01 X1.3546 Y0.0888 F3.15
G01 X1.3531 Y0.0885 F3.15
G01 X1.3517 Y0.0882 F3.15
G01 X1.3503 Y0.0878 F3.15
G01 X1.3489 Y0.0873 F3.15
G01 X1.3475 Y0.0868 F3.15
G01 X1.3461 Y0.0862 F3.15
G01 X1.3448 Y0.0855 F3.15
G01 X1.3435 Y0.0848 F3.15
G01 X1.3423 Y0.0840 F3.15
G01 X1.3411 Y0.0832 F3.15
G01 X1.3399 Y0.0822 F3.15
G01 X1.3388 Y0.0813 F3.15
G01 X1.3377 Y0.0803 F3.15
G01 X1.3367 Y0.0792 F3.15
G01 X1.3357 Y0.0781 F3.15
G01 X1.3348 Y0.0769 F3.15
G01 X1.3339 Y0.0757 F3.15
G01 X1.3332 Y0.0744 F3.15
G01 X1.3324 Y0.0731 F3.15
G01 X1.3318 Y0.0718 F3.15
G01 X1.3312 Y0.0705 F3.15
G01 X1.3306 Y0.0691 F3.15
G01 X1.3302 Y0.0677 F3.15
G01 X1.3298 Y0.0663 F3.15
G01 X1.3294 Y0.0648 F3.15
G01 X1.3292 Y0.0634 F3.15
G01 X1.3290 Y0.0619 F3.15
G01 X1.3289 Y0.0604 F3.15
G01 X1.3289 Y0.0589 F3.15
G01 X1.3289 Y0.0575 F3.15
G01 X1.3290 Y0.0560 F3.15
G01 X1.3292 Y0.0545 F3.15
G01 X1.3294 Y0.0531 F3.15
G01 X1.3298 Y0.0516 F3.15
G01 X1.3302 Y0.0502 F3.15
G01 X1.3306 Y0.0488 F3.15
G01 X1.3312 Y0.0474 F3.15
G01 X1.3318 Y0.0460 F3.15
G01 X1.3324 Y0.0447 F3.15
G01 X1.3332 Y0.0434 F3.15
G01 X1.3339 Y0.0422 F3.15
G01 X1.3348 Y0.0410 F3.15
G01 X1.3357 Y0.0398 F3.15
G01 X1.3367 Y0.0387 F3.15
G01 X1.3377 Y0.0376 F3.15
G01 X1.3388 Y0.0366 F3.15
G01 X1.3399 Y0.0356 F3.15
G01 X1.3411 Y0.0347 F3.15
G01 X1.3423 Y0.0339 F3.15
G01 X1.3435 Y0.0331 F3.15
G01 X1.3448 Y0.0323 F3.15
G01 X1.3461 Y0.0317 F3.15
G01 X1.3475 Y0.0311 F3.15
G01 X1.3489 Y0.0305 F3.15
G01 X1.3503 Y0.0301 F3.15
G01 X1.3517 Y0.0297 F3.15
G01 X1.3531 Y0.0294 F3.15
G01 X1.3546 Y0.0291 F3.15
G01 X1.3561 Y0.0289 F3.15
G01 X1.3575 Y0.0288 F3.15
G01 X1.3590 Y0.0288 F3.15
G01 X1.3605 Y0.0288 F3.15
G01 X1.3620 Y0.0289 F3.15
G01 X1.3634 Y0.0291 F3.15
G01 X1.3649 Y0.0294 F3.15
G01 X1.3663 Y0.0297 F3.15
G01 X1.3678 Y0.0301 F3.15
G01 X1.3692 Y0.0305 F3.15
G01 X1.3706 Y0.0311 F3.15
G01 X1.3719 Y0.0317 F3.15
G01 X1.3732 Y0.0323 F3.15
G01 X1.3745 Y0.0331 F3.15
G01 X1.3758 Y0.0339 F3.15
G01 X1.3770 Y0.0347 F3.15
G01 X1.3781 Y0.0356 F3.15
G01 X1.3793 Y0.0366 F3.15
G01 X1.3803 Y0.0376 F3.15
G01 X1.3814 Y0.0387 F3.15
G01 X1.3823 Y0.0398 F3.15
G01 X1.3832 Y0.0410 F3.15
G01 X1.3841 Y0.0422 F3.15
G01 X1.3849 Y0.0434 F3.15
G01 X1.3856 Y0.0447 F3.15
G01 X1.3863 Y0.0460 F3.15
G01 X1.3869 Y0.0474 F3.15
G01 X1.3874 Y0.0488 F3.15
G01 X1.3879 Y0.0502 F3.15
G01 X1.3883 Y0.0516 F3.15
G01 X1.3886 Y0.0531 F3.15
G01 X1.3888 Y0.0545 F3.15
G01 X1.3890 Y0.0560 F3.15
G01 X1.3891 Y0.0575 F3.15
G01 X1.3892 Y0.0589 F3.15
G01 X1.3891 Y0.0604 F3.15
G01 X1.3890 Y0.0619 F3.15
G01 X1.3888 Y0.0634 F3.15
G01 X1.3886 Y0.0648 F3.15
G01 X1.3883 Y0.0663 F3.15
G01 X1.3879 Y0.0677 F3.15
G01 X1.3874 Y0.0691 F3.15
G01 X1.3869 Y0.0705 F3.15
G01 X1.3863 Y0.0718 F3.15
G01 X1.3856 Y0.0731 F3.15
G01 X1.3849 Y0.0744 F3.15
G01 X1.3841 Y0.0757 F3.15
G01 X1.3832 Y0.0769 F3.15
G01 X1.3825 Y0.0778 F3.15
G01 X1.4929 Y0.1882 F3.15
G01 X2.1821 Y0.1882 F3.15
G01 X2.1824 Y0.1882 F3.15
G01 X2.1827 Y0.1882 F3.15
G01 X2.1832 Y0.1883 F3.15
G01 X2.1835 Y0.1885 F3.15
G01 X2.1838 Y0.1886 F3.15
G01 X2.1842 Y0.1889 F3.15
G01 X2.1844 Y0.1891 F3.15
G01 X2.1917 Y0.1963 F3.15
G01 X2.2920 Y0.1963 F3.15
G01 X2.2923 Y0.1964 F3.15
G01 X2.2927 Y0.1964 F3.15
G01 X2.2931 Y0.1965 F3.15
G01 X2.2936 Y0.1967 F3.15
G01 X2.2940 Y0.1970 F3.15
G01 X2.2943 Y0.1973 F3.15
G01 X2.3177 Y0.2206 F3.15
G01 X2.3344 Y0.2206 F3.15
G01 X2.3347 Y0.2207 F3.15
G01 X2.3350 Y0.2207 F3.15
G01 X2.3355 Y0.2209 F3.15
G01 X2.3359 Y0.2211 F3.15
G01 X2.3362 Y0.2213 F3.15
G01 X2.3364 Y0.2215 F3.15
G01 X2.3826 Y0.2677 F3.15
G01 X2.3831 Y0.2676 F3.15
G01 X2.3833 Y0.2676 F3.15
G01 X2.3839 Y0.2677 F3.15
G01 X2.3845 Y0.2678 F3.15
G01 X2.3850 Y0.2679 F3.15
G01 X2.3855 Y0.2681 F3.15
G01 X2.3858 Y0.2682 F3.15
G01 X2.3863 Y0.2684 F3.15
G01 X2.3867 Y0.2688 F3.15
G01 X2.3872 Y0.2691 F3.15
G01 X2.4255 Y0.3075 F3.15
G01 X2.4259 Y0.3079 F3.15
G01 X2.4262 Y0.3083 F3.15
G01 X2.4264 Y0.3085 F3.15
G01 X2.4266 Y0.3090 F3.15
G01 X2.4268 Y0.3095 F3.15
G01 X2.4269 Y0.3098 F3.15
G01 X2.4271 Y0.3104 F3.15
G01 X2.4271 Y0.3109 F3.15
G01 X2.4272 Y0.3112 F3.15
G01 X2.4272 Y0.3115 F3.15
G01 X2.4271 Y0.3120 F3.15
G01 X2.4271 Y0.3126 F3.15
G01 X2.4269 Y0.3131 F3.15
G01 X2.4268 Y0.3134 F3.15
G01 X2.4267 Y0.3136 F3.15
G01 X2.4265 Y0.3141 F3.15
G01 X2.4262 Y0.3146 F3.15
G01 X2.4260 Y0.3148 F3.15
G01 X2.4257 Y0.3153 F3.15
G01 X2.4253 Y0.3157 F3.15
G01 X2.4249 Y0.3160 F3.15
G01 X2.4246 Y0.3162 F3.15
G01 X2.4244 Y0.3163 F3.15
G01 X2.4239 Y0.3166 F3.15
G01 X2.4234 Y0.3168 F3.15
G01 X2.4229 Y0.3170 F3.15
G01 X2.4223 Y0.3171 F3.15
G01 X2.4221 Y0.3171 F3.15
G01 X2.4218 Y0.3171 F3.15
G01 X2.4212 Y0.3171 F3.15
G01 X2.4207 Y0.3171 F3.15
G01 X2.4201 Y0.3170 F3.15
G01 X2.4199 Y0.3169 F3.15
G01 X2.4196 Y0.3168 F3.15
G01 X2.4191 Y0.3166 F3.15
G01 X2.4186 Y0.3163 F3.15
G01 X2.4181 Y0.3160 F3.15
G01 X2.4179 Y0.3158 F3.15
G01 X2.4175 Y0.3155 F3.15
G01 X2.3791 Y0.2771 F3.15
G01 X2.3788 Y0.2767 F3.15
G01 X2.3786 Y0.2765 F3.15
G01 X2.3784 Y0.2760 F3.15
G01 X2.3781 Y0.2755 F3.15
G01 X2.3779 Y0.2749 F3.15
G01 X2.3779 Y0.2747 F3.15
G01 X2.3777 Y0.2741 F3.15
G01 X2.3777 Y0.2736 F3.15
G01 X2.3777 Y0.2730 F3.15
G01 X2.3777 Y0.2727 F3.15
G01 X2.3778 Y0.2722 F3.15
G01 X2.3328 Y0.2272 F3.15
G01 X2.3161 Y0.2272 F3.15
G01 X2.3158 Y0.2272 F3.15
G01 X2.3153 Y0.2271 F3.15
G01 X2.3150 Y0.2270 F3.15
G01 X2.3146 Y0.2268 F3.15
G01 X2.3143 Y0.2266 F3.15
G01 X2.3140 Y0.2263 F3.15
G01 X2.2906 Y0.2029 F3.15
G01 X2.1903 Y0.2029 F3.15
G01 X2.1900 Y0.2029 F3.15
G01 X2.1895 Y0.2028 F3.15
G01 X2.1891 Y0.2027 F3.15
G01 X2.1888 Y0.2026 F3.15
G01 X2.1885 Y0.2024 F3.15
G01 X2.1881 Y0.2021 F3.15
G01 X2.1807 Y0.1948 F3.15
G01 X1.4915 Y0.1948 F3.15
G01 X1.4912 Y0.1947 F3.15
G01 X1.4908 Y0.1947 F3.15
G01 X1.4904 Y0.1946 F3.15
G01 X1.4899 Y0.1944 F3.15
G01 X1.4895 Y0.1941 F3.15
G01 X1.4892 Y0.1938 F3.15
G01 X1.3779 Y0.0825 F3.15
G00 Z0.0787
G00 X1.4829 Y0.0825
G01 F3.15
G01 Z-0.0945
G01 F3.15
G01 X1.4820 Y0.0832 F3.15
G01 X1.4808 Y0.0840 F3.15
G01 X1.4795 Y0.0848 F3.15
G01 X1.4782 Y0.0855 F3.15
G01 X1.4769 Y0.0862 F3.15
G01 X1.4756 Y0.0868 F3.15
G01 X1.4742 Y0.0873 F3.15
G01 X1.4728 Y0.0878 F3.15
G01 X1.4713 Y0.0882 F3.15
G01 X1.4699 Y0.0885 F3.15
G01 X1.4684 Y0.0888 F3.15
G01 X1.4670 Y0.0889 F3.15
G01 X1.4655 Y0.0891 F3.15
G01 X1.4640 Y0.0891 F3.15
G01 X1.4625 Y0.0891 F3.15
G01 X1.4611 Y0.0889 F3.15
G01 X1.4596 Y0.0888 F3.15
G01 X1.4581 Y0.0885 F3.15
G01 X1.4567 Y0.0882 F3.15
G01 X1.4553 Y0.0878 F3.15
G01 X1.4539 Y0.0873 F3.15
G01 X1.4525 Y0.0868 F3.15
G01 X1.4511 Y0.0862 F3.15
G01 X1.4498 Y0.0855 F3.15
G01 X1.4485 Y0.0848 F3.15
G01 X1.4473 Y0.0840 F3.15
G01 X1.4461 Y0.0832 F3.15
G01 X1.4449 Y0.0822 F3.15
G01 X1.4438 Y0.0813 F3.15
G01 X1.4427 Y0.0803 F3.15
G01 X1.4417 Y0.0792 F3.15
G01 X1.4407 Y0.0781 F3.15
G01 X1.4398 Y0.0769 F3.15
G01 X1.4389 Y0.0757 F3.15
G01 X1.4382 Y0.0744 F3.15
G01 X1.4374 Y0.0731 F3.15
G01 X1.4368 Y0.0718 F3.15
G01 X1.4362 Y0.0705 F3.15
G01 X1.4356 Y0.0691 F3.15
G01 X1.4352 Y0.0677 F3.15
G01 X1.4348 Y0.0663 F3.15
G01 X1.4344 Y0.0648 F3.15
G01 X1.4342 Y0.0634 F3.15
G01 X1.4340 Y0.0619 F3.15
G01 X1.4339 Y0.0604 F3.15
G01 X1.4339 Y0.0589 F3.15
G01 X1.4339 Y0.0575 F3.15
G01 X1.4340 Y0.0560 F3.15
G01 X1.4342 Y0.0545 F3.15
G01 X1.4344 Y0.0531 F3.15
G01 X1.4348 Y0.0516 F3.15
G01 X1.4352 Y0.0502 F3.15
G01 X1.4356 Y0.0488 F3.15
G01 X1.4362 Y0.0474 F3.15
G01 X1.4368 Y0.0460 F3.15
G01 X1.4374 Y0.0447 F3.15
G01 X1.4382 Y0.0434 F3.15
G01 X1.4389 Y0.0422 F3.15
G01 X1.4398 Y0.0410 F3.15
G01 X1.4407 Y0.0398 F3.15
G01 X1.4417 Y0.0387 F3.15
G01 X1.4427 Y0.0376 F3.15
G01 X1.4438 Y0.0366 F3.15
G01 X1.4449 Y0.0356 F3.15
G01 X1.4461 Y0.0347 F3.15
G01 X1.4473 Y0.0339 F3.15
G01 X1.4485 Y0.0331 F3.15
G01 X1.4498 Y0.0323 F3.15
G01 X1.4511 Y0.0317 F3.15
G01 X1.4525 Y0.0311 F3.15
G01 X1.4539 Y0.0305 F3.15
G01 X1.4553 Y0.0301 F3.15
G01 X1.4567 Y0.0297 F3.15
G01 X1.4581 Y0.0294 F3.15
G01 X1.4596 Y0.0291 F3.15
G01 X1.4611 Y0.0289 F3.15
G01 X1.4625 Y0.0288 F3.15
G01 X1.4640 Y0.0288 F3.15
G01 X1.4655 Y0.0288 F3.15
G01 X1.4670 Y0.0289 F3.15
G01 X1.4684 Y0.0291 F3.15
G01 X1.4699 Y0.0294 F3.15
G01 X1.4713 Y0.0297 F3.15
G01 X1.4728 Y0.0301 F3.15
G01 X1.4742 Y0.0305 F3.15
G01 X1.4756 Y0.0311 F3.15
G01 X1.4769 Y0.0317 F3.15
G01 X1.4782 Y0.0323 F3.15
G01 X1.4795 Y0.0331 F3.15
G01 X1.4808 Y0.0339 F3.15
G01 X1.4820 Y0.0347 F3.15
G01 X1.4831 Y0.0356 F3.15
G01 X1.4843 Y0.0366 F3.15
G01 X1.4853 Y0.0376 F3.15
G01 X1.4864 Y0.0387 F3.15
G01 X1.4873 Y0.0398 F3.15
G01 X1.4882 Y0.0410 F3.15
G01 X1.4891 Y0.0422 F3.15
G01 X1.4899 Y0.0434 F3.15
G01 X1.4906 Y0.0447 F3.15
G01 X1.4913 Y0.0460 F3.15
G01 X1.4919 Y0.0474 F3.15
G01 X1.4924 Y0.0488 F3.15
G01 X1.4929 Y0.0502 F3.15
G01 X1.4933 Y0.0516 F3.15
G01 X1.4936 Y0.0531 F3.15
G01 X1.4938 Y0.0545 F3.15
G01 X1.4940 Y0.0560 F3.15
G01 X1.4941 Y0.0575 F3.15
G01 X1.4942 Y0.0589 F3.15
G01 X1.4941 Y0.0604 F3.15
G01 X1.4940 Y0.0619 F3.15
G01 X1.4938 Y0.0634 F3.15
G01 X1.4936 Y0.0648 F3.15
G01 X1.4933 Y0.0663 F3.15
G01 X1.4929 Y0.0677 F3.15
G01 X1.4924 Y0.0691 F3.15
G01 X1.4919 Y0.0705 F3.15
G01 X1.4913 Y0.0718 F3.15
G01 X1.4906 Y0.0731 F3.15
G01 X1.4899 Y0.0744 F3.15
G01 X1.4891 Y0.0757 F3.15
G01 X1.4882 Y0.0769 F3.15
G01 X1.4875 Y0.0778 F3.15
G01 X1.5851 Y0.1754 F3.15
G01 X2.1873 Y0.1754 F3.15
G01 X2.1876 Y0.1755 F3.15
G01 X2.1879 Y0.1755 F3.15
G01 X2.1884 Y0.1756 F3.15
G01 X2.1887 Y0.1758 F3.15
G01 X2.1890 Y0.1759 F3.15
G01 X2.1894 Y0.1762 F3.15
G01 X2.1896 Y0.1764 F3.15
G01 X2.1969 Y0.1837 F3.15
G01 X2.2972 Y0.1837 F3.15
G01 X2.2975 Y0.1837 F3.15
G01 X2.2980 Y0.1838 F3.15
G01 X2.2985 Y0.1839 F3.15
G01 X2.2988 Y0.1841 F3.15
G01 X2.2992 Y0.1843 F3.15
G01 X2.2995 Y0.1846 F3.15
G01 X2.3206 Y0.2056 F3.15
G01 X2.3472 Y0.2056 F3.15
G01 X2.3477 Y0.2057 F3.15
G01 X2.3482 Y0.2058 F3.15
G01 X2.3485 Y0.2060 F3.15
G01 X2.3488 Y0.2061 F3.15
G01 X2.3492 Y0.2064 F3.15
G01 X2.3494 Y0.2066 F3.15
G01 X2.3966 Y0.2538 F3.15
G01 X2.3970 Y0.2537 F3.15
G01 X2.3973 Y0.2537 F3.15
G01 X2.3978 Y0.2537 F3.15
G01 X2.3984 Y0.2538 F3.15
G01 X2.3989 Y0.2539 F3.15
G01 X2.3995 Y0.2541 F3.15
G01 X2.4000 Y0.2544 F3.15
G01 X2.4004 Y0.2547 F3.15
G01 X2.4007 Y0.2548 F3.15
G01 X2.4011 Y0.2552 F3.15
G01 X2.4394 Y0.2935 F3.15
G01 X2.4396 Y0.2937 F3.15
G01 X2.4400 Y0.2941 F3.15
G01 X2.4403 Y0.2946 F3.15
G01 X2.4404 Y0.2949 F3.15
G01 X2.4407 Y0.2953 F3.15
G01 X2.4409 Y0.2959 F3.15
G01 X2.4410 Y0.2964 F3.15
G01 X2.4410 Y0.2967 F3.15
G01 X2.4411 Y0.2970 F3.15
G01 X2.4411 Y0.2975 F3.15
G01 X2.4411 Y0.2981 F3.15
G01 X2.4410 Y0.2986 F3.15
G01 X2.4409 Y0.2989 F3.15
G01 X2.4408 Y0.2994 F3.15
G01 X2.4406 Y0.2999 F3.15
G01 X2.4404 Y0.3002 F3.15
G01 X2.4403 Y0.3004 F3.15
G01 X2.4400 Y0.3009 F3.15
G01 X2.4396 Y0.3013 F3.15
G01 X2.4392 Y0.3017 F3.15
G01 X2.4390 Y0.3019 F3.15
G01 X2.4388 Y0.3021 F3.15
G01 X2.4383 Y0.3024 F3.15
G01 X2.4379 Y0.3026 F3.15
G01 X2.4373 Y0.3029 F3.15
G01 X2.4371 Y0.3029 F3.15
G01 X2.4368 Y0.3030 F3.15
G01 X2.4363 Y0.3031 F3.15
G01 X2.4357 Y0.3032 F3.15
G01 X2.4352 Y0.3032 F3.15
G01 X2.4349 Y0.3032 F3.15
G01 X2.4346 Y0.3031 F3.15
G01 X2.4341 Y0.3030 F3.15
G01 X2.4335 Y0.3029 F3.15
G01 X2.4330 Y0.3026 F3.15
G01 X2.4328 Y0.3025 F3.15
G01 X2.4323 Y0.3022 F3.15
G01 X2.4318 Y0.3019 F3.15
G01 X2.4316 Y0.3017 F3.15
G01 X2.3931 Y0.2632 F3.15
G01 X2.3929 Y0.2630 F3.15
G01 X2.3926 Y0.2625 F3.15
G01 X2.3923 Y0.2620 F3.15
G01 X2.3920 Y0.2615 F3.15
G01 X2.3919 Y0.2613 F3.15
G01 X2.3918 Y0.2608 F3.15
G01 X2.3917 Y0.2602 F3.15
G01 X2.3916 Y0.2599 F3.15
G01 X2.3916 Y0.2594 F3.15
G01 X2.3916 Y0.2588 F3.15
G01 X2.3917 Y0.2582 F3.15
G01 X2.3457 Y0.2122 F3.15
G01 X2.3192 Y0.2122 F3.15
G01 X2.3189 Y0.2122 F3.15
G01 X2.3186 Y0.2122 F3.15
G01 X2.3183 Y0.2121 F3.15
G01 X2.3179 Y0.2120 F3.15
G01 X2.3177 Y0.2118 F3.15
G01 X2.3174 Y0.2117 F3.15
G01 X2.3171 Y0.2115 F3.15
G01 X2.3169 Y0.2113 F3.15
G01 X2.2958 Y0.1903 F3.15
G01 X2.1955 Y0.1903 F3.15
G01 X2.1952 Y0.1903 F3.15
G01 X2.1947 Y0.1902 F3.15
G01 X2.1942 Y0.1900 F3.15
G01 X2.1940 Y0.1899 F3.15
G01 X2.1937 Y0.1897 F3.15
G01 X2.1933 Y0.1894 F3.15
G01 X2.1859 Y0.1820 F3.15
G01 X1.5838 Y0.1820 F3.15
G01 X1.5835 Y0.1820 F3.15
G01 X1.5830 Y0.1819 F3.15
G01 X1.5827 Y0.1818 F3.15
G01 X1.5822 Y0.1816 F3.15
G01 X1.5818 Y0.1814 F3.15
G01 X1.5814 Y0.1811 F3.15
G01 X1.4829 Y0.0825 F3.15
G00 Z0.0787
G00 X1.5829 Y0.0825
G01 F3.15
G01 Z-0.0945
G01 F3.15
G01 X1.5820 Y0.0832 F3.15
G01 X1.5808 Y0.0840 F3.15
G01 X1.5795 Y0.0848 F3.15
G01 X1.5782 Y0.0855 F3.15
G01 X1.5769 Y0.0862 F3.15
G01 X1.5756 Y0.0868 F3.15
G01 X1.5742 Y0.0873 F3.15
G01 X1.5728 Y0.0878 F3.15
G01 X1.5713 Y0.0882 F3.15
G01 X1.5699 Y0.0885 F3.15
G01 X1.5684 Y0.0888 F3.15
G01 X1.5670 Y0.0889 F3.15
G01 X1.5655 Y0.0891 F3.15
G01 X1.5640 Y0.0891 F3.15
G01 X1.5625 Y0.0891 F3.15
G01 X1.5611 Y0.0889 F3.15
G01 X1.5596 Y0.0888 F3.15
G01 X1.5581 Y0.0885 F3.15
G01 X1.5567 Y0.0882 F3.15
G01 X1.5553 Y0.0878 F3.15
G01 X1.5539 Y0.0873 F3.15
G01 X1.5525 Y0.0868 F3.15
G01 X1.5511 Y0.0862 F3.15
G01 X1.5498 Y0.0855 F3.15
G01 X1.5485 Y0.0848 F3.15
G01 X1.5473 Y0.0840 F3.15
G01 X1.5461 Y0.0832 F3.15
G01 X1.5449 Y0.0822 F3.15
G01 X1.5438 Y0.0813 F3.15
G01 X1.5427 Y0.0803 F3.15
G01 X1.5417 Y0.0792 F3.15
G01 X1.5407 Y0.0781 F3.15
G01 X1.5398 Y0.0769 F3.15
G01 X1.5389 Y0.0757 F3.15
G01 X1.5382 Y0.0744 F3.15
G01 X1.5374 Y0.0731 F3.15
G01 X1.5368 Y0.0718 F3.15
G01 X1.5362 Y0.0705 F3.15
G01 X1.5356 Y0.0691 F3.15
G01 X1.5352 Y0.0677 F3.15
G01 X1.5348 Y0.0663 F3.15
G01 X1.5344 Y0.0648 F3.15
G01 X1.5342 Y0.0634 F3.15
G01 X1.5340 Y0.0619 F3.15
G01 X1.5339 Y0.0604 F3.15
G01 X1.5339 Y0.0589 F3.15
G01 X1.5339 Y0.0575 F3.15
G01 X1.5340 Y0.0560 F3.15
G01 X1.5342 Y0.0545 F3.15
G01 X1.5344 Y0.0531 F3.15
G01 X1.5348 Y0.0516 F3.15
G01 X1.5352 Y0.0502 F3.15
G01 X1.5356 Y0.0488 F3.15
G01 X1.5362 Y0.0474 F3.15
G01 X1.5368 Y0.0460 F3.15
G01 X1.5374 Y0.0447 F3.15
G01 X1.5382 Y0.0434 F3.15
G01 X1.5389 Y0.0422 F3.15
G01 X1.5398 Y0.0410 F3.15
G01 X1.5407 Y0.0398 F3.15
G01 X1.5417 Y0.0387 F3.15
G01 X1.5427 Y0.0376 F3.15
G01 X1.5438 Y0.0366 F3.15
G01 X1.5449 Y0.0356 F3.15
G01 X1.5461 Y0.0347 F3.15
G01 X1.5473 Y0.0339 F3.15
G01 X1.5485 Y0.0331 F3.15
G01 X1.5498 Y0.0323 F3.15
G01 X1.5511 Y0.0317 F3.15
G01 X1.5525 Y0.0311 F3.15
G01 X1.5539 Y0.0305 F3.15
G01 X1.5553 Y0.0301 F3.15
G01 X1.5567 Y0.0297 F3.15
G01 X1.5581 Y0.0294 F3.15
G01 X1.5596 Y0.0291 F3.15
G01 X1.5611 Y0.0289 F3.15
G01 X1.5625 Y0.0288 F3.15
G01 X1.5640 Y0.0288 F3.15
G01 X1.5655 Y0.0288 F3.15
G01 X1.5670 Y0.0289 F3.15
G01 X1.5684 Y0.0291 F3.15
G01 X1.5699 Y0.0294 F3.15
G01 X1.5713 Y0.0297 F3.15
G01 X1.5728 Y0.0301 F3.15
G01 X1.5742 Y0.0305 F3.15
G01 X1.5756 Y0.0311 F3.15
G01 X1.5769 Y0.0317 F3.15
G01 X1.5782 Y0.0323 F3.15
G01 X1.5795 Y0.0331 F3.15
G01 X1.5808 Y0.0339 F3.15
G01 X1.5820 Y0.0347 F3.15
G01 X1.5831 Y0.0356 F3.15
G01 X1.5843 Y0.0366 F3.15
G01 X1.5853 Y0.0376 F3.15
G01 X1.5864 Y0.0387 F3.15
G01 X1.5873 Y0.0398 F3.15
G01 X1.5882 Y0.0410 F3.15
G01 X1.5891 Y0.0422 F3.15
G01 X1.5899 Y0.0434 F3.15
G01 X1.5906 Y0.0447 F3.15
G01 X1.5913 Y0.0460 F3.15
G01 X1.5919 Y0.0474 F3.15
G01 X1.5924 Y0.0488 F3.15
G01 X1.5929 Y0.0502 F3.15
G01 X1.5933 Y0.0516 F3.15
G01 X1.5936 Y0.0531 F3.15
G01 X1.5938 Y0.0545 F3.15
G01 X1.5940 Y0.0560 F3.15
G01 X1.5941 Y0.0575 F3.15
G01 X1.5942 Y0.0589 F3.15
G01 X1.5941 Y0.0604 F3.15
G01 X1.5940 Y0.0619 F3.15
G01 X1.5938 Y0.0634 F3.15
G01 X1.5936 Y0.0648 F3.15
G01 X1.5933 Y0.0663 F3.15
G01 X1.5929 Y0.0677 F3.15
G01 X1.5924 Y0.0691 F3.15
G01 X1.5919 Y0.0705 F3.15
G01 X1.5913 Y0.0718 F3.15
G01 X1.5906 Y0.0731 F3.15
G01 X1.5899 Y0.0744 F3.15
G01 X1.5891 Y0.0757 F3.15
G01 X1.5882 Y0.0769 F3.15
G01 X1.5875 Y0.0778 F3.15
G01 X1.6725 Y0.1628 F3.15
G01 X2.1926 Y0.1628 F3.15
G01 X2.1929 Y0.1628 F3.15
G01 X2.1932 Y0.1628 F3.15
G01 X2.1937 Y0.1630 F3.15
G01 X2.1940 Y0.1631 F3.15
G01 X2.1943 Y0.1632 F3.15
G01 X2.1947 Y0.1635 F3.15
G01 X2.1949 Y0.1637 F3.15
G01 X2.2022 Y0.1710 F3.15
G01 X2.3025 Y0.1710 F3.15
G01 X2.3028 Y0.1710 F3.15
G01 X2.3033 Y0.1710 F3.15
G01 X2.3037 Y0.1712 F3.15
G01 X2.3040 Y0.1713 F3.15
G01 X2.3044 Y0.1716 F3.15
G01 X2.3048 Y0.1719 F3.15
G01 X2.3236 Y0.1906 F3.15
G01 X2.3599 Y0.1906 F3.15
G01 X2.3604 Y0.1907 F3.15
G01 X2.3607 Y0.1907 F3.15
G01 X2.3610 Y0.1908 F3.15
G01 X2.3614 Y0.1910 F3.15
G01 X2.3618 Y0.1913 F3.15
G01 X2.3622 Y0.1916 F3.15
G01 X2.4105 Y0.2399 F3.15
G01 X2.4109 Y0.2398 F3.15
G01 X2.4112 Y0.2398 F3.15
G01 X2.4117 Y0.2398 F3.15
G01 X2.4123 Y0.2399 F3.15
G01 X2.4128 Y0.2401 F3.15
G01 X2.4134 Y0.2402 F3.15
G01 X2.4136 Y0.2404 F3.15
G01 X2.4141 Y0.2406 F3.15
G01 X2.4146 Y0.2409 F3.15
G01 X2.4150 Y0.2413 F3.15
G01 X2.4533 Y0.2796 F3.15
G01 X2.4537 Y0.2800 F3.15
G01 X2.4540 Y0.2805 F3.15
G01 X2.4542 Y0.2807 F3.15
G01 X2.4543 Y0.2810 F3.15
G01 X2.4546 Y0.2815 F3.15
G01 X2.4548 Y0.2820 F3.15
G01 X2.4549 Y0.2825 F3.15
G01 X2.4549 Y0.2828 F3.15
G01 X2.4550 Y0.2831 F3.15
G01 X2.4550 Y0.2836 F3.15
G01 X2.4550 Y0.2842 F3.15
G01 X2.4549 Y0.2847 F3.15
G01 X2.4548 Y0.2850 F3.15
G01 X2.4547 Y0.2855 F3.15
G01 X2.4545 Y0.2860 F3.15
G01 X2.4543 Y0.2863 F3.15
G01 X2.4542 Y0.2865 F3.15
G01 X2.4539 Y0.2870 F3.15
G01 X2.4535 Y0.2874 F3.15
G01 X2.4531 Y0.2878 F3.15
G01 X2.4529 Y0.2880 F3.15
G01 X2.4527 Y0.2882 F3.15
G01 X2.4522 Y0.2885 F3.15
G01 X2.4517 Y0.2887 F3.15
G01 X2.4512 Y0.2890 F3.15
G01 X2.4510 Y0.2890 F3.15
G01 X2.4507 Y0.2891 F3.15
G01 X2.4502 Y0.2892 F3.15
G01 X2.4496 Y0.2893 F3.15
G01 X2.4491 Y0.2893 F3.15
G01 X2.4488 Y0.2893 F3.15
G01 X2.4485 Y0.2892 F3.15
G01 X2.4480 Y0.2891 F3.15
G01 X2.4474 Y0.2890 F3.15
G01 X2.4469 Y0.2887 F3.15
G01 X2.4467 Y0.2886 F3.15
G01 X2.4464 Y0.2885 F3.15
G01 X2.4460 Y0.2882 F3.15
G01 X2.4455 Y0.2878 F3.15
G01 X2.4070 Y0.2493 F3.15
G01 X2.4066 Y0.2488 F3.15
G01 X2.4063 Y0.2484 F3.15
G01 X2.4062 Y0.2481 F3.15
G01 X2.4059 Y0.2476 F3.15
G01 X2.4058 Y0.2474 F3.15
G01 X2.4057 Y0.2469 F3.15
G01 X2.4056 Y0.2463 F3.15
G01 X2.4055 Y0.2460 F3.15
G01 X2.4055 Y0.2455 F3.15
G01 X2.4055 Y0.2449 F3.15
G01 X2.4056 Y0.2444 F3.15
G01 X2.3585 Y0.1972 F3.15
G01 X2.3222 Y0.1972 F3.15
G01 X2.3217 Y0.1972 F3.15
G01 X2.3214 Y0.1971 F3.15
G01 X2.3211 Y0.1970 F3.15
G01 X2.3208 Y0.1969 F3.15
G01 X2.3205 Y0.1968 F3.15
G01 X2.3201 Y0.1965 F3.15
G01 X2.3199 Y0.1963 F3.15
G01 X2.3011 Y0.1776 F3.15
G01 X2.2008 Y0.1776 F3.15
G01 X2.2005 Y0.1775 F3.15
G01 X2.2000 Y0.1775 F3.15
G01 X2.1995 Y0.1773 F3.15
G01 X2.1992 Y0.1772 F3.15
G01 X2.1990 Y0.1770 F3.15
G01 X2.1986 Y0.1767 F3.15
G01 X2.1912 Y0.1694 F3.15
G01 X1.6711 Y0.1694 F3.15
G01 X1.6706 Y0.1693 F3.15
G01 X1.6701 Y0.1692 F3.15
G01 X1.6697 Y0.1690 F3.15
G01 X1.6694 Y0.1689 F3.15
G01 X1.6691 Y0.1687 F3.15
G01 X1.6688 Y0.1684 F3.15
G01 X1.5829 Y0.0825 F3.15
G00 Z0.0787
G00 X1.6829 Y0.0825
G01 F3.15
G01 Z-0.0945
G01 F3.15
G01 X1.6820 Y0.0832 F3.15
G01 X1.6808 Y0.0840 F3.15
G01 X1.6795 Y0.0848 F3.15
G01 X1.6782 Y0.0855 F3.15
G01 X1.6769 Y0.0862 F3.15
G01 X1.6756 Y0.0868 F3.15
G01 X1.6742 Y0.0873 F3.15
G01 X1.6728 Y0.0878 F3.15
G01 X1.6713 Y0.0882 F3.15
G01 X1.6699 Y0.0885 F3.15
G01 X1.6684 Y0.0888 F3.15
G01 X1.6670 Y0.0889 F3.15
G01 X1.6655 Y0.0891 F3.15
G01 X1.6640 Y0.0891 F3.15
G01 X1.6625 Y0.0891 F3.15
G01 X1.6611 Y0.0889 F3.15
G01 X1.6596 Y0.0888 F3.15
G01 X1.6581 Y0.0885 F3.15
G01 X1.6567 Y0.0882 F3.15
G01 X1.6553 Y0.0878 F3.15
G01 X1.6539 Y0.0873 F3.15
G01 X1.6525 Y0.0868 F3.15
G01 X1.6511 Y0.0862 F3.15
G01 X1.6498 Y0.0855 F3.15
G01 X1.6485 Y0.0848 F3.15
G01 X1.6473 Y0.0840 F3.15
G01 X1.6461 Y0.0832 F3.15
G01 X1.6449 Y0.0822 F3.15
G01 X1.6438 Y0.0813 F3.15
G01 X1.6427 Y0.0803 F3.15
G01 X1.6417 Y0.0792 F3.15
G01 X1.6407 Y0.0781 F3.15
G01 X1.6398 Y0.0769 F3.15
G01 X1.6389 Y0.0757 F3.15
G01 X1.6382 Y0.0744 F3.15
G01 X1.6374 Y0.0731 F3.15
G01 X1.6368 Y0.0718 F3.15
G01 X1.6362 Y0.0705 F3.15
G01 X1.6356 Y0.0691 F3.15
G01 X1.6352 Y0.0677 F3.15
G01 X1.6348 Y0.0663 F3.15
G01 X1.6344 Y0.0648 F3.15
G01 X1.6342 Y0.0634 F3.15
G01 X1.6340 Y0.0619 F3.15
G01 X1.6339 Y0.0604 F3.15
G01 X1.6339 Y0.0589 F3.15
G01 X1.6339 Y0.0575 F3.15
G01 X1.6340 Y0.0560 F3.15
G01 X1.6342 Y0.0545 F3.15
G01 X1.6344 Y0.0531 F3.15
G01 X1.6348 Y0.0516 F3.15
G01 X1.6352 Y0.0502 F3.15
G01 X1.6356 Y0.0488 F3.15
G01 X1.6362 Y0.0474 F3.15
G01 X1.6368 Y0.0460 F3.15
G01 X1.6374 Y0.0447 F3.15
G01 X1.6382 Y0.0434 F3.15
G01 X1.6389 Y0.0422 F3.15
G01 X1.6398 Y0.0410 F3.15
G01 X1.6407 Y0.0398 F3.15
G01 X1.6417 Y0.0387 F3.15
G01 X1.6427 Y0.0376 F3.15
G01 X1.6438 Y0.0366 F3.15
G01 X1.6449 Y0.0356 F3.15
G01 X1.6461 Y0.0347 F3.15
G01 X1.6473 Y0.0339 F3.15
G01 X1.6485 Y0.0331 F3.15
G01 X1.6498 Y0.0323 F3.15
G01 X1.6511 Y0.0317 F3.15
G01 X1.6525 Y0.0311 F3.15
G01 X1.6539 Y0.0305 F3.15
G01 X1.6553 Y0.0301 F3.15
G01 X1.6567 Y0.0297 F3.15
G01 X1.6581 Y0.0294 F3.15
G01 X1.6596 Y0.0291 F3.15
G01 X1.6611 Y0.0289 F3.15
G01 X1.6625 Y0.0288 F3.15
G01 X1.6640 Y0.0288 F3.15
G01 X1.6655 Y0.0288 F3.15
G01 X1.6670 Y0.0289 F3.15
G01 X1.6684 Y0.0291 F3.15
G01 X1.6699 Y0.0294 F3.15
G01 X1.6713 Y0.0297 F3.15
G01 X1.6728 Y0.0301 F3.15
G01 X1.6742 Y0.0305 F3.15
G01 X1.6756 Y0.0311 F3.15
G01 X1.6769 Y0.0317 F3.15
G01 X1.6782 Y0.0323 F3.15
G01 X1.6795 Y0.0331 F3.15
G01 X1.6808 Y0.0339 F3.15
G01 X1.6820 Y0.0347 F3.15
G01 X1.6831 Y0.0356 F3.15
G01 X1.6843 Y0.0366 F3.15
G01 X1.6853 Y0.0376 F3.15
G01 X1.6864 Y0.0387 F3.15
G01 X1.6873 Y0.0398 F3.15
G01 X1.6882 Y0.0410 F3.15
G01 X1.6891 Y0.0422 F3.15
G01 X1.6899 Y0.0434 F3.15
G01 X1.6906 Y0.0447 F3.15
G01 X1.6913 Y0.0460 F3.15
G01 X1.6919 Y0.0474 F3.15
G01 X1.6924 Y0.0488 F3.15
G01 X1.6929 Y0.0502 F3.15
G01 X1.6933 Y0.0516 F3.15
G01 X1.6936 Y0.0531 F3.15
G01 X1.6938 Y0.0545 F3.15
G01 X1.6940 Y0.0560 F3.15
G01 X1.6941 Y0.0575 F3.15
G01 X1.6942 Y0.0589 F3.15
G01 X1.6941 Y0.0604 F3.15
G01 X1.6940 Y0.0619 F3.15
G01 X1.6938 Y0.0634 F3.15
G01 X1.6936 Y0.0648 F3.15
G01 X1.6933 Y0.0663 F3.15
G01 X1.6929 Y0.0677 F3.15
G01 X1.6924 Y0.0691 F3.15
G01 X1.6919 Y0.0705 F3.15
G01 X1.6913 Y0.0718 F3.15
G01 X1.6906 Y0.0731 F3.15
G01 X1.6899 Y0.0744 F3.15
G01 X1.6891 Y0.0757 F3.15
G01 X1.6882 Y0.0769 F3.15
G01 X1.6875 Y0.0778 F3.15
G01 X1.7598 Y0.1500 F3.15
G01 X2.1979 Y0.1500 F3.15
G01 X2.1982 Y0.1501 F3.15
G01 X2.1986 Y0.1501 F3.15
G01 X2.1990 Y0.1502 F3.15
G01 X2.1993 Y0.1504 F3.15
G01 X2.1996 Y0.1505 F3.15
G01 X2.2000 Y0.1508 F3.15
G01 X2.2003 Y0.1510 F3.15
G01 X2.2075 Y0.1583 F3.15
G01 X2.3077 Y0.1583 F3.15
G01 X2.3080 Y0.1583 F3.15
G01 X2.3085 Y0.1584 F3.15
G01 X2.3089 Y0.1585 F3.15
G01 X2.3092 Y0.1587 F3.15
G01 X2.3096 Y0.1589 F3.15
G01 X2.3100 Y0.1592 F3.15
G01 X2.3264 Y0.1756 F3.15
G01 X2.3727 Y0.1756 F3.15
G01 X2.3732 Y0.1757 F3.15
G01 X2.3736 Y0.1758 F3.15
G01 X2.3741 Y0.1760 F3.15
G01 X2.3745 Y0.1762 F3.15
G01 X2.3748 Y0.1764 F3.15
G01 X2.3750 Y0.1766 F3.15
G01 X2.4243 Y0.2259 F3.15
G01 X2.4248 Y0.2259 F3.15
G01 X2.4251 Y0.2259 F3.15
G01 X2.4257 Y0.2259 F3.15
G01 X2.4262 Y0.2260 F3.15
G01 X2.4268 Y0.2261 F3.15
G01 X2.4273 Y0.2263 F3.15
G01 X2.4278 Y0.2265 F3.15
G01 X2.4283 Y0.2268 F3.15
G01 X2.4285 Y0.2270 F3.15
G01 X2.4289 Y0.2273 F3.15
G01 X2.4673 Y0.2657 F3.15
G01 X2.4676 Y0.2661 F3.15
G01 X2.4680 Y0.2665 F3.15
G01 X2.4681 Y0.2668 F3.15
G01 X2.4683 Y0.2670 F3.15
G01 X2.4685 Y0.2675 F3.15
G01 X2.4687 Y0.2680 F3.15
G01 X2.4688 Y0.2686 F3.15
G01 X2.4689 Y0.2689 F3.15
G01 X2.4689 Y0.2691 F3.15
G01 X2.4689 Y0.2697 F3.15
G01 X2.4689 Y0.2702 F3.15
G01 X2.4688 Y0.2708 F3.15
G01 X2.4688 Y0.2711 F3.15
G01 X2.4686 Y0.2716 F3.15
G01 X2.4684 Y0.2721 F3.15
G01 X2.4683 Y0.2724 F3.15
G01 X2.4681 Y0.2726 F3.15
G01 X2.4678 Y0.2731 F3.15
G01 X2.4675 Y0.2735 F3.15
G01 X2.4671 Y0.2739 F3.15
G01 X2.4669 Y0.2741 F3.15
G01 X2.4666 Y0.2742 F3.15
G01 X2.4662 Y0.2745 F3.15
G01 X2.4657 Y0.2748 F3.15
G01 X2.4652 Y0.2750 F3.15
G01 X2.4649 Y0.2751 F3.15
G01 X2.4646 Y0.2752 F3.15
G01 X2.4641 Y0.2753 F3.15
G01 X2.4635 Y0.2753 F3.15
G01 X2.4630 Y0.2753 F3.15
G01 X2.4627 Y0.2753 F3.15
G01 X2.4624 Y0.2753 F3.15
G01 X2.4619 Y0.2752 F3.15
G01 X2.4614 Y0.2750 F3.15
G01 X2.4608 Y0.2748 F3.15
G01 X2.4606 Y0.2747 F3.15
G01 X2.4601 Y0.2744 F3.15
G01 X2.4597 Y0.2741 F3.15
G01 X2.4595 Y0.2739 F3.15
G01 X2.4209 Y0.2353 F3.15
G01 X2.4206 Y0.2349 F3.15
G01 X2.4203 Y0.2345 F3.15
G01 X2.4201 Y0.2342 F3.15
G01 X2.4199 Y0.2337 F3.15
G01 X2.4197 Y0.2332 F3.15
G01 X2.4196 Y0.2326 F3.15
G01 X2.4195 Y0.2324 F3.15
G01 X2.4195 Y0.2318 F3.15
G01 X2.4195 Y0.2313 F3.15
G01 X2.4195 Y0.2310 F3.15
G01 X2.4196 Y0.2305 F3.15
G01 X2.3713 Y0.1822 F3.15
G01 X2.3251 Y0.1822 F3.15
G01 X2.3246 Y0.1822 F3.15
G01 X2.3243 Y0.1821 F3.15
G01 X2.3238 Y0.1820 F3.15
G01 X2.3234 Y0.1818 F3.15
G01 X2.3231 Y0.1816 F3.15
G01 X2.3227 Y0.1813 F3.15
G01 X2.3063 Y0.1649 F3.15
G01 X2.2061 Y0.1649 F3.15
G01 X2.2058 Y0.1649 F3.15
G01 X2.2053 Y0.1648 F3.15
G01 X2.2048 Y0.1646 F3.15
G01 X2.2045 Y0.1645 F3.15
G01 X2.2043 Y0.1643 F3.15
G01 X2.2039 Y0.1640 F3.15
G01 X2.1965 Y0.1566 F3.15
G01 X1.7584 Y0.1566 F3.15
G01 X1.7579 Y0.1566 F3.15
G01 X1.7574 Y0.1565 F3.15
G01 X1.7570 Y0.1563 F3.15
G01 X1.7567 Y0.1562 F3.15
G01 X1.7564 Y0.1560 F3.15
G01 X1.7561 Y0.1557 F3.15
G01 X1.6829 Y0.0825 F3.15
G00 Z0.0787
G00 X1.7829 Y0.0824
G01 F3.15
G01 Z-0.0945
G01 F3.15
G01 X1.7820 Y0.0832 F3.15
G01 X1.7808 Y0.0840 F3.15
G01 X1.7795 Y0.0848 F3.15
G01 X1.7782 Y0.0855 F3.15
G01 X1.7769 Y0.0862 F3.15
G01 X1.7756 Y0.0868 F3.15
G01 X1.7742 Y0.0873 F3.15
G01 X1.7728 Y0.0878 F3.15
G01 X1.7713 Y0.0882 F3.15
G01 X1.7699 Y0.0885 F3.15
G01 X1.7684 Y0.0888 F3.15
G01 X1.7670 Y0.0889 F3.15
G01 X1.7655 Y0.0891 F3.15
